<?xml version="1.0" encoding="UTF-8"?>
<map version="1.10" tiledversion="1.11.2" orientation="orthogonal" renderorder="left-down" width="30" height="20" tilewidth="16" tileheight="16" infinite="1" nextlayerid="21" nextobjectid="17">
 <tileset firstgid="1" source="../../../../../ArtAssets/ManaSeed/TileSets/SummerForest/sample map/TSX files/summer 16x32.tsx"/>
 <tileset firstgid="7" source="../../../../../ArtAssets/ManaSeed/TileSets/SummerForest/sample map/TSX files/summer 32x32.tsx"/>
 <tileset firstgid="14" source="../../../../../ArtAssets/ManaSeed/TileSets/SummerForest/sample map/TSX files/summer 48x32.tsx"/>
 <tileset firstgid="17" source="../../../../../ArtAssets/ManaSeed/TileSets/SummerForest/sample map/TSX files/summer forest wang tiles.tsx"/>
 <tileset firstgid="2065" source="../../../../../ArtAssets/ManaSeed/TileSets/SummerForest/sample map/TSX files/summer forest, tree wall (canopy only).tsx"/>
 <tileset firstgid="2089" source="../../../../../ArtAssets/ManaSeed/TileSets/SummerForest/sample map/TSX files/summer forest, tree wall.tsx"/>
 <tileset firstgid="2113" source="../../../../../ArtAssets/ManaSeed/TileSets/SummerForest/sample map/TSX files/summer forest.tsx"/>
 <tileset firstgid="2785" source="../../../../../ArtAssets/ManaSeed/TileSets/SummerForest/sample map/TSX files/summer trees 80x112.tsx"/>
 <tileset firstgid="2788" source="../../../../../ArtAssets/ManaSeed/TileSets/SummerForest/sample map/TSX files/summer water sparkles.tsx"/>
 <tileset firstgid="2800" source="../../../../../ArtAssets/ManaSeed/TileSets/SummerForest/sample map/TSX files/summer waterfall B.tsx"/>
 <tileset firstgid="2880" source="../../../../../ArtAssets/ManaSeed/TileSets/WorldTree/WorldTreeExterior.tsx"/>
 <tileset firstgid="4928" source="../../../../../ArtAssets/ManaSeed/TileSets/ThatchRoofHome/sample map/TSX files/home exteriors, thatch roof v3.tsx"/>
 <tileset firstgid="5952" source="../../../../../ArtAssets/ManaSeed/TileSets/ThatchRoofHome/sample map/TSX files/home interiors, thatch roof v1.tsx"/>
 <tileset firstgid="6464" source="../../../../../ArtAssets/ManaSeed/TileSets/BridgesAndMore/sample map/bridges &amp; more v1.tsx"/>
 <tileset firstgid="7139" source="../../../../../ArtAssets/ManaSeed/TileSets/ArcticWoodland/TSX files/arctic woodland.tsx"/>
 <tileset firstgid="7331" source="../../../../../ArtAssets/ManaSeed/TileSets/RainforestJungle/palette v2/Jungle.tsx"/>
 <tileset firstgid="7587" source="../../../../../ArtAssets/ManaSeed/MISC/Collisions.tsx"/>
 <layer id="1" name="BelowCollision" width="30" height="20">
  <data encoding="csv"/>
 </layer>
 <layer id="4" name="Below3" width="30" height="20">
  <data encoding="csv">
   <chunk x="-32" y="-48" width="16" height="16">
0,0,0,0,0,0,0,0,0,0,0,0,0,0,0,0,
0,0,0,0,0,0,0,0,0,0,0,0,0,0,0,0,
0,0,0,0,0,0,0,2681,0,0,0,0,0,0,0,0,
0,0,0,0,0,0,0,2681,0,0,0,0,0,0,0,0,
0,0,0,0,0,0,0,2681,0,0,0,0,0,0,0,0,
0,0,0,0,0,0,0,0,0,0,0,0,0,0,0,0,
0,0,0,0,0,0,0,0,0,0,0,0,0,0,0,0,
0,0,0,0,0,0,0,0,0,0,0,0,0,0,0,0,
0,0,0,0,0,0,0,0,0,0,0,0,0,0,0,0,
0,0,0,0,0,0,0,0,0,0,0,0,0,0,0,0,
0,0,0,0,0,0,0,0,0,0,0,0,0,0,0,0,
0,0,0,0,0,0,0,0,0,0,0,0,0,0,0,0,
0,0,0,0,0,0,0,0,0,0,0,0,0,0,0,0,
0,0,0,0,0,0,0,0,0,0,0,0,0,0,0,0,
0,0,0,0,0,0,0,0,0,0,0,0,0,0,0,0,
0,0,0,0,0,0,0,0,0,0,0,0,0,0,0,0
</chunk>
   <chunk x="-16" y="-48" width="16" height="16">
0,0,0,0,0,0,0,0,0,0,0,0,0,0,0,0,
0,0,0,0,0,0,0,0,0,0,0,0,0,0,0,0,
0,0,0,0,0,0,0,0,0,0,0,0,0,0,0,0,
0,0,0,0,0,0,0,0,0,0,0,0,0,0,0,0,
0,0,0,0,0,0,0,0,0,0,213,213,0,0,0,0,
0,0,0,0,0,0,0,0,0,0,0,0,0,0,0,0,
0,0,0,0,0,0,0,0,0,0,0,0,0,0,0,0,
0,0,0,0,0,0,0,0,0,0,0,0,0,0,0,0,
0,0,0,0,0,0,0,0,0,0,0,0,0,0,0,0,
0,0,0,0,0,0,0,0,0,0,0,0,0,0,0,0,
0,0,0,0,0,0,0,0,0,0,0,0,0,0,0,0,
0,0,0,0,0,0,0,0,0,0,0,0,0,0,0,0,
0,0,0,0,0,0,0,0,0,0,0,0,0,0,0,0,
0,0,0,0,0,0,0,0,0,0,0,0,0,0,0,0,
0,0,0,0,0,0,0,0,0,0,0,0,0,0,0,0,
0,0,0,0,0,0,0,0,0,0,0,0,0,0,0,0
</chunk>
   <chunk x="-32" y="-32" width="16" height="16">
0,0,0,0,0,0,0,0,0,0,0,0,0,0,0,0,
0,0,0,0,0,0,0,0,0,0,0,0,0,0,0,0,
0,0,0,0,0,0,0,0,0,0,0,0,0,0,0,0,
0,0,0,0,0,0,0,2681,0,0,0,0,0,0,0,0,
0,0,0,0,0,0,0,0,0,0,0,0,0,0,0,0,
0,0,0,0,0,0,0,0,0,0,0,0,0,0,0,0,
0,0,0,0,0,0,0,0,0,0,0,0,0,0,0,0,
0,0,0,0,0,0,0,0,0,0,0,0,0,0,0,0,
0,0,0,0,0,0,0,0,0,0,0,0,0,0,0,0,
0,0,0,0,0,0,0,0,0,0,0,0,0,0,0,0,
0,0,0,0,0,0,0,0,0,0,0,0,0,0,0,0,
0,0,0,0,0,0,0,0,0,0,0,0,0,0,0,0,
0,0,0,0,0,0,0,0,0,0,0,0,0,0,0,0,
0,0,0,0,0,0,0,0,0,0,0,0,0,0,0,0,
0,0,0,0,0,0,0,0,0,0,0,0,0,0,0,0,
0,0,0,0,0,0,0,0,0,0,0,0,0,0,209,337
</chunk>
   <chunk x="-16" y="-32" width="16" height="16">
0,0,0,0,0,0,0,0,0,0,0,0,0,0,0,0,
0,0,0,0,0,0,0,0,0,0,0,0,0,0,0,0,
0,0,0,0,0,0,0,0,0,0,0,0,0,0,0,0,
0,0,0,0,0,0,0,0,0,0,0,0,0,0,0,0,
2259,0,0,0,0,0,0,0,0,0,0,0,0,0,0,0,
2493,0,0,0,0,0,0,0,0,0,0,0,0,0,0,0,
2589,0,0,0,0,0,2557,0,0,0,0,0,0,0,0,0,
0,0,0,0,0,0,0,0,0,0,0,0,0,0,0,0,
0,0,0,0,0,0,0,0,0,0,0,0,0,0,0,0,
0,0,0,0,0,0,0,0,0,0,0,0,0,0,0,0,
0,0,0,0,0,0,0,0,0,0,0,0,0,0,0,0,
0,0,0,0,0,0,0,0,0,0,0,0,0,0,0,0,
0,0,0,0,0,0,0,0,0,0,0,0,0,0,0,0,
0,0,0,0,0,0,0,0,0,0,0,0,0,0,0,0,
0,0,0,0,0,0,0,0,0,0,0,0,0,0,0,0,
145,401,0,0,0,0,0,0,0,0,0,0,0,0,0,0
</chunk>
   <chunk x="-32" y="-16" width="16" height="16">
0,0,0,0,0,0,0,0,0,0,0,273,209,145,273,145,
0,0,0,0,0,0,0,0,0,145,145,145,209,145,337,145,
0,0,0,0,337,145,209,145,273,145,273,209,337,401,145,273,
0,0,0,0,401,145,145,273,209,209,145,145,209,145,209,145,
0,0,0,0,145,145,273,209,145,209,145,273,273,145,209,145,
0,0,0,0,209,145,401,337,401,145,209,145,145,145,145,145,
0,0,0,0,0,145,209,145,145,273,273,145,145,209,209,145,
0,0,0,146,0,0,0,0,209,145,337,401,145,145,145,209,
0,0,0,23,25,146,210,0,0,0,145,145,273,401,0,0,
0,0,0,87,279,25,274,146,338,0,0,209,0,0,0,0,
0,0,0,151,216,279,25,210,146,210,0,145,0,0,0,0,
0,0,0,0,151,216,279,25,146,274,0,145,0,0,0,0,
0,0,0,0,0,151,216,89,210,0,0,273,145,0,0,0,
0,0,0,0,0,0,151,153,274,0,0,145,209,0,0,0,
0,0,0,0,0,0,146,210,146,210,0,145,0,0,0,0,
0,0,0,0,0,0,210,146,274,146,0,0,0,146,210,0
</chunk>
   <chunk x="-16" y="-16" width="16" height="16">
209,273,145,145,209,0,0,0,0,0,0,0,0,0,0,0,
145,145,209,337,145,0,0,0,0,0,0,0,0,0,0,0,
209,209,145,273,401,0,0,0,0,0,0,0,0,0,0,0,
145,209,209,145,0,0,0,0,0,0,0,0,0,0,0,0,
337,145,209,273,0,0,0,0,0,0,0,0,0,0,0,0,
273,209,0,0,0,0,0,0,0,0,0,0,0,0,0,0,
209,273,0,0,0,0,0,0,0,0,0,0,0,0,0,0,
0,0,0,0,0,0,0,0,0,0,0,0,0,0,0,0,
0,0,0,0,0,0,0,0,0,0,0,0,0,0,0,0,
0,0,0,0,0,0,0,0,0,0,0,0,0,0,0,0,
0,0,0,0,0,0,0,0,0,0,0,0,0,0,0,0,
0,0,0,0,0,0,0,0,0,0,0,0,0,0,0,0,
0,0,0,0,0,0,0,0,0,0,0,0,0,0,0,0,
0,0,0,0,0,0,0,0,0,0,0,0,0,0,0,0,
0,0,0,0,0,0,0,0,0,0,0,0,0,0,0,0,
0,0,0,0,0,0,0,0,0,0,0,0,0,0,0,0
</chunk>
   <chunk x="-32" y="0" width="16" height="16">
0,0,0,0,0,0,0,274,210,338,402,0,0,210,146,0,
0,0,0,0,0,0,0,0,146,210,146,210,338,210,274,338,
0,0,0,0,0,0,0,338,274,146,210,402,402,146,146,146,
0,0,0,0,0,0,146,146,146,210,146,146,210,274,338,0,
0,0,0,0,0,0,0,0,0,0,0,0,0,0,0,0,
0,0,0,0,0,0,0,0,0,0,0,0,0,0,0,0,
0,0,0,0,0,0,0,0,0,0,0,0,0,0,0,0,
0,0,0,0,0,0,0,0,0,0,0,0,0,0,0,0,
0,0,0,0,0,0,0,0,0,0,0,0,0,0,0,0,
0,0,0,0,0,0,0,0,0,0,0,0,0,0,0,0,
0,0,0,0,0,0,0,0,0,0,0,0,0,0,0,0,
0,0,0,0,0,0,0,0,0,0,0,0,0,0,0,0,
0,0,0,0,0,0,0,0,0,0,0,0,0,0,0,0,
0,0,0,0,0,0,0,0,0,0,0,0,0,0,0,0,
0,0,0,0,0,0,0,0,0,0,0,0,0,0,0,0,
0,0,0,0,0,0,0,0,0,0,0,0,0,0,0,0
</chunk>
  </data>
 </layer>
 <layer id="5" name="Below2" width="30" height="20">
  <data encoding="csv">
   <chunk x="-96" y="-64" width="16" height="16">
0,0,0,0,0,0,0,0,0,0,0,0,0,0,0,0,
0,0,0,0,0,0,0,0,0,0,0,0,0,0,0,0,
0,0,0,0,0,0,0,0,0,0,0,0,0,0,0,0,
0,0,0,0,0,0,0,0,0,0,0,0,0,0,0,0,
0,0,0,0,0,0,0,0,0,0,0,0,0,0,0,0,
0,0,0,0,0,0,0,0,0,0,0,0,0,0,0,0,
0,0,0,0,0,0,0,0,0,0,0,0,0,0,0,0,
0,0,0,0,0,0,0,0,0,0,0,0,0,0,0,0,
0,0,0,0,0,0,0,0,0,0,0,0,0,0,0,0,
0,0,0,0,0,0,0,0,0,0,0,0,0,0,0,0,
0,0,0,0,0,0,0,0,0,0,0,0,0,0,0,0,
0,0,0,0,0,0,0,0,0,0,0,2675,2675,2675,2675,2675,
0,0,0,0,0,0,0,0,0,0,0,2675,2675,2675,2675,2675,
0,0,0,0,0,0,0,0,0,0,0,2675,2675,2675,2675,2675,
0,0,0,0,0,0,0,0,0,0,0,2675,2675,2675,2675,2675,
0,0,0,0,0,0,0,0,0,0,0,2675,2675,2675,2675,2675
</chunk>
   <chunk x="-80" y="-64" width="16" height="16">
0,0,0,0,0,0,0,0,0,0,0,0,0,0,0,0,
0,0,0,0,0,0,0,0,0,0,0,0,0,0,0,0,
0,0,0,0,0,0,0,0,0,0,0,0,0,0,0,0,
0,0,0,0,0,0,0,0,0,0,0,0,0,0,0,0,
0,0,0,0,0,0,0,0,0,0,0,0,0,0,0,0,
0,0,0,0,0,0,0,0,0,0,0,0,0,0,0,0,
0,0,0,0,0,0,0,0,0,0,0,0,0,0,0,0,
0,0,0,0,0,0,0,0,0,0,0,0,0,0,0,0,
0,0,0,0,0,0,0,0,0,0,0,0,0,0,0,0,
0,0,0,0,0,0,0,0,0,0,0,0,0,0,0,0,
0,0,0,0,0,0,0,0,0,0,0,0,0,0,0,0,
2675,2675,2675,2675,2675,2675,2675,2675,2675,2675,2675,2675,0,0,0,0,
2675,2675,2675,2675,2675,2675,2675,2675,2675,2675,2675,2675,2675,2675,2675,2675,
2675,2675,2675,2675,2675,2675,2675,2675,2675,2675,2675,2675,2675,2675,2675,2675,
2675,2675,2675,2675,2675,2675,2675,2675,2675,2675,2675,2675,2675,2675,2675,2675,
2675,2675,2675,2675,2675,2675,2675,2675,2675,2675,2675,2675,2675,2675,2675,2675
</chunk>
   <chunk x="-64" y="-64" width="16" height="16">
0,0,0,0,0,0,0,0,0,0,0,0,0,0,0,0,
0,0,0,0,0,0,0,0,0,0,0,0,0,0,0,0,
0,0,0,0,0,0,0,0,0,0,0,0,0,0,0,0,
0,0,0,0,0,0,0,0,0,0,0,0,0,0,0,0,
0,0,0,0,0,0,0,0,0,0,0,0,0,0,0,0,
0,0,0,0,0,0,0,0,0,0,0,0,0,0,0,0,
0,0,0,0,0,0,0,0,0,0,0,0,0,0,0,0,
0,0,0,0,0,0,0,0,0,0,0,0,0,0,0,0,
0,0,0,0,0,0,0,0,0,0,0,0,0,0,0,0,
0,0,0,0,0,0,0,0,0,0,0,0,0,0,0,0,
0,0,0,0,0,0,0,0,0,0,0,0,0,0,0,0,
0,0,0,0,0,0,0,0,0,0,0,0,0,0,0,0,
2675,2675,2675,2675,2675,2675,2675,2675,2675,2675,2675,2675,0,0,2675,2675,
2675,2675,2675,2675,2675,2675,2675,2675,2675,2675,2675,2675,2675,2675,2675,2675,
2675,2675,2675,2675,2675,2675,2675,2675,2675,2675,2675,2675,2675,2675,2675,2675,
2675,2675,2675,2675,2675,2675,2675,2675,2675,2675,2675,2675,2675,2675,2675,2675
</chunk>
   <chunk x="-48" y="-64" width="16" height="16">
0,0,0,0,0,0,0,0,0,0,0,0,0,0,0,0,
0,0,0,0,0,0,0,0,0,0,0,0,0,0,0,0,
0,0,0,0,0,0,0,0,0,0,0,0,0,0,0,0,
0,0,0,0,0,0,0,0,0,0,0,0,0,0,0,0,
0,0,0,0,0,0,0,0,0,0,0,0,0,0,0,0,
0,0,0,0,0,0,0,0,0,0,0,0,0,0,0,0,
0,0,0,0,0,0,0,0,0,0,0,0,0,0,0,0,
0,0,0,0,0,0,0,0,0,0,0,0,0,0,0,0,
0,0,0,0,0,0,0,0,0,0,0,0,0,0,0,0,
0,0,0,0,0,0,0,0,2675,0,0,0,0,0,0,0,
0,0,0,0,2675,2675,2675,2675,2675,2675,2675,2675,2675,2675,2675,2675,
2675,2675,2675,2675,2675,2675,2675,2675,2675,2675,2675,2675,2675,2675,2675,2675,
2675,2675,2675,2675,2675,2675,2675,2675,2675,2675,2675,2675,2675,2675,2675,2675,
2675,2675,2675,2675,2675,2675,2675,2675,2675,2675,2675,2675,2675,2675,2675,2675,
2675,2675,2675,2675,2675,2675,2675,2675,2675,2675,2675,2675,2675,2675,2675,2675,
2675,2675,2675,2675,2675,2675,2675,2675,2675,2675,2675,2675,2675,2675,2675,2675
</chunk>
   <chunk x="-32" y="-64" width="16" height="16">
0,0,0,0,0,0,0,0,0,0,0,0,0,0,0,0,
0,0,0,0,0,0,0,0,0,0,0,0,0,0,0,0,
0,0,0,0,0,0,0,0,0,0,0,0,0,0,0,0,
0,0,0,0,0,0,0,0,0,0,0,0,0,0,0,0,
0,0,0,0,0,0,0,0,0,0,0,0,0,0,0,0,
0,0,0,0,0,0,0,0,0,0,0,0,0,0,0,0,
0,0,0,0,0,0,0,0,0,0,0,0,0,0,0,0,
0,0,0,0,0,0,0,0,0,0,0,0,0,0,0,0,
0,0,0,0,0,0,0,0,0,0,0,0,0,0,0,0,
0,2675,2675,2675,2675,2675,2675,0,0,0,0,0,0,0,0,0,
2675,2675,2675,2675,2675,2675,2675,0,0,0,0,0,0,0,0,0,
2675,2675,2675,2675,2675,2675,2675,0,0,0,0,0,0,0,0,0,
2675,2675,2675,2675,2675,2675,2675,0,0,0,0,0,0,0,0,0,
2675,2675,2675,2675,2675,2675,2675,0,0,0,0,0,0,0,0,0,
2675,2675,2675,2675,2675,2675,2675,0,0,0,0,0,0,0,0,0,
2675,2675,2675,2675,2675,2675,2675,0,0,0,0,0,0,0,0,0
</chunk>
   <chunk x="0" y="-64" width="16" height="16">
0,0,0,0,0,0,0,0,0,0,0,0,0,0,0,0,
0,0,0,0,0,0,0,0,0,0,0,0,0,0,0,0,
0,0,0,0,0,0,0,0,472,472,0,0,0,0,0,0,
0,0,0,0,0,0,0,0,0,0,0,0,0,0,0,0,
0,0,0,0,0,0,0,0,0,0,0,0,0,0,0,0,
0,0,0,0,0,0,0,0,0,0,0,0,0,0,0,0,
0,0,0,0,0,0,0,0,0,0,0,0,0,0,0,0,
0,0,0,0,0,0,0,0,0,0,0,0,0,0,0,0,
0,0,0,0,0,0,0,0,0,0,0,0,0,0,0,0,
0,0,0,0,0,0,0,0,0,0,0,0,0,0,0,0,
0,0,0,0,0,0,0,0,0,0,0,0,0,0,0,0,
0,0,0,0,0,0,0,0,0,0,0,0,0,0,0,0,
0,0,0,0,0,0,0,0,0,0,0,0,0,0,0,0,
0,0,0,0,0,0,0,0,0,0,0,0,0,0,0,0,
0,0,0,0,0,0,0,0,0,0,0,0,0,0,0,0,
0,0,0,2259,0,0,0,0,0,0,0,0,0,0,0,0
</chunk>
   <chunk x="-96" y="-48" width="16" height="16">
0,0,0,0,0,0,0,0,0,0,0,2675,2675,2675,2675,2675,
0,0,0,0,0,0,0,0,0,0,0,2675,2675,2675,2675,2675,
0,0,0,0,0,0,0,0,0,0,0,2675,2675,2675,2675,2675,
0,0,0,0,0,0,0,0,0,0,0,2675,2675,2675,2675,2675,
0,0,0,0,0,0,0,0,0,0,0,2675,2675,2675,2675,2675,
0,0,0,0,0,0,0,0,0,0,0,2675,2675,2675,2675,2675,
0,0,0,0,0,0,0,0,0,0,0,2675,2675,2675,2675,2675,
0,0,0,0,0,0,0,0,0,0,0,2675,2675,2675,2675,2675,
0,0,0,0,0,0,0,0,0,0,0,2675,2675,2675,2675,2675,
0,0,0,0,0,0,0,0,0,0,0,2675,2675,2675,2675,2675,
0,0,0,0,0,0,0,0,0,0,0,2675,2675,2675,2675,2675,
0,0,0,0,0,0,0,0,0,0,0,2675,2675,2675,2675,2675,
0,0,0,0,0,0,0,0,0,0,0,2675,2675,2675,2675,2675,
0,0,0,0,0,0,0,0,0,0,0,2675,2675,2675,2675,2675,
0,0,0,0,0,0,0,0,0,0,0,2675,2675,2675,2675,2675,
0,0,0,0,0,0,0,0,0,0,0,2675,2675,2675,2675,2675
</chunk>
   <chunk x="-80" y="-48" width="16" height="16">
2675,2675,2675,2675,2675,2675,2675,2675,2675,2675,2675,2675,2675,2675,2675,2675,
2675,2675,2675,2675,2675,2675,2675,2675,2675,2675,2675,2675,2675,2675,2675,2675,
2675,2675,2675,2675,2675,2675,2675,2675,2675,2675,2675,2675,2675,2675,2675,2675,
2675,2675,2675,2675,2675,2675,2675,2675,2675,2675,2675,2675,2675,2675,2675,2675,
2675,2675,2675,2675,2675,2675,2675,2675,2675,2675,2675,2675,2675,2675,2675,2675,
2675,2675,2675,2675,2675,2675,2675,2675,2675,2675,2675,2675,2675,2675,2675,2675,
2675,2675,2675,2675,2675,2675,2675,2675,2675,2675,2675,2675,2675,2675,2675,2675,
2675,2675,2675,2675,2675,2675,2675,2675,2675,2675,2675,2675,2675,2675,2675,2675,
2675,2675,2675,2675,2675,2675,2675,2675,2675,2675,2675,2675,2675,2675,2675,2675,
2675,2675,2675,2675,2675,2675,2675,2675,2675,2675,2675,2675,2675,2675,2675,2675,
2675,2675,2675,2675,2675,2675,2675,2675,2675,2675,2675,2675,2675,2675,2675,2675,
2675,2675,2675,2675,2675,2675,2675,2675,2675,2675,2675,2675,2675,2675,2675,2675,
2675,2675,2675,2675,2675,2675,2675,2675,2675,2675,2675,2675,2675,2675,2675,2675,
2675,2675,2675,2675,2675,2675,2675,2675,2675,2675,2675,2675,2675,2675,2675,2675,
2675,2675,2675,2675,2675,2675,2675,2675,2675,2675,2675,2675,2675,2675,2675,2675,
2675,2675,2675,2675,2675,2675,2675,2675,2675,2675,2675,2675,2675,2675,2675,2675
</chunk>
   <chunk x="-64" y="-48" width="16" height="16">
2675,2675,2675,2675,2675,2675,2675,2675,2675,2675,2675,2675,2675,2675,2675,2675,
2675,2675,2675,2675,2675,2675,2675,2675,2675,2675,2675,2675,2675,2675,2675,2675,
2675,2675,2675,2675,2675,2675,2675,2675,2675,2675,2675,2675,2675,2675,2675,2675,
2675,2675,2675,2675,2675,2675,2675,2675,2675,2675,2675,2675,2675,2675,2675,2675,
2675,2675,2675,2675,2675,2675,2675,2675,2675,2675,2675,2675,2675,2675,2675,2675,
2675,2675,2675,2675,2675,2675,2675,2675,2675,2675,2675,2675,2675,2675,2675,2675,
2675,2675,2675,2675,2675,2675,2675,2675,2675,2675,2675,2675,2675,2675,2675,2675,
2675,2675,2675,2675,2675,2675,2675,2675,2675,2675,2675,2675,2675,2675,2675,2675,
2675,2675,2675,2675,2675,2675,2675,2675,2675,2675,2675,2675,2675,2675,2675,2675,
2675,2675,2675,2675,2675,2675,2675,2675,2675,2675,2675,2675,7535,2675,2675,2675,
2675,2675,2675,2675,2675,2675,2675,2675,2675,2675,2675,2675,7551,2675,2675,2675,
2675,2675,2675,2675,2675,2675,2675,2675,2675,2675,2675,2675,7567,7568,7569,7568,
2675,2675,2675,2675,2675,2675,2675,2675,2675,2675,2675,7338,7455,7472,7473,7472,
2675,2675,2675,2675,2675,2675,2675,2675,2675,2675,2675,7354,7471,7488,7489,7488,
2675,2675,2675,2675,2675,2675,2675,2675,2675,2675,2675,7370,7487,7473,7472,7473,
2675,2675,2675,2675,2675,2675,2675,2675,2675,2675,2675,7354,7567,7489,7488,7489
</chunk>
   <chunk x="-48" y="-48" width="16" height="16">
2675,2675,2675,2675,2675,2675,2675,2675,2675,2675,2675,2675,2675,2675,2675,2675,
2675,2675,2675,2675,2675,2675,2675,2675,2675,2675,2675,2675,2675,2675,2675,2675,
2675,2675,2675,2675,2675,2675,2675,2675,2675,2675,2675,2675,2675,2675,2675,2675,
2675,2675,2675,2675,2675,2675,2675,2675,2675,2675,2675,2675,2675,2675,2675,2675,
2675,2675,2675,2675,2675,2675,2675,2675,2675,2675,2675,0,0,0,2675,2675,
2675,2675,2675,2675,2675,2675,2675,2675,2675,2675,2675,0,0,0,0,0,
2675,2675,2675,2675,2675,2675,2675,2675,2675,2675,2675,0,0,0,0,0,
2675,2675,2675,2675,2675,2675,2675,2675,2675,2675,2675,0,0,0,0,0,
2675,2675,2675,2675,2675,2675,2675,2675,2675,2675,2675,0,0,0,0,0,
2675,2675,2675,2675,2675,2675,2675,2675,2675,2675,2675,0,0,0,0,0,
2675,2675,2675,2675,2675,2675,2675,2675,2675,2675,2675,0,0,0,0,0,
7569,7568,7569,2675,2675,2675,2675,2675,2675,2675,2675,0,0,0,0,0,
7473,7472,7473,2675,2675,2675,2675,2675,2675,2675,2675,0,0,0,0,0,
7489,7488,7489,2675,2675,2675,2675,2675,2675,2675,2675,0,0,0,0,0,
7472,7473,7472,2675,2675,2675,2675,2675,2675,2675,2675,0,0,0,0,0,
7488,7489,7488,2675,2675,2675,2675,2675,2675,2675,2675,0,0,0,0,0
</chunk>
   <chunk x="-32" y="-48" width="16" height="16">
2675,2675,2675,2738,2707,2707,2707,0,0,0,0,0,0,0,0,0,
2675,2675,2675,2676,0,0,0,0,0,0,0,0,0,0,0,0,
2675,2675,2675,2676,0,0,0,0,0,0,0,0,0,0,0,0,
2675,2675,2675,2676,0,0,0,0,0,0,0,0,0,0,0,0,
2675,2675,2675,2770,2644,0,0,0,0,0,0,0,0,0,0,0,
0,2675,2675,2675,2676,0,0,0,0,0,0,0,0,0,0,0,
0,0,0,0,2770,2644,0,0,0,0,0,0,0,0,0,0,
0,0,0,0,0,2770,2644,0,0,0,0,0,0,0,0,0,
0,0,0,0,0,0,2770,2644,0,0,0,0,0,0,0,0,
0,0,0,0,0,0,0,2770,2643,2644,0,0,2675,2675,2675,2675,
0,0,0,0,0,0,0,2675,2675,2770,2644,2675,2675,2675,2675,2675,
0,0,0,0,0,0,0,2675,2675,2675,2770,2643,2643,2643,2643,2643,
0,0,0,0,0,0,0,2675,2675,2675,2675,2675,2675,2675,2675,2675,
0,0,0,0,0,0,0,2675,2675,2675,2675,2675,2675,2738,2707,2707,
0,0,0,0,0,0,2675,2675,2675,2675,2675,2675,2675,2676,2589,2590,
0,0,0,0,0,2675,2675,2675,2675,2675,2675,2675,2675,2676,2589,2589
</chunk>
   <chunk x="-16" y="-48" width="16" height="16">
0,0,0,0,0,0,0,0,0,0,0,0,0,0,0,0,
0,0,0,0,0,0,0,0,0,0,0,0,0,0,0,0,
0,0,0,0,0,0,0,0,0,0,0,0,0,0,0,0,
0,0,0,0,0,0,0,0,0,0,0,0,0,0,0,0,
0,0,2262,0,0,0,0,0,0,0,0,0,0,0,0,0,
0,0,2262,0,0,0,0,0,0,0,0,0,0,0,0,0,
0,0,2494,0,0,0,0,0,0,0,0,0,0,0,0,0,
0,0,0,0,0,0,0,0,0,0,0,0,0,0,0,0,
0,0,0,0,0,0,0,0,0,0,0,0,0,0,0,0,
2675,2675,2675,2675,2675,0,0,0,0,0,0,0,0,0,0,0,
2675,2675,2675,2643,2771,2356,0,0,0,0,0,0,0,0,0,0,
2643,2643,2771,2675,0,2249,0,0,0,0,0,0,0,0,0,0,
2738,2707,2739,2675,0,0,0,0,0,0,0,0,0,0,0,0,
2708,2589,2706,2707,0,0,0,0,0,0,0,0,0,0,0,0,
2590,2589,2589,2589,0,0,0,0,0,2483,0,0,0,0,0,0,
2558,2589,2590,2589,2557,0,0,0,0,2515,0,0,0,0,0,0
</chunk>
   <chunk x="0" y="-48" width="16" height="16">
0,0,0,2259,0,0,0,0,0,0,0,0,0,0,0,0,
0,0,0,2493,2526,0,0,0,0,0,0,0,0,0,0,0,
0,0,0,0,0,0,0,0,0,0,0,0,0,0,0,0,
0,0,0,0,0,0,0,0,0,0,0,0,0,0,0,0,
0,0,0,0,0,0,0,0,0,0,0,0,0,0,0,0,
0,0,0,0,0,0,0,0,0,0,0,0,0,0,0,0,
0,0,0,0,0,0,0,0,0,0,0,0,0,0,0,0,
0,0,0,0,0,0,0,0,0,0,0,0,0,0,0,0,
0,0,0,0,0,0,0,0,0,0,0,0,0,0,0,0,
0,0,0,0,0,0,0,0,0,0,0,0,0,0,0,0,
0,0,0,0,0,0,0,0,0,0,0,0,0,0,0,0,
0,0,0,0,0,0,0,0,0,0,0,0,0,0,0,0,
0,0,0,0,0,0,0,0,0,0,0,0,0,0,0,0,
0,0,0,0,0,0,0,0,0,0,0,0,0,0,0,0,
0,0,0,0,0,0,0,0,0,0,0,0,0,0,0,0,
0,0,0,0,0,0,0,0,0,0,0,0,0,0,0,0
</chunk>
   <chunk x="-96" y="-32" width="16" height="16">
0,0,0,0,0,0,0,0,0,0,0,2675,2675,2675,2675,2675,
0,0,0,0,0,0,0,0,0,0,0,2675,2675,2675,2675,2675,
0,0,0,0,0,0,0,0,0,0,0,2675,2675,2675,2675,2675,
0,0,0,0,0,0,0,0,0,0,0,2675,2675,2675,2675,2675,
0,0,0,0,0,0,0,0,0,0,0,2675,2675,2675,2675,2675,
0,0,0,0,0,0,0,0,0,0,0,2675,2675,2675,2675,2675,
0,0,0,0,0,0,0,0,0,0,0,2675,2675,2675,2675,2675,
0,0,0,0,0,0,0,0,0,0,0,0,0,0,0,0,
0,0,0,0,0,0,0,0,0,0,0,0,0,0,0,0,
0,0,0,0,0,0,0,0,0,0,0,0,0,0,0,0,
0,0,0,0,0,0,0,0,0,0,0,0,0,0,0,0,
0,0,0,0,0,0,0,0,0,0,0,0,0,0,0,0,
0,0,0,0,0,0,0,0,0,0,0,0,0,0,0,0,
0,0,0,0,0,0,0,0,0,0,0,0,0,0,0,0,
0,0,0,0,0,0,0,0,0,0,0,0,0,0,0,0,
0,0,0,0,0,0,0,0,0,0,0,0,0,0,0,0
</chunk>
   <chunk x="-80" y="-32" width="16" height="16">
2675,2675,2675,2675,2675,2675,2675,2675,2675,2675,2675,2675,2675,2675,2675,2675,
2675,2675,2675,2675,2675,2675,2675,2675,2675,2675,2675,2675,2675,2675,2675,2675,
2675,2675,2675,2675,2675,2675,2675,2675,2675,2675,2675,2675,2675,2675,2675,2675,
2675,2675,2675,2675,2675,2675,2675,2675,2675,2675,2675,2675,2675,2675,2675,2675,
2675,2675,2675,2675,2675,2675,2675,2675,2675,2675,2675,2675,2675,2675,2675,2675,
2675,2675,2675,2675,2675,2675,2675,2675,2675,2675,2675,2675,0,0,0,0,
2675,2675,2675,2675,2675,2675,2675,2675,2675,2675,2675,2675,0,0,0,0,
0,0,0,0,0,0,0,0,0,0,0,0,0,0,0,0,
0,0,0,0,0,0,0,0,0,0,0,0,0,0,0,0,
0,0,0,0,0,0,0,0,0,0,0,0,0,0,0,0,
0,0,0,0,0,0,0,0,0,0,0,0,0,0,0,0,
0,0,0,0,0,0,0,0,0,0,0,0,0,0,0,0,
0,0,0,0,0,0,0,0,0,0,0,0,0,0,0,0,
0,0,0,0,0,0,0,0,0,0,0,0,0,0,0,0,
0,0,0,0,0,0,0,0,0,0,0,0,0,0,0,0,
0,0,0,0,0,0,0,0,0,0,0,0,0,0,0,0
</chunk>
   <chunk x="-64" y="-32" width="16" height="16">
2675,2675,2675,2675,2675,2675,2675,2675,2675,2675,2675,7370,7583,7584,7585,7584,
2675,2675,2675,2675,2675,2675,2675,2675,2675,2675,2675,7386,7387,7388,7387,7388,
2675,2675,2675,2675,2675,2675,2675,2675,2675,2675,2675,2675,2675,2675,2675,2675,
2675,2675,2675,2675,2675,2675,2675,2675,2675,2675,2675,2675,2675,2675,2675,2675,
2675,2675,2675,2675,2675,2675,2675,2675,2675,2675,2675,2642,2675,2675,2675,2675,
0,0,0,0,0,0,0,0,0,2675,2675,2674,2675,2675,2675,2675,
0,0,0,0,0,0,0,0,0,2675,2675,2674,2675,2675,2675,2675,
0,0,0,0,0,0,0,0,0,2675,2675,2674,2675,2675,2675,2675,
0,0,0,0,0,0,0,0,0,2675,2675,2674,2675,2675,2675,2675,
0,0,0,0,0,0,0,0,0,2675,2675,2675,2675,2675,2675,2675,
0,0,0,0,0,0,0,0,0,0,0,0,0,0,0,0,
0,0,0,0,0,0,0,0,0,0,0,0,0,0,0,0,
0,0,0,0,0,0,0,0,0,0,0,0,0,0,0,0,
0,0,0,0,0,0,0,0,0,0,0,0,0,0,0,0,
0,0,0,0,0,0,0,0,0,0,0,0,0,0,0,0,
0,0,0,0,0,0,0,0,0,0,0,0,0,0,0,0
</chunk>
   <chunk x="-48" y="-32" width="16" height="16">
7585,7584,7585,2675,2675,2675,2675,2675,2675,2675,2675,0,0,0,0,0,
7387,7388,2675,2675,2675,2675,2675,2675,2675,2675,2675,0,0,0,0,0,
2675,2675,2675,2675,2675,2675,2675,2675,2675,2675,2675,0,0,0,0,0,
2675,2675,2675,2675,2675,2675,2675,2675,2675,2675,2675,0,0,2675,2675,2738,
2675,2675,2675,2675,2675,2675,2675,2675,2675,2675,2675,0,2675,2675,2675,2676,
2675,2675,2675,2675,2675,2675,2675,2675,2675,2675,2675,2675,2675,2675,2675,2676,
2675,2675,2675,2675,2675,2675,2675,2675,2675,2675,2675,2675,2675,2675,2675,2676,
2675,2675,2675,2675,2675,2675,2675,2675,2675,2738,2707,2707,2707,2707,2707,2708,
2675,2675,2675,2675,2675,2675,2675,2675,2675,2676,2588,2590,2589,2588,2590,2590,
2675,2675,2675,2675,2675,2675,2675,2675,2675,2676,2557,2588,2590,2588,2589,2588,
0,0,0,0,0,0,2675,2675,2738,2772,2643,2643,2644,2590,2589,2590,
0,0,0,0,0,0,0,2675,2770,2771,2675,2675,2676,2588,2590,2588,
0,0,0,0,0,0,0,0,2675,2738,2739,2675,2676,2557,2557,2590,
0,0,0,0,0,0,0,0,2675,2676,2674,2675,2770,2643,2643,2644,
0,0,0,0,0,0,0,0,2675,2676,2706,2739,2678,2678,2678,2770,
0,0,0,0,0,0,0,0,0,2770,2643,2771,2738,2739,2675,2675
</chunk>
   <chunk x="-32" y="-32" width="16" height="16">
0,0,0,0,0,2675,2675,2675,2739,2675,2675,2675,2738,2708,2589,2589,
0,0,0,0,0,0,2675,2675,2706,2739,2675,2675,2676,2589,2589,2589,
0,0,0,0,0,0,2675,2675,2681,2674,2675,2675,2676,2589,2589,2558,
2675,2675,2675,2675,2675,2675,2675,2681,2681,2674,2675,2675,2676,2589,2558,2558,
2706,2707,2707,2707,2707,2739,2675,2681,2642,2771,2675,2675,2676,2558,2590,2590,
2557,2590,2588,2589,2590,2674,2675,2681,2674,2675,2675,2738,2708,2589,2590,2589,
2590,2589,2590,2557,2557,2674,2675,2675,2674,2738,2707,2708,2589,2558,2590,2589,
2590,2590,2557,2642,2643,2771,2642,2643,2740,2708,2588,2588,2588,2590,2590,2681,
2557,2590,2642,2643,2643,2643,2771,2675,2676,2681,2588,2681,2590,2681,0,401,
2588,2642,2740,2739,2675,2675,2675,2675,0,145,145,337,145,145,145,145,
2557,2674,2770,2740,2739,2675,2675,0,145,337,337,209,401,145,273,209,
2589,2674,2675,2770,2771,2675,0,145,273,273,145,145,337,209,209,273,
2590,2674,2678,2678,2678,2675,0,145,2132,273,273,145,209,209,273,273,
2557,2674,2678,2678,2675,2675,0,145,145,2291,273,145,209,337,209,209,
2643,2771,2738,2739,2675,2119,145,273,209,2323,145,401,209,209,209,209,
2675,2675,2770,2771,2675,0,145,273,337,401,209,209,209,0,0,0
</chunk>
   <chunk x="-16" y="-32" width="16" height="16">
2590,2590,2590,2589,2558,2557,0,0,0,0,0,0,0,0,0,0,
2590,2558,2558,2590,2557,2558,2557,0,0,0,0,0,0,0,0,0,
2558,2590,2590,2590,2558,2557,2558,2557,0,0,0,0,0,0,0,0,
2558,2558,2558,2590,2589,2590,2590,2558,2557,0,0,0,0,0,0,0,
2450,2590,2590,2558,2558,2590,2590,2557,2557,0,0,0,0,0,0,0,
2450,2259,2590,2590,2558,2590,2557,2558,2557,0,0,0,0,0,0,0,
2450,2259,2260,2261,2261,2261,2455,2557,2557,2355,337,273,209,209,0,0,
2491,2259,2261,2261,2261,0,401,145,273,337,273,273,401,401,0,0,
337,145,401,145,337,145,209,209,337,145,209,273,337,145,0,0,
145,209,209,273,145,273,209,209,145,209,273,273,145,0,0,0,
209,273,209,209,145,209,209,273,273,273,273,0,0,0,0,0,
273,230,231,273,209,209,273,273,0,0,0,0,0,0,0,0,
230,168,102,273,273,273,145,0,0,0,0,0,0,0,0,0,
104,212,102,145,209,209,209,0,0,0,0,0,0,0,0,0,
104,276,166,231,0,0,0,0,0,0,0,0,0,0,0,0,
0,0,0,102,0,0,0,0,0,0,0,0,0,0,0,0
</chunk>
   <chunk x="-48" y="-16" width="16" height="16">
0,0,0,0,0,0,0,0,0,2675,2675,2675,2676,2674,2675,2675,
0,0,0,0,0,0,0,0,2675,2675,2675,2675,2770,2771,2675,2675,
0,0,0,0,0,0,0,0,0,0,2675,2675,2675,2675,2675,2675,
0,0,0,0,0,0,0,0,0,0,0,0,2675,2675,0,0,
0,0,0,0,0,0,0,0,0,0,0,0,0,2675,0,0,
0,0,0,0,0,0,0,0,0,0,0,0,0,0,0,0,
0,0,0,0,0,0,0,0,0,0,0,0,0,0,0,0,
0,0,0,0,0,0,0,0,0,0,0,0,0,0,0,0,
0,0,0,0,0,0,0,0,0,0,0,0,0,0,0,0,
0,0,0,0,0,0,0,0,0,0,0,0,0,0,0,0,
0,0,0,0,0,0,0,0,0,0,0,0,0,0,0,0,
0,0,0,0,0,0,0,0,0,0,0,0,0,0,0,0,
0,0,0,0,0,0,0,0,0,0,0,0,0,0,0,0,
0,0,0,0,0,0,0,0,0,0,0,0,0,0,0,0,
0,0,0,0,0,0,0,0,0,0,0,0,0,0,0,0,
0,0,0,0,0,0,0,0,0,0,0,0,0,0,0,0
</chunk>
   <chunk x="-32" y="-16" width="16" height="16">
2675,2675,2675,2675,2675,2457,273,401,209,209,209,0,0,0,0,0,
0,0,2675,2675,2675,2489,209,209,209,0,0,0,0,0,0,0,
0,0,0,0,0,0,0,0,0,0,0,0,0,0,2159,0,
0,0,0,0,0,0,0,0,0,0,0,0,0,2222,0,0,
0,0,0,0,0,0,0,0,0,0,0,0,0,2177,0,0,
0,0,0,0,0,0,0,0,0,0,0,0,0,0,0,0,
0,0,0,0,0,0,0,0,0,0,0,0,0,0,0,0,
0,0,0,0,0,0,0,0,0,0,0,0,0,0,0,0,
0,0,0,0,0,0,0,0,0,0,0,0,0,0,0,0,
0,0,0,0,0,0,0,0,0,0,0,0,0,0,0,0,
0,0,0,0,0,0,0,0,0,0,0,0,0,0,0,0,
0,0,0,0,0,0,0,0,0,0,0,0,0,0,0,0,
0,0,0,0,0,0,0,0,0,0,0,0,0,0,0,0,
0,0,0,0,0,0,0,0,0,0,0,0,0,0,0,0,
0,0,0,0,0,0,0,0,0,0,0,0,0,0,0,0,
0,0,0,0,0,0,0,0,0,0,0,0,0,0,0,0
</chunk>
  </data>
 </layer>
 <layer id="6" name="Below1" width="30" height="20">
  <data encoding="csv">
   <chunk x="-64" y="-64" width="16" height="16">
0,0,0,0,0,0,0,0,0,0,0,0,0,0,0,0,
0,0,0,0,0,0,0,0,0,0,0,0,0,0,0,0,
0,0,0,0,0,0,0,0,0,0,0,0,0,0,0,0,
0,0,0,0,0,0,0,0,0,0,0,0,0,0,0,0,
0,0,0,0,0,0,0,0,0,0,0,0,0,0,0,0,
0,0,0,0,0,0,0,0,0,0,0,0,7583,0,0,0,
0,0,0,0,0,0,0,0,0,0,0,7369,0,7583,0,0,
0,0,0,0,0,0,0,0,0,0,0,0,7337,0,7583,0,
0,0,0,0,0,0,0,0,0,0,0,0,7337,7337,7337,0,
0,0,0,0,0,0,0,0,0,0,0,0,7337,0,0,0,
0,0,0,0,0,0,0,0,0,0,0,0,7337,0,0,0,
0,0,0,0,0,0,0,0,0,0,0,0,0,0,0,0,
0,0,0,0,0,0,0,0,0,0,0,0,0,0,0,0,
0,0,0,0,0,0,0,0,0,0,0,7337,0,0,0,0,
0,0,0,0,0,0,0,0,0,0,0,7337,0,0,0,0,
0,0,0,0,0,0,0,0,0,0,0,0,0,0,0,0
</chunk>
   <chunk x="-32" y="-64" width="16" height="16">
0,0,0,0,0,0,0,0,0,0,0,0,0,0,0,0,
0,0,0,0,0,0,0,0,0,0,0,0,0,0,0,0,
0,0,0,0,0,0,0,0,0,0,0,0,0,0,0,0,
0,0,0,0,0,0,0,0,0,0,0,0,0,0,0,0,
0,0,0,0,0,0,0,0,0,0,0,0,0,0,0,0,
0,0,0,0,0,0,0,0,0,0,0,0,0,0,0,0,
0,0,0,0,0,0,0,0,0,0,0,0,0,0,0,0,
0,0,0,0,0,0,0,0,0,0,0,0,0,0,0,0,
0,0,0,0,0,0,0,0,0,0,0,0,0,0,0,0,
0,0,0,0,0,0,0,0,0,0,0,0,0,0,0,0,
0,0,0,0,0,0,0,0,0,0,0,0,0,0,0,0,
0,0,0,0,0,0,0,0,0,0,0,0,0,0,0,0,
0,0,0,0,0,0,0,0,0,0,0,0,0,0,0,0,
0,0,0,0,0,0,0,0,0,0,0,0,2557,2557,2557,0,
0,0,0,0,0,0,0,0,0,0,0,0,0,0,0,0,
0,0,0,0,0,0,0,0,0,0,0,0,0,0,0,0
</chunk>
   <chunk x="-16" y="-64" width="16" height="16">
0,0,0,0,0,0,0,0,0,0,0,0,0,0,0,0,
0,0,0,0,0,0,0,0,0,0,0,0,0,0,0,0,
0,0,0,0,0,0,0,0,0,0,0,0,0,0,0,0,
0,0,0,0,0,0,0,0,0,0,0,0,0,0,0,0,
0,0,0,0,0,0,0,0,0,0,0,0,0,0,0,0,
0,0,0,0,0,0,0,0,0,0,0,0,0,0,0,2557,
0,0,0,0,0,0,0,0,2557,2557,2557,2557,0,2557,2557,2557,
0,0,0,0,0,2557,2557,2557,2557,2557,2557,2557,2557,2557,0,0,
0,0,0,0,0,2557,2557,2557,0,0,0,0,0,0,0,0,
0,0,0,0,0,2557,2557,0,0,0,0,0,0,0,0,0,
0,0,0,0,2557,2557,0,0,0,0,0,0,0,0,0,0,
0,0,0,2557,2557,0,0,0,0,0,0,0,0,0,0,0,
0,0,2557,2557,0,0,0,0,0,0,0,0,0,0,0,0,
0,2557,2557,0,0,0,0,0,0,0,0,0,0,0,0,0,
0,2557,0,0,0,0,0,0,0,0,0,0,0,0,0,0,
0,0,0,0,0,0,0,0,0,0,0,0,0,0,0,0
</chunk>
   <chunk x="0" y="-64" width="16" height="16">
0,0,0,0,0,0,0,0,0,0,0,0,0,0,0,0,
0,0,0,0,0,0,0,0,0,0,0,0,0,0,0,0,
0,0,0,0,0,0,0,0,0,0,0,0,0,0,0,0,
0,0,0,0,0,0,0,0,0,0,0,0,0,0,0,0,
2557,2557,2557,2557,2557,2557,2557,2557,2557,2557,2557,2557,2557,0,0,0,
2557,0,0,0,0,0,0,0,0,0,0,0,0,0,0,0,
0,0,0,0,0,0,0,0,0,0,0,0,0,0,0,0,
0,0,0,0,0,0,0,0,0,0,0,0,0,0,0,0,
0,0,0,0,0,0,0,0,0,0,0,0,0,0,0,0,
0,0,0,0,0,0,0,0,0,0,0,0,0,0,0,0,
0,0,0,0,0,0,0,0,2226,0,0,0,0,0,0,0,
0,0,0,0,0,0,0,0,2258,0,0,0,0,0,0,0,
0,0,0,0,0,0,0,0,2482,0,0,0,0,0,0,0,
0,0,0,0,0,0,0,0,0,0,0,0,0,0,0,0,
0,0,0,0,0,0,0,0,0,0,0,0,0,0,0,0,
0,0,0,2226,0,0,0,0,0,0,146,146,0,0,0,0
</chunk>
   <chunk x="16" y="-64" width="16" height="16">
0,0,0,0,0,0,0,0,0,0,0,0,0,0,0,0,
0,0,0,0,0,0,0,0,0,0,0,0,0,0,0,0,
0,0,0,0,0,0,0,0,0,0,0,0,0,0,0,0,
0,0,0,0,0,0,0,0,0,0,0,0,0,0,0,0,
0,0,0,0,0,0,0,0,0,0,0,0,0,0,0,0,
0,0,0,0,0,0,0,0,0,0,0,0,0,0,0,0,
0,0,0,0,0,0,0,0,0,0,0,0,0,0,0,0,
0,0,0,0,0,0,0,0,0,0,0,0,0,0,0,0,
0,0,0,0,0,0,0,0,0,0,0,0,0,0,0,0,
0,0,0,0,0,0,0,0,0,0,0,0,0,0,0,0,
0,0,0,0,0,0,0,0,0,0,0,0,0,0,0,0,
0,0,0,0,0,0,0,0,0,0,0,0,0,0,0,0,
0,0,0,0,0,0,0,146,146,146,146,146,146,146,0,0,
0,0,0,0,0,0,0,0,0,0,0,0,0,0,0,0,
0,0,0,0,0,0,0,0,0,0,0,0,0,0,0,0,
0,0,0,0,0,0,0,0,0,0,0,0,0,0,0,0
</chunk>
   <chunk x="-32" y="-48" width="16" height="16">
0,0,0,0,0,0,0,0,0,0,0,0,0,0,0,0,
0,0,0,0,2557,2557,2557,0,0,0,0,0,0,0,0,0,
0,0,0,0,2557,2557,2557,0,0,0,0,0,0,0,0,0,
0,0,0,0,2557,2557,2557,0,0,0,0,0,0,0,0,2558,
0,0,0,0,0,2557,2557,0,0,0,0,0,0,0,0,0,
0,0,0,0,0,2557,2557,0,0,0,0,0,0,0,0,0,
0,0,0,0,0,0,2557,2557,0,0,0,0,0,0,0,0,
0,0,0,0,0,0,0,2557,2557,0,0,0,0,0,0,0,
0,0,0,0,0,2358,0,0,2557,2557,2557,0,0,0,0,0,
0,0,0,0,0,0,0,0,0,0,2557,2557,2557,2557,2557,2557,
0,0,0,0,0,0,0,0,0,0,0,2557,2557,2557,2557,2557,
0,0,0,0,0,2358,0,0,0,0,0,0,0,0,0,0,
0,0,0,0,0,0,0,0,0,0,0,0,0,0,0,0,
0,0,0,0,0,0,0,0,0,0,0,0,0,0,0,2121,
0,2121,2121,2121,2153,2153,0,0,0,0,0,0,0,0,0,2153,
0,0,0,0,2185,0,0,0,0,0,0,0,0,0,0,2185
</chunk>
   <chunk x="-16" y="-48" width="16" height="16">
0,0,0,0,0,0,0,0,0,0,0,0,0,0,0,0,
0,0,0,0,0,0,0,0,0,0,0,0,0,0,0,0,
0,0,0,0,0,0,0,2557,2557,2557,2557,2557,2557,2557,2557,2557,
2558,0,0,0,0,0,2557,2557,2557,2557,2557,2557,2557,2557,0,146,
0,0,0,0,0,0,2557,0,0,0,0,0,0,0,0,0,
0,0,0,0,0,2557,2557,0,0,0,146,146,146,0,146,0,
0,0,0,0,2557,2557,0,0,0,0,0,0,0,0,0,0,
0,0,0,0,2557,0,0,0,0,0,146,0,0,0,0,0,
0,0,0,2557,2557,0,0,0,0,0,146,0,0,0,0,0,
2557,2557,2557,2557,2642,0,0,0,0,0,0,0,0,0,0,0,
2557,2557,2642,0,2354,2226,2292,0,0,0,0,0,0,0,0,0,
0,0,0,0,2489,2258,2261,2259,0,0,0,0,0,0,0,0,
0,0,0,0,2489,2482,2517,2483,2259,0,0,0,0,0,0,0,
2217,0,0,0,2521,2419,2315,2515,2483,0,0,0,0,0,0,0,
2185,2185,0,0,2491,2553,2419,2151,2515,2226,2261,0,0,0,0,0,
2121,2217,2249,0,0,2524,2553,2419,2347,2258,2293,2259,0,0,0,0
</chunk>
   <chunk x="0" y="-48" width="16" height="16">
0,0,0,2258,0,0,0,0,0,0,146,146,0,0,0,0,
0,0,0,2258,0,0,0,0,0,0,146,146,0,0,0,0,
2557,2557,2557,0,0,0,0,0,146,146,146,146,0,0,0,0,
146,146,146,0,0,146,146,146,146,146,146,146,0,0,0,0,
0,0,0,0,0,146,146,146,146,146,146,146,0,0,0,0,
0,0,0,0,146,146,146,146,146,146,146,146,0,0,0,0,
0,0,0,0,0,0,0,0,0,0,0,0,0,0,0,0,
0,0,0,0,0,0,0,0,0,0,0,0,0,0,0,0,
0,0,0,0,0,0,0,0,0,0,0,0,0,0,0,0,
0,0,0,0,0,0,0,0,0,0,0,0,0,0,0,0,
0,0,0,0,0,0,0,0,0,0,0,0,0,0,0,0,
0,0,0,0,0,0,0,0,0,0,0,0,0,0,0,0,
0,0,0,0,0,0,0,0,0,0,0,0,0,0,0,0,
0,0,0,0,0,0,0,146,146,146,0,0,0,0,0,0,
0,146,0,0,0,0,0,0,0,146,0,0,0,0,0,0,
0,0,0,0,0,0,0,0,0,146,0,0,0,0,0,0
</chunk>
   <chunk x="-32" y="-32" width="16" height="16">
0,0,0,0,0,0,0,0,0,0,0,0,0,0,0,2419,
0,0,0,0,2423,0,0,0,0,0,0,0,0,0,2450,2451,
0,0,0,0,2177,0,0,0,0,0,0,0,0,0,2450,2259,
0,0,0,0,0,0,2261,2231,0,0,0,0,0,0,2450,2259,
0,0,0,0,2261,2262,2261,2231,0,0,0,0,0,0,2491,2493,
0,0,0,0,2292,2262,2293,2231,0,0,0,0,0,0,0,2524,
0,0,0,0,2261,2494,2526,2496,0,0,0,0,0,0,0,0,
0,0,0,0,2526,2527,0,0,0,0,0,0,0,0,2354,2356,
0,0,0,0,0,0,0,0,2354,2356,2357,2356,2357,2356,2355,0,
0,0,0,0,0,0,0,2354,2355,0,2135,0,0,0,0,0,
0,0,0,0,0,0,2354,2355,0,2312,2167,0,0,0,0,0,
0,0,0,0,0,0,2457,0,0,0,2134,2135,0,0,0,0,
0,0,0,0,0,0,2489,2133,2226,0,0,2166,0,0,0,0,
0,0,0,0,0,2354,2355,0,2290,0,0,2167,0,0,0,0,
0,0,0,0,0,2457,0,0,0,2128,0,2134,0,0,0,0,
0,0,0,0,0,2457,0,0,0,0,0,0,0,2135,0,0
</chunk>
   <chunk x="-16" y="-32" width="16" height="16">
2153,2121,2217,0,0,0,2524,2553,2419,2482,2516,2483,2259,0,0,0,
2419,2153,2121,2217,2153,2249,0,2524,2553,2419,2151,2515,2483,0,0,0,
0,2185,2153,2249,2185,0,0,0,2524,2457,2151,2151,2515,0,0,0,
0,0,2185,2121,2217,0,0,0,0,2489,2151,2151,2151,0,0,0,
0,0,0,0,0,0,0,0,0,2457,2151,2151,2151,0,0,0,
0,0,0,0,0,0,0,0,0,2489,2151,2151,2151,0,0,0,
0,0,0,0,0,2354,2356,2357,2356,0,0,0,0,0,0,0,
2357,2356,2357,2356,2357,2355,0,0,0,0,0,0,0,2226,0,0,
0,0,0,0,0,0,0,0,0,0,0,0,0,2226,0,0,
0,0,0,0,0,0,0,0,0,0,0,0,0,0,0,0,
0,0,0,0,0,0,0,0,0,0,0,0,145,0,0,0,
0,0,0,0,0,0,0,0,145,145,0,0,0,0,0,0,
0,0,0,0,0,0,0,145,0,0,0,0,0,0,0,0,
0,0,0,0,0,0,0,0,0,0,0,0,0,0,0,0,
0,0,0,0,0,0,0,0,0,0,0,0,0,0,0,0,
0,0,0,0,0,0,0,0,0,0,0,0,0,0,0,0
</chunk>
   <chunk x="-32" y="-16" width="16" height="16">
0,0,0,0,0,2489,0,0,0,0,2453,0,0,0,0,0,
0,0,0,0,2356,0,0,0,0,0,0,0,0,0,0,0,
0,0,0,0,0,0,0,0,0,0,0,0,0,0,0,0,
2177,2177,0,0,0,0,0,0,0,0,0,0,0,0,0,0,
0,0,0,0,0,0,0,0,0,0,0,0,0,0,0,0,
0,0,0,0,0,0,0,0,0,0,0,0,0,0,0,0,
0,0,0,0,0,0,0,0,0,0,0,0,0,0,0,0,
0,0,0,0,0,0,0,0,0,0,0,0,0,0,0,0,
0,0,0,0,0,0,0,0,0,0,0,0,0,0,0,0,
0,0,0,0,0,0,0,0,0,0,0,0,0,0,0,0,
0,0,0,0,0,0,0,0,0,0,0,0,0,0,0,0,
0,0,0,0,0,0,0,0,0,0,0,0,0,0,0,0,
0,0,0,0,0,0,0,0,0,0,0,0,0,0,0,0,
0,0,0,0,0,0,0,0,0,0,0,0,0,0,0,0,
0,0,0,0,0,0,0,0,0,0,0,0,0,0,0,0,
0,0,0,0,0,0,0,0,0,0,0,0,0,0,0,0
</chunk>
   <chunk x="-48" y="32" width="16" height="16">
0,0,0,0,0,0,0,0,0,0,0,0,0,0,0,0,
0,0,0,0,0,0,0,0,0,0,0,0,0,0,0,0,
0,0,0,0,0,0,0,0,0,0,0,0,0,0,0,0,
0,0,0,0,0,0,0,0,0,0,0,0,0,0,0,0,
0,0,0,0,0,0,0,0,2372,0,0,0,0,0,0,0,
0,0,0,0,0,0,0,0,0,0,0,0,0,0,0,0,
0,0,0,0,0,0,0,0,0,0,0,0,0,0,0,0,
0,0,0,0,0,0,0,0,0,0,0,0,0,0,0,0,
0,0,0,0,0,0,0,0,0,0,0,0,0,0,0,0,
0,0,0,0,0,0,0,0,0,0,0,0,0,0,0,0,
0,0,0,0,0,0,0,0,0,0,0,0,0,0,0,0,
0,0,0,0,0,0,0,0,0,0,0,0,0,0,0,0,
0,0,0,0,0,0,0,0,0,0,0,0,0,0,0,0,
0,0,0,0,0,0,0,0,0,0,0,0,0,0,0,0,
0,0,0,0,0,0,0,0,0,0,0,0,0,0,0,0,
0,0,0,0,0,0,0,0,0,0,0,0,0,0,0,0
</chunk>
   <chunk x="32" y="32" width="16" height="16">
0,0,0,0,0,0,0,0,0,0,0,0,0,0,0,0,
0,0,0,0,0,0,0,0,0,0,0,0,0,0,0,0,
0,0,0,0,0,0,0,0,0,0,0,0,0,0,0,0,
0,0,0,0,0,0,0,0,0,0,0,0,0,0,0,0,
0,0,0,0,0,0,0,0,0,0,0,0,0,0,0,0,
0,0,0,0,0,0,0,0,0,0,0,0,0,0,0,0,
0,0,0,0,0,0,0,0,0,0,0,0,0,0,0,0,
0,0,0,0,0,0,0,0,0,0,0,0,0,0,0,0,
0,0,0,0,0,0,0,0,0,0,0,0,0,0,0,0,
0,0,0,0,0,0,0,0,0,0,0,0,0,0,0,0,
0,0,0,0,0,0,0,0,0,0,0,0,0,0,0,0,
0,0,0,0,0,0,0,0,0,2148,0,0,0,0,0,0,
0,0,0,0,0,0,0,0,0,2148,0,0,0,0,0,0,
0,0,0,0,0,0,0,2273,2178,2180,0,0,0,0,0,0,
0,0,0,0,0,0,0,0,0,0,0,0,0,0,0,0,
0,0,0,0,0,0,0,0,0,0,0,0,0,0,0,0
</chunk>
   <chunk x="16" y="48" width="16" height="16">
0,0,0,0,0,0,0,0,0,0,0,0,0,0,0,0,
0,0,0,0,0,0,0,0,0,0,0,0,0,0,0,0,
0,0,0,0,0,0,0,0,0,0,0,0,0,0,0,0,
0,0,0,0,0,0,0,0,0,0,0,0,0,0,0,0,
0,0,0,0,0,0,0,0,0,0,0,0,0,0,0,0,
0,0,0,0,0,0,0,0,0,0,0,0,0,0,2145,2145,
0,0,0,0,0,0,0,0,0,0,0,0,0,0,0,0,
0,0,0,0,0,0,0,0,0,0,0,0,0,0,0,0,
0,0,0,0,0,0,0,0,0,0,0,0,0,0,0,0,
0,0,0,0,0,0,0,0,0,0,0,0,0,0,0,0,
0,0,0,0,0,0,0,0,0,0,0,0,0,0,0,0,
0,0,0,0,0,0,0,0,0,0,0,0,0,0,0,0,
0,0,0,0,0,0,0,0,0,0,0,0,0,0,0,0,
0,0,0,0,0,0,0,0,0,0,0,0,0,0,0,0,
0,0,0,0,0,0,0,0,0,0,0,0,0,0,0,0,
0,0,0,0,0,0,0,0,0,0,0,0,0,0,0,0
</chunk>
   <chunk x="32" y="48" width="16" height="16">
0,0,0,0,0,0,0,0,0,338,0,0,0,0,0,0,
0,0,0,0,0,0,0,0,0,0,0,0,0,0,0,0,
2273,0,0,0,0,0,0,0,0,0,0,0,0,0,0,0,
0,0,0,0,0,0,0,0,2273,0,0,0,0,0,0,0,
0,0,0,0,0,0,0,0,0,0,0,0,0,0,0,0,
0,0,0,0,0,0,0,0,0,0,0,0,0,0,0,0,
0,0,0,0,0,0,0,0,0,0,0,0,0,0,0,0,
0,0,0,0,0,0,0,0,0,0,0,0,0,0,0,0,
0,0,0,0,0,0,0,0,0,0,0,0,0,0,0,0,
0,0,0,0,0,0,0,0,0,0,0,0,0,0,0,0,
0,0,0,0,0,0,0,0,0,0,0,0,0,0,0,0,
0,0,0,0,0,0,0,0,0,0,0,0,0,0,0,0,
0,0,0,0,0,0,0,0,0,0,0,0,0,0,0,0,
0,0,0,0,0,0,0,0,0,0,0,0,0,0,0,0,
0,0,0,0,0,0,0,0,0,0,0,0,0,0,0,0,
0,0,0,0,0,0,0,0,0,0,0,0,0,0,0,0
</chunk>
   <chunk x="0" y="64" width="16" height="16">
0,0,0,0,0,0,0,0,0,0,0,0,0,0,0,0,
0,0,0,0,0,0,0,0,0,0,0,0,0,0,0,0,
0,0,0,0,0,0,0,0,0,0,0,0,0,0,0,0,
0,0,0,0,0,0,0,0,0,0,0,0,0,0,0,2177,
0,0,0,0,0,0,0,0,0,0,0,0,0,0,2177,0,
0,0,0,0,0,0,0,0,0,0,0,0,0,0,0,0,
0,0,0,0,0,0,0,0,0,0,0,0,0,0,0,0,
0,0,0,0,0,0,0,0,0,0,0,0,0,0,0,0,
0,0,0,0,0,0,0,0,0,0,0,0,0,0,0,0,
0,0,0,0,0,0,0,0,0,0,0,0,0,0,0,0,
0,0,0,0,0,0,0,0,0,0,0,0,0,0,0,0,
0,0,0,0,0,0,0,0,0,0,0,0,0,0,0,0,
0,0,0,0,0,0,0,0,0,0,0,0,0,0,0,0,
0,0,0,0,0,0,0,0,0,0,0,0,0,0,0,0,
0,0,0,0,0,0,0,0,0,0,0,0,0,0,0,0,
0,0,0,0,0,0,0,0,0,0,0,0,0,0,0,0
</chunk>
   <chunk x="16" y="64" width="16" height="16">
0,0,0,0,0,0,0,0,0,0,0,0,0,0,0,0,
0,0,0,0,0,0,0,0,0,0,0,0,0,0,0,0,
2177,2177,2177,2177,0,0,0,0,0,0,0,0,0,0,0,0,
0,0,0,0,2177,0,0,0,0,0,0,0,0,0,0,0,
0,0,0,0,0,0,0,0,0,0,0,0,0,0,0,0,
0,0,0,0,0,0,0,0,0,0,0,0,0,0,0,0,
0,0,0,0,0,0,0,0,0,0,0,0,0,0,0,0,
0,0,0,0,0,0,0,0,0,0,0,0,0,0,0,0,
0,0,0,0,0,2209,0,0,0,0,0,0,0,0,0,0,
0,0,0,0,0,0,0,0,0,0,0,0,0,0,0,0,
0,0,0,0,0,0,0,0,0,0,0,0,0,0,0,0,
0,0,0,0,0,0,0,0,0,0,0,0,0,0,0,0,
0,0,0,0,0,0,0,0,0,0,0,0,0,0,0,0,
0,0,0,0,0,0,0,0,0,0,0,0,0,0,0,0,
0,0,0,0,0,0,0,0,0,0,0,0,0,0,0,0,
0,0,0,0,0,0,0,0,0,0,0,0,0,0,0,0
</chunk>
  </data>
 </layer>
 <layer id="7" name="Ground" width="30" height="20">
  <data encoding="csv">
   <chunk x="-64" y="-80" width="16" height="16">
0,0,0,0,0,0,0,0,0,0,0,0,0,0,0,0,
0,0,0,0,0,0,0,0,0,0,0,0,0,0,0,0,
0,0,0,0,0,0,0,0,0,0,0,0,0,0,0,0,
0,0,0,0,0,0,0,0,0,0,0,0,0,0,0,0,
0,0,0,0,0,0,0,0,0,0,0,0,0,0,0,0,
0,0,0,0,0,0,0,0,0,0,0,0,0,0,0,0,
0,0,0,0,0,0,0,0,0,0,0,0,0,0,0,0,
0,0,0,0,0,0,0,0,0,0,0,0,0,0,0,0,
0,0,0,0,0,0,0,0,0,0,0,0,0,0,0,0,
0,0,0,0,0,0,0,0,0,0,0,0,0,0,0,0,
0,0,0,0,0,0,0,0,0,0,0,0,0,0,0,0,
0,0,0,0,0,0,0,0,0,0,0,0,0,0,0,0,
0,0,0,0,0,0,0,0,0,0,0,0,0,0,0,0,
0,0,0,0,0,0,0,0,0,0,0,0,0,0,0,0,
0,0,0,0,0,0,0,0,0,0,0,0,0,0,0,0,
0,0,0,0,0,0,0,0,0,0,0,0,7455,7487,7471,7471
</chunk>
   <chunk x="-48" y="-80" width="16" height="16">
0,0,0,0,0,0,0,0,0,0,0,0,0,0,0,0,
0,0,0,0,0,0,0,0,0,0,0,0,0,0,0,0,
0,0,0,0,0,0,0,0,0,0,0,0,0,0,0,0,
0,0,0,0,0,0,0,0,0,0,0,0,0,0,0,0,
0,0,0,0,0,0,0,0,0,0,0,0,0,0,0,0,
0,0,0,0,0,0,0,0,0,0,0,0,0,0,0,0,
0,0,0,0,0,0,0,0,0,0,0,0,0,0,0,0,
0,0,0,0,0,0,0,0,0,0,0,0,0,0,0,0,
0,0,0,0,0,0,0,0,0,0,0,0,0,0,0,0,
0,0,0,0,0,0,0,0,0,0,0,0,0,0,0,0,
0,0,0,0,0,0,0,0,0,0,0,0,0,0,0,0,
0,0,0,0,0,0,0,0,0,0,0,0,0,0,0,0,
0,0,0,0,0,0,0,0,0,0,0,0,0,0,0,0,
0,0,0,0,0,0,0,0,0,0,0,0,0,0,0,0,
0,0,0,0,0,0,0,0,0,0,0,0,0,0,0,0,
7473,7458,0,0,0,0,0,0,0,0,0,0,0,0,0,0
</chunk>
   <chunk x="-16" y="-80" width="16" height="16">
0,0,0,0,0,0,0,0,0,0,0,0,0,0,0,0,
0,0,0,0,0,0,0,0,0,0,0,0,0,0,0,0,
0,0,0,0,0,0,0,0,0,0,0,0,0,0,0,0,
0,0,0,0,0,0,0,0,0,0,0,0,0,0,0,0,
0,0,0,0,0,0,0,0,0,0,0,0,0,0,0,0,
0,0,0,0,0,0,0,0,0,0,0,0,0,0,0,0,
0,0,0,0,0,0,0,0,0,0,0,0,0,0,0,0,
0,0,0,0,0,0,0,0,0,0,0,0,0,0,0,0,
0,0,0,0,0,0,0,0,0,0,0,0,0,0,0,0,
0,0,0,0,0,0,0,0,0,0,0,0,0,0,0,0,
0,0,0,0,0,0,0,0,0,0,0,0,0,0,0,0,
0,0,0,0,0,0,0,0,0,0,0,0,0,0,0,0,
0,0,0,0,0,0,0,0,0,0,0,0,0,0,0,0,
0,0,0,0,0,0,0,0,0,0,0,0,0,0,0,0,
0,0,0,0,0,0,0,0,0,0,0,0,0,0,0,0,
2130,2132,2133,2132,2133,2132,2133,2132,2133,2132,2133,2132,2133,2132,2133,2132
</chunk>
   <chunk x="0" y="-80" width="16" height="16">
0,0,0,0,0,0,0,0,0,0,0,0,0,0,0,0,
0,0,0,0,0,0,0,0,0,0,0,0,0,0,0,0,
0,0,0,0,0,0,0,0,0,0,0,0,0,0,0,0,
0,0,0,0,0,0,0,0,0,0,0,0,0,0,0,0,
0,0,0,0,0,0,0,0,0,0,0,0,0,0,0,0,
0,0,0,0,0,0,0,0,0,2163,2209,2209,2209,2209,2209,2209,
0,0,0,0,0,0,0,0,0,2163,2209,2209,2209,2209,2209,2209,
0,0,0,0,0,0,0,0,0,2163,2209,2209,2209,2209,2209,2209,
0,0,0,0,0,0,0,0,0,2163,2209,2209,2209,2209,2209,2209,
0,0,0,0,0,0,0,0,0,2163,2209,2209,2209,2209,2209,2209,
0,0,0,0,0,0,0,0,0,2163,2209,2209,2209,2209,2209,2209,
0,0,0,0,0,0,0,0,0,2163,2209,2209,2209,2209,2209,2209,
0,0,0,0,0,0,0,0,0,2163,2209,2209,2209,2209,2209,2209,
0,0,0,0,0,0,0,0,0,2163,2209,2209,2209,2209,2209,2209,
0,0,0,0,0,0,0,0,0,2163,2209,2209,2209,2209,2209,2209,
2133,2132,2133,2132,2133,2132,2133,2132,2133,2131,2209,2209,2209,2209,2209,2209
</chunk>
   <chunk x="16" y="-80" width="16" height="16">
0,0,0,0,0,0,0,0,0,0,0,0,0,0,0,0,
0,0,0,0,0,0,0,0,0,0,0,0,0,0,0,0,
0,0,0,0,0,0,0,0,0,0,0,0,0,0,0,0,
0,0,0,0,0,0,0,0,0,0,0,0,0,0,0,0,
0,0,0,0,0,0,0,0,0,0,0,0,0,0,0,0,
2209,2209,2209,2209,2209,2209,2209,2209,2209,2209,2209,2209,2209,2209,2209,2209,
2209,2209,2209,2209,2209,2209,2209,2209,2209,2209,2209,2209,2209,2209,2209,2209,
2209,2209,2209,2209,2209,2209,2209,2209,2209,2209,2209,2209,2209,2209,2209,2209,
2209,2209,2209,2209,2209,2209,2209,2209,2209,2209,2209,2209,2209,2209,2209,2209,
2209,2209,2209,2209,2209,2209,2209,2209,2209,2209,2209,2209,2209,2209,2209,2209,
2209,2209,2209,2209,2209,2209,2209,2209,2209,2209,2209,2209,2209,2209,2209,2209,
2209,2209,2209,2209,2209,2209,2209,2209,2209,2209,2209,2209,2209,2209,2209,2209,
2209,2209,2209,2209,2209,2209,2209,2209,2209,2209,2209,2209,2209,2209,2209,2209,
2209,2209,2209,2209,2209,2209,2209,2209,2209,2209,2209,2209,2209,2209,2209,2209,
2209,2209,2209,2209,2209,2209,2209,2209,2209,2209,2209,2209,2209,2209,2209,2209,
2209,2209,2209,2209,2209,2209,2209,2209,2209,2209,2209,2209,2209,2209,2209,2209
</chunk>
   <chunk x="32" y="-80" width="16" height="16">
0,0,0,0,0,0,0,0,0,0,0,0,0,0,0,0,
0,0,0,0,0,0,0,0,0,0,0,0,0,0,0,0,
0,0,0,0,0,0,0,0,0,0,0,0,0,0,0,0,
0,0,0,0,0,0,0,0,0,0,0,0,0,0,0,0,
0,0,0,0,0,0,0,0,0,0,0,0,0,0,0,0,
2209,2209,2209,2209,2209,2209,2209,2209,2209,2209,2209,2209,2209,2209,2209,2209,
2209,2209,2209,2209,2209,2209,2209,2209,2209,2209,2209,2209,2209,2209,2209,2209,
2209,2209,2209,2209,2209,2209,2209,2209,2209,2209,2209,2209,2209,2209,2209,2209,
2209,2209,2209,2209,2209,2209,2209,2209,2209,2209,2209,2209,2209,2209,2209,2209,
2209,2209,2209,2209,2209,2209,2209,2209,2209,2209,2209,2209,2209,2209,2209,2209,
2209,2209,2209,2209,2209,2209,2209,2209,2209,2209,2209,2209,2209,2209,2209,2209,
2209,2209,2209,2209,2209,2209,2209,2209,2209,2209,2209,2209,2209,2209,2209,2209,
2209,2209,2209,2209,2209,2209,2209,2209,2209,2209,2209,2209,2209,2209,2209,2209,
2209,2209,2209,2209,2209,2209,2209,2209,2209,2209,2209,2209,2209,2209,2209,2209,
2209,2209,2209,2209,2209,2209,2209,2209,2209,2209,2209,2209,2209,2209,2209,2209,
2209,2209,2209,2209,2209,2209,2209,2209,2209,2209,2209,2209,2209,2209,2209,2209
</chunk>
   <chunk x="48" y="-80" width="16" height="16">
0,0,0,0,0,0,0,0,0,0,0,0,0,0,0,0,
0,0,0,0,0,0,0,0,0,0,0,0,0,0,0,0,
0,0,0,0,0,0,0,0,0,0,0,0,0,0,0,0,
0,0,0,0,0,0,0,0,0,0,0,0,0,0,0,0,
0,0,0,0,0,0,0,0,0,0,0,0,0,0,0,0,
2209,2209,2209,2209,2209,2209,2209,2209,2209,2209,2209,2209,2209,2209,2209,0,
2209,2209,2209,2209,2209,2209,2209,2209,2209,2209,2209,2209,2209,2209,2209,0,
2209,2209,2209,2209,2209,2209,2209,2209,2209,2209,2209,2209,2209,2209,2209,0,
2209,2209,2209,2209,2209,2209,2209,2209,2209,2209,2209,2209,2209,2209,2209,0,
2209,2209,2209,2209,2209,2209,2209,2209,2209,2209,2209,2209,2209,2209,2209,0,
2209,2209,2209,2209,2209,2209,2209,2209,2209,2209,2209,2209,2209,2209,2209,0,
2209,2209,2209,2209,2209,2209,2209,2209,2209,2209,2209,2209,2209,2209,2209,0,
2209,2209,2209,2209,2209,2209,2209,2209,2209,2209,2209,2209,2209,2209,2209,0,
2209,2209,2209,2209,2209,2209,2209,2209,2209,2209,2209,2209,2209,2209,2209,0,
2209,2209,2209,2209,2209,2209,2209,2209,2209,2209,2209,2209,2209,2209,2209,0,
2209,2209,2209,2209,2209,2209,2209,2209,2209,2209,2209,2209,2209,2209,2209,0
</chunk>
   <chunk x="-80" y="-64" width="16" height="16">
0,0,0,0,0,0,0,0,0,0,0,0,0,0,0,0,
0,0,0,0,0,0,0,0,0,0,0,0,0,0,0,0,
0,0,0,0,0,0,0,0,0,0,0,0,0,0,0,0,
0,0,0,0,0,0,0,0,0,0,0,0,0,0,0,0,
0,0,0,0,0,0,0,0,0,0,0,0,7472,7473,7472,7473,
0,0,0,0,0,0,0,0,0,0,0,0,7488,7489,7488,7489,
0,0,0,0,0,0,0,0,0,0,0,0,7473,7472,7473,7472,
0,0,0,0,0,0,0,0,0,0,0,0,7489,7488,7489,7488,
0,0,0,0,0,0,0,0,0,0,0,0,7472,7473,7472,7473,
0,0,0,0,0,0,0,0,0,0,0,0,7488,7489,7488,7489,
0,0,0,0,0,0,0,0,0,0,0,0,7473,7472,7473,7472,
0,0,0,0,0,0,0,0,0,0,0,0,7489,7488,7489,7488,
0,0,0,0,0,0,0,0,0,0,0,0,7472,7473,7472,7473,
0,0,0,0,0,0,0,0,0,0,0,0,7488,7489,7488,7489,
0,0,0,0,0,0,0,0,0,0,0,0,7473,7472,7473,7472,
0,0,0,0,0,0,0,0,0,0,0,0,7489,7488,7489,7488
</chunk>
   <chunk x="-64" y="-64" width="16" height="16">
0,0,0,0,0,0,0,0,0,0,0,0,7471,7455,7487,7487,
0,0,0,0,0,0,0,0,0,0,0,0,7487,7471,7455,7471,
0,0,0,0,0,0,0,0,0,0,0,0,7455,7487,7471,7487,
0,0,0,0,0,0,0,0,0,0,0,0,7471,7455,7487,7455,
7472,7473,7472,7473,7472,7473,7472,7473,7472,7473,7458,7473,7487,7471,7455,7471,
7488,7489,7488,7489,7488,7489,7488,7489,7488,7489,7474,7474,0,7487,7471,7487,
7473,7472,7473,7472,7473,7472,7473,7472,7473,7472,7490,7490,7369,0,7487,7455,
7489,7488,7489,7488,7489,7488,7489,7488,7489,7488,7458,7474,0,7369,0,7471,
7472,7473,7472,7473,7472,7473,7472,7473,7472,7473,7474,7490,0,0,7532,7487,
7488,7489,7488,7489,7488,7489,7488,7489,7488,7489,7490,7473,7337,7337,7564,7584,
7473,7472,7473,7472,7473,7472,7473,7472,7473,7472,7458,7489,7533,7337,7337,7337,
7489,7488,7489,7488,7489,7488,7489,7488,7489,7488,7474,7584,7565,7337,7337,7337,
7472,7473,7472,7473,7472,7473,7472,7473,7472,7473,7490,7337,7337,7337,7337,7337,
7488,7489,7488,7489,7488,7489,7488,7489,7488,7489,7473,2147491198,7337,7337,7337,7337,
7473,7472,7473,7472,7473,7472,7473,7472,7473,7472,7489,2147491118,7337,7337,7337,7337,
7489,7488,7489,7488,7489,7488,7489,7488,7489,7488,7472,2147491230,7337,7337,7337,7337
</chunk>
   <chunk x="-48" y="-64" width="16" height="16">
7489,7474,0,0,0,0,0,0,0,0,0,0,0,0,0,0,
7472,7490,0,0,0,0,0,0,0,0,0,0,0,0,0,0,
7488,7458,0,0,0,0,0,0,0,0,0,0,0,0,0,0,
7473,7474,0,0,0,0,0,0,0,0,0,0,0,0,0,0,
7489,7490,0,0,0,0,0,0,0,0,0,0,0,0,0,0,
7472,7458,0,0,0,0,0,0,0,0,0,0,0,0,0,0,
7488,7474,0,0,0,0,0,0,0,0,0,0,0,0,0,0,
7473,7490,0,0,0,0,0,0,0,0,0,0,0,0,0,0,
7489,7570,0,0,0,0,0,0,0,0,0,0,0,0,0,0,
7584,7585,0,0,0,0,0,0,0,0,0,0,0,0,0,0,
7337,7337,7522,0,0,0,0,0,0,0,0,0,0,0,0,0,
7337,7337,7538,0,0,0,0,0,0,0,0,0,0,0,0,0,
7337,7337,7538,0,0,0,0,0,0,0,0,0,0,0,0,0,
7337,7337,7538,0,0,0,0,0,0,0,0,0,0,0,0,0,
7337,7337,7538,0,0,0,0,0,0,0,0,0,0,0,0,0,
7337,7337,7538,0,0,0,0,0,0,0,0,0,0,0,0,0
</chunk>
   <chunk x="-32" y="-64" width="16" height="16">
0,0,0,0,0,0,0,0,0,0,0,0,0,0,0,2130,
0,0,0,0,0,0,0,0,0,0,0,0,0,0,2130,2131,
0,0,0,0,0,0,0,0,0,0,0,0,0,2130,2131,2273,
0,0,0,0,0,0,0,0,0,0,0,0,2130,2131,2273,2198,
0,0,0,0,0,0,0,0,0,0,0,2130,2131,2273,2198,2495,
0,0,0,0,0,0,0,0,0,0,2130,2131,2273,2198,2495,2527,
0,0,0,0,0,0,0,0,0,2130,2131,2273,2198,2495,2527,149,
0,0,0,0,0,0,0,0,2130,2131,2273,2198,2495,2527,149,149,
0,0,0,0,0,0,0,2130,2131,2273,2198,2495,2527,149,149,149,
0,0,0,0,0,0,0,2162,2273,2198,2495,2527,149,149,149,149,
0,0,0,0,0,0,0,2163,2198,2495,2527,149,149,149,149,149,
0,0,0,0,0,0,0,2162,2463,2527,149,149,149,149,149,149,
0,0,0,0,0,0,0,2163,2463,149,149,149,149,149,149,149,
0,0,0,0,0,0,0,2162,2463,149,149,149,2130,2133,2135,149,
0,0,0,0,0,0,0,2163,2463,149,149,149,2460,2177,2463,149,
0,0,0,0,0,0,0,2162,2463,149,149,149,2460,2273,2463,149
</chunk>
   <chunk x="-16" y="-64" width="16" height="16">
2131,2273,2273,2273,2273,2273,2273,2273,2273,2273,2273,2273,2273,2273,2273,2273,
2273,2198,2228,2229,2228,2229,2228,2228,2228,2228,2228,2228,2228,2228,2228,2228,
2198,2495,2525,2526,2525,2526,2525,2526,2525,2526,2526,2525,2526,2525,2526,2525,
2495,2527,149,149,149,149,149,149,149,149,149,149,149,149,149,149,
2527,149,149,149,149,149,149,149,149,149,149,149,149,149,149,2557,
149,149,149,149,149,149,149,149,149,149,149,149,149,149,2557,2130,
149,149,149,149,149,149,149,149,149,149,149,149,149,2557,2130,2131,
149,149,149,149,149,2557,2557,2557,2130,2132,2132,2133,2132,2133,2131,2273,
149,149,149,149,149,2557,2557,2130,2131,2273,2273,2273,2273,2273,2273,2273,
149,149,149,149,149,2557,2130,2131,2273,2273,2273,2273,2273,2273,2273,2273,
149,149,149,149,149,2130,2131,2273,2273,2273,2273,2273,2273,2273,2273,2273,
149,149,149,149,2130,2131,2273,2273,2273,2273,2273,2273,2273,2273,2273,2273,
149,149,149,2130,2131,2273,2273,2273,2273,2273,2273,2273,2273,2273,2273,2273,
149,149,2130,2131,2273,2273,2198,2228,2229,2228,2229,2228,2229,2228,2229,2228,
149,2130,2131,2273,2273,2198,2230,2261,2261,2261,2261,2261,2261,2261,2261,2261,
149,2460,2145,2273,2198,2230,2262,2261,2261,2261,2261,2261,2261,2261,2261,2261
</chunk>
   <chunk x="0" y="-64" width="16" height="16">
2273,2273,2273,2273,2273,2273,2273,2273,2273,2273,2209,2209,2209,2209,2209,2209,
2229,2228,2228,2228,2228,2228,2228,2228,2229,2229,2209,2209,2209,2209,2209,2209,
2526,2525,2526,2525,2526,2525,2526,2525,2526,2525,2526,472,472,472,472,472,
149,149,149,149,2557,2557,2557,2557,2557,2557,2557,2557,2557,600,600,600,
2130,2132,2133,2132,2133,2132,2133,2132,2133,2132,2133,2135,2557,2209,2209,2209,
2131,2273,2273,2273,2273,2273,2273,2273,2273,2273,2209,2209,2209,2209,2209,2209,
2273,2273,2273,2273,2273,2273,2273,2273,2273,2273,2209,2209,2209,2209,2209,2209,
2273,2273,2273,2273,2273,2273,2273,2273,2273,146,146,2209,2209,2209,2209,2209,
2273,2273,2273,2273,2273,2273,2273,2273,2273,146,146,2209,2209,2209,2209,2209,
2273,2273,2273,2273,2273,2273,2273,2273,2273,2273,2209,2209,2209,2209,2209,2209,
2273,2273,2273,2273,2273,2273,2273,2273,2273,2273,2209,2209,2209,2209,2209,2209,
2273,2273,2273,2273,2273,2273,2273,2273,2273,2273,2209,2209,2209,2209,2209,2209,
2273,2273,2273,2273,2273,146,146,2273,2273,2273,146,2209,2209,2209,2209,2209,
2229,2228,2229,2195,146,146,146,146,146,146,146,2209,2209,2209,2209,2209,
2261,2261,2261,2194,2195,146,146,146,146,146,146,2209,2209,2209,2209,2209,
2261,2261,2261,0,2162,146,146,146,146,146,0,2209,2209,2209,2209,2209
</chunk>
   <chunk x="16" y="-64" width="16" height="16">
2209,2209,2209,2209,2209,2209,2209,2209,2209,2209,2209,2209,2209,2209,2209,2209,
2209,2209,2209,2209,2209,2209,2209,2209,2209,2209,2209,2209,2209,2209,2209,2209,
472,472,472,472,472,472,472,472,472,472,472,472,472,472,472,472,
600,600,600,600,600,600,600,600,600,600,600,600,600,600,600,600,
2209,2209,2209,2209,2209,2209,2209,2209,2209,2209,2209,2209,2209,2209,2209,2209,
2209,2209,2209,2209,2209,2209,2209,2209,2209,2209,2209,2209,2209,2209,2209,2209,
2209,2209,2209,2209,2209,2209,2209,2209,2209,2209,2209,2209,2209,2209,2209,2209,
2209,2209,2209,2209,2209,2209,2209,2209,2209,2209,2209,2209,2209,2209,2209,2209,
2209,2209,2209,2209,2209,2209,2209,2209,2209,2209,2209,2209,2209,2209,2209,2209,
2209,2209,2209,2209,2209,2209,2209,2209,2209,2209,2209,2209,2209,2209,2209,2209,
2209,2209,2209,2209,2209,2209,2209,2209,2209,2209,2209,2209,2209,2209,2209,2209,
2209,2209,2209,2209,2209,2209,2209,2209,2209,2209,2209,2209,2209,2209,2209,274,
2209,2209,2209,2209,2209,2209,2209,0,0,0,0,0,0,0,274,274,
2209,2209,2209,2209,402,274,274,274,402,338,146,274,402,210,338,274,
2209,2209,2209,2209,2209,2209,402,210,338,146,402,146,146,210,338,210,
2209,2209,2209,2209,2209,210,338,146,338,402,402,402,210,274,338,210
</chunk>
   <chunk x="32" y="-64" width="16" height="16">
2209,2209,2209,2209,2209,2209,2209,2209,2209,2209,2209,2209,2209,2209,2209,2209,
2209,2209,2209,2209,2209,2209,2209,2209,2209,2209,2209,2209,2209,2209,2209,2209,
472,472,472,472,472,472,472,472,472,473,2209,2209,2209,2209,2209,2209,
600,600,600,600,600,600,600,664,277,537,2209,2209,2209,2209,2209,2209,
2209,2209,2209,2209,2209,2209,2209,535,277,537,2209,2209,2209,2209,2209,2209,
2209,2209,2209,2209,2209,2209,2209,535,277,537,2209,2209,2209,2209,2209,2209,
2209,2209,2209,2209,2209,2209,402,535,277,537,2209,2209,2209,2209,2209,2209,
2209,2209,2209,2209,2209,2209,402,535,277,537,2209,2209,2209,2209,2209,2209,
2209,2209,2209,2209,2209,2209,2209,535,277,537,2209,2209,2209,2209,2209,2209,
2209,2209,2209,2209,2209,2209,2209,535,277,537,2209,2209,2209,2209,2209,2209,
2209,2209,2209,2209,2209,2209,2209,535,277,537,2209,2209,2209,2209,2209,2209,
402,274,338,274,274,146,274,535,341,537,210,402,146,210,210,2209,
402,402,402,146,402,274,146,535,341,537,338,146,402,210,402,210,
210,274,402,274,146,338,210,535,277,537,338,210,210,146,210,210,
274,210,210,402,146,210,402,535,341,537,210,274,402,210,338,274,
274,146,210,274,274,274,210,535,663,601,402,338,402,146,146,2209
</chunk>
   <chunk x="48" y="-64" width="16" height="16">
2209,2209,2209,2209,2209,2209,2209,2209,2209,2209,2209,2209,2209,2209,2209,0,
2209,2209,2209,2209,2209,2209,2209,2209,2209,2209,2209,2209,2209,2209,2209,0,
2209,2209,2209,2209,2209,2209,2209,2209,2209,2209,2209,2209,2209,2209,2209,0,
2209,2209,2209,2209,2209,2209,2209,2209,2209,2209,2209,2209,2209,2209,2209,0,
2209,2209,2209,2209,2209,2209,2209,2209,2209,2209,2209,2209,2209,2209,2209,0,
2209,2209,2209,2209,2209,2209,2209,2209,2209,2209,2209,2209,2209,2209,2209,0,
2209,2209,2209,2209,2209,2209,2209,2209,2209,2209,2209,2209,2209,2209,2209,0,
2209,2209,2209,2209,2209,2209,2209,2209,2209,2209,2209,2209,2209,2209,2209,0,
2209,2209,2209,2209,2209,2209,2209,2209,2209,2209,2209,2209,2209,2209,2209,0,
2209,2209,2209,2209,2209,2209,2209,2209,2209,2209,2209,2209,2209,2209,2209,0,
2209,2209,2209,2209,2209,2209,2209,2209,2209,2209,2209,2209,2209,2209,2209,0,
2209,2209,2209,2209,2209,2209,2209,2209,2209,2209,2209,2209,2209,2209,2209,0,
2209,2209,2209,2209,2209,2209,2209,2209,2209,2209,2209,2209,2209,2209,2209,0,
146,210,146,2209,2209,2209,2209,2209,2209,2209,2209,2209,2209,2209,2209,0,
338,2209,2209,2209,2209,2209,2209,2209,2209,2209,2209,2209,2209,2209,2209,0,
2209,2209,2209,2209,2209,2209,2209,2209,2209,2209,2209,2209,2209,2209,2209,0
</chunk>
   <chunk x="-80" y="-48" width="16" height="16">
0,0,0,0,0,0,0,0,0,0,0,0,7472,7473,7472,7473,
0,0,0,0,0,0,0,0,0,0,0,0,7488,7489,7488,7489,
0,0,0,0,0,0,0,0,0,0,0,0,7473,7472,7473,7472,
0,0,0,0,0,0,0,0,0,0,0,0,7489,7488,7489,7488,
0,0,0,0,0,0,0,0,0,0,0,0,7472,7473,7472,7473,
0,0,0,0,0,0,0,0,0,0,0,0,7488,7489,7488,7489,
0,0,0,0,0,0,0,0,0,0,0,0,7473,7472,7473,7472,
0,0,0,0,0,0,0,0,0,0,0,0,7489,7488,7489,7488,
0,0,0,0,0,0,0,0,0,0,0,0,7472,7473,7472,7473,
0,0,0,0,0,0,0,0,0,0,0,0,7584,7585,7584,7585,
0,0,0,0,0,0,0,0,0,0,0,7387,7388,7387,7388,7387,
0,0,0,0,0,0,0,0,0,0,0,0,0,0,0,0,
0,0,0,0,0,0,0,0,0,0,0,0,0,0,0,0,
0,0,0,0,0,0,0,0,0,0,0,0,0,0,0,0,
0,0,0,0,0,0,0,0,0,0,0,0,0,0,0,0,
0,0,0,0,2354,2356,2357,2356,2357,2356,2357,2356,2357,2356,2357,2359
</chunk>
   <chunk x="-64" y="-48" width="16" height="16">
7472,7473,7472,7473,7472,7473,7472,7473,7472,7473,7488,7535,7337,7337,7337,7337,
7488,7489,7488,7489,7488,7489,7488,7489,7488,7489,7473,7568,7569,7551,7337,7337,
7473,7472,7473,7472,7473,7472,7473,7472,7473,7472,7489,7471,7473,7455,7345,7346,
7489,7488,7489,7488,7489,7488,7489,7488,7489,7488,7584,7487,7489,7471,7345,7346,
7472,7473,7472,7473,7472,7473,7472,7473,7472,7473,7551,7583,7584,7487,7345,7346,
7488,7489,7488,7489,7488,7489,7488,7489,7488,7489,7455,7535,7337,7583,7345,7346,
7473,7472,7473,7472,7473,7472,7473,7472,7473,7472,7471,7535,7353,7385,7337,7369,
7489,7488,7489,7488,7489,7488,7489,7488,7489,7488,7487,7551,7369,7401,7353,7385,
7472,7473,7472,7473,7472,7473,7472,7473,7472,7473,7471,7567,7535,7337,7369,7353,
7584,7585,7584,7585,7584,7585,7584,7585,7584,7585,7487,7455,0,7385,7401,7353,
7388,7387,7388,7387,7388,7387,7388,7387,7388,7356,7583,7471,0,7337,7353,7369,
0,0,0,0,0,0,0,0,0,7386,7356,7487,0,0,0,0,
0,0,0,0,0,0,0,0,0,0,7370,7455,0,0,0,0,
0,0,0,0,0,0,0,0,0,0,7370,7583,0,0,0,0,
0,0,0,0,0,0,0,0,0,0,7386,7356,0,0,0,0,
0,0,0,0,0,0,0,0,0,0,0,0,0,0,0,0
</chunk>
   <chunk x="-48" y="-48" width="16" height="16">
7337,7337,7538,0,0,0,0,0,0,0,0,0,0,0,0,0,
7554,7568,7569,0,0,0,0,0,0,0,0,0,0,0,0,0,
7458,7473,7458,0,0,0,0,0,0,0,0,0,0,0,0,0,
7474,7489,7474,7522,0,0,0,0,0,2354,2357,2356,2357,2359,0,0,
7490,7584,7586,7538,0,0,0,0,0,2386,2121,2153,2185,2358,2356,2357,
7586,7337,7353,7538,0,0,0,0,0,2386,2217,2249,2121,2153,2185,2217,
7337,7401,7369,7538,0,0,0,0,0,2386,2121,2121,2153,2185,2217,2249,
7401,7385,7385,7538,0,0,0,0,0,2386,2153,337,401,145,209,273,
7369,7369,7401,7538,0,0,0,0,0,2386,2185,337,273,209,209,337,
7337,7353,7337,7538,0,0,0,0,0,2418,2419,145,209,273,337,401,
7385,7337,7353,7554,7341,0,0,0,0,2226,2387,145,209,209,401,145,
0,0,0,7570,7357,0,0,0,0,2258,2386,401,145,209,273,337,
0,0,0,7474,7357,0,0,0,0,2226,2387,2153,2185,2217,2249,2121,
0,0,0,7490,7357,7449,0,2681,2681,2258,2386,2121,2185,2153,2121,2185,
0,0,0,7458,7357,7449,0,2681,2681,2258,2387,2185,2217,2249,2121,2153,
0,0,0,7570,7373,7449,2681,2681,2681,2491,2386,2121,2153,2422,2452,2453
</chunk>
   <chunk x="-32" y="-48" width="16" height="16">
0,0,0,0,0,0,0,2163,2463,149,149,149,2460,2273,2463,149,
0,0,0,0,0,0,0,2194,2199,149,149,149,2460,2273,2463,149,
0,0,0,0,0,0,0,2226,2262,2261,2261,2261,2227,2195,2463,149,
0,0,0,0,0,0,0,2226,2262,2261,2261,2261,2259,2227,2230,2558,
2359,0,0,0,0,0,0,2258,2494,2261,2261,2261,2259,2259,2262,2261,
2358,2356,2357,2359,0,0,0,2491,2527,2526,2525,2526,2493,2259,2262,2261,
145,209,273,2358,2357,2359,0,2557,2557,2557,2557,2557,2524,2493,2494,2261,
337,401,145,209,273,2391,0,0,2557,2557,2557,2557,2557,2524,2527,2526,
273,209,145,401,337,2390,2359,0,0,0,0,2557,2557,2557,2557,2557,
145,209,273,145,209,2391,2391,0,0,0,0,0,0,0,0,0,
209,2422,2383,2384,2385,2423,2390,0,0,0,0,0,0,0,0,0,
2422,2454,2447,2448,2449,2455,2391,0,0,0,0,0,0,0,0,0,
2391,2486,2511,2512,2513,2487,2358,2359,0,0,0,0,0,0,2354,2356,
2390,2518,2153,2185,2121,2121,2121,2390,0,0,0,0,0,0,2386,0,
2358,2356,2357,2359,0,2249,2153,2391,0,0,0,0,0,0,2387,0,
2419,2121,2153,2358,2359,2217,2185,2390,0,0,0,0,0,0,2386,0
</chunk>
   <chunk x="-16" y="-48" width="16" height="16">
149,2460,2273,2198,2230,2262,2262,2261,2261,2261,2261,2261,2261,2261,2261,2261,
149,2460,2198,2230,2262,2262,2494,2525,2526,2525,2526,2525,2526,2525,2526,2525,
149,2460,2167,2262,2262,2494,2527,0,0,0,0,0,0,0,2130,2132,
2558,2227,2199,2262,2494,2527,0,2130,2133,2135,0,0,2130,2133,2131,0,
2261,2259,2231,2494,2527,2557,2557,2163,146,2134,2132,2133,2131,146,146,146,
2261,2259,2231,2527,2557,2557,2130,2131,146,146,0,0,0,146,0,146,
2261,2493,2263,2557,2557,2130,146,146,146,146,146,146,146,146,146,146,
2525,2524,2496,2557,0,2163,146,146,146,146,0,146,146,146,2209,2209,
2557,2557,2557,2557,0,2162,146,146,146,146,0,146,2209,2209,2209,2209,
0,0,0,0,0,2194,2229,2195,146,146,146,146,2209,2209,2209,2209,
0,0,0,0,0,0,0,2227,2195,146,146,2209,2209,2209,2209,2209,
0,0,0,0,0,0,0,0,2227,2195,146,2209,2209,2209,2209,2209,
2357,2359,0,0,0,0,0,0,0,2162,146,2209,2209,2209,2209,2209,
0,2358,2359,0,0,0,0,0,0,2194,2229,2195,146,146,146,146,
0,0,2358,2359,0,0,0,0,0,0,0,2227,2195,146,146,146,
0,0,0,2391,0,0,0,0,0,0,0,0,2227,2195,146,146
</chunk>
   <chunk x="0" y="-48" width="16" height="16">
2261,2261,2261,0,2163,146,146,146,146,146,0,2209,2209,2209,2209,2209,
2526,2525,2526,2130,2131,146,146,146,146,146,0,2209,2209,2209,2209,2209,
2133,2132,2133,2131,146,146,146,146,146,0,0,2209,2209,2209,2209,2209,
0,0,0,146,146,146,0,0,0,0,0,2209,2209,2209,2209,2209,
146,146,146,146,146,146,0,0,0,0,0,2209,2209,2209,2209,2209,
146,146,146,146,0,0,0,0,0,0,0,2209,2209,2209,2209,2209,
146,2209,2209,2209,2209,2209,2209,2209,2209,2209,2209,2209,2209,2209,2209,2209,
2209,2209,2209,2209,2209,2209,2209,2209,2209,2209,2209,2209,2209,2209,2209,2209,
2209,2209,2209,2209,2209,2209,2209,2209,2209,2209,2209,2209,2209,2209,2209,2209,
2209,2209,2209,2209,2209,2209,2209,2209,2209,2209,2209,2209,2209,2209,2209,2209,
2209,2209,2209,2209,2209,2209,2209,2209,2209,2209,2209,2209,2209,2209,2209,2209,
2209,2209,2209,2209,2209,2209,2209,2209,2209,2209,2209,2209,2209,2209,2209,2209,
2209,2209,2209,2209,2209,2209,2209,2209,2209,2209,2209,2209,2209,2209,2209,2209,
146,146,146,146,146,146,146,0,0,0,2209,2209,2209,2209,2209,2209,
146,0,146,146,146,146,146,146,146,0,2209,2209,2209,2209,2209,2209,
146,146,146,26,27,410,27,28,146,0,2209,2209,2209,2209,2209,2209
</chunk>
   <chunk x="16" y="-48" width="16" height="16">
2209,2209,2209,2209,2209,338,210,402,146,402,274,210,146,274,402,338,
2209,2209,2209,402,402,274,274,338,338,146,146,402,210,146,402,146,
2209,2209,2209,2209,2209,2209,210,210,274,274,210,274,338,338,338,274,
2209,2209,2209,2209,2209,210,402,146,210,210,274,274,210,210,274,338,
2209,2209,2209,2209,146,402,402,146,146,402,210,402,274,146,146,402,
2209,2209,2209,2209,2209,2209,146,274,402,402,402,274,210,402,146,146,
2209,2209,2209,2209,2209,402,338,146,146,274,338,210,402,146,338,210,
2209,2209,2209,146,274,402,146,274,274,210,338,210,210,402,338,146,
2209,2209,2209,2209,2209,2209,402,402,402,274,274,210,338,338,146,210,
2209,2209,2209,146,338,274,274,402,210,402,146,274,402,146,338,146,
2209,2209,2209,2209,210,338,338,274,146,210,210,402,402,338,338,146,
2209,2209,2209,2209,2209,2209,2209,2209,2209,2209,210,210,402,210,274,338,
2209,2209,2209,2209,2209,2209,2209,274,146,274,2209,2209,210,402,274,402,
2209,2209,2209,2209,2209,2209,2209,2209,2209,2209,2209,2209,2209,210,274,210,
2209,2209,2209,2209,2209,2209,2209,2209,2209,2209,2209,338,338,402,146,402,
2209,2209,2209,2209,2209,2209,2209,2209,2209,402,402,210,146,274,274,274
</chunk>
   <chunk x="32" y="-48" width="16" height="16">
402,402,402,402,210,210,402,535,537,274,274,210,402,2209,2209,2209,
146,274,338,210,402,338,210,535,727,473,210,210,402,274,210,338,
210,274,338,402,274,338,274,535,277,537,210,210,402,146,402,274,
146,274,274,338,402,338,146,535,341,537,210,210,402,338,338,338,
210,274,146,274,146,210,402,599,664,537,146,274,274,338,210,274,
146,210,274,402,146,338,146,210,535,537,210,402,338,146,146,338,
274,402,402,274,210,274,274,402,535,537,146,402,146,146,338,402,
146,338,402,338,210,146,402,338,535,537,210,274,402,274,338,146,
210,210,338,402,338,146,146,471,728,537,210,274,146,210,146,274,
210,210,402,402,210,210,146,535,663,601,338,210,146,402,210,402,
338,338,210,210,146,274,402,535,537,274,402,274,402,274,146,402,
402,338,274,146,274,338,146,535,727,473,274,338,274,210,146,210,
146,338,210,402,146,338,338,599,664,727,473,210,338,146,210,274,
402,402,402,338,146,146,402,146,599,664,727,473,338,274,146,402,
146,338,274,338,338,274,402,210,338,599,664,727,473,338,146,146,
402,146,402,402,146,210,146,210,338,338,599,664,727,472,473,210
</chunk>
   <chunk x="48" y="-48" width="16" height="16">
2209,2209,2209,2209,2209,2209,2209,2209,2209,2209,2209,2209,2209,2209,2209,0,
274,146,2209,2209,2209,2209,2209,2209,2209,2209,2209,2209,2209,2209,2209,0,
274,274,146,402,2209,2209,2209,2209,2209,2209,2209,2209,2209,2209,2209,0,
402,338,2209,2209,2209,2209,2209,2209,2209,2209,2209,2209,2209,2209,2209,0,
402,338,210,338,338,274,146,210,2209,2209,2209,2209,2209,2209,2209,0,
338,274,274,402,210,338,402,2209,2209,2209,2209,2209,2209,2209,2209,0,
274,338,2209,2209,2209,2209,2209,2209,2209,2209,2209,2209,2209,2209,2209,0,
146,338,210,274,2209,2209,2209,2209,2209,2209,2209,2209,2209,2209,2209,0,
274,338,2209,2209,2209,2209,2209,2209,2209,2209,2209,2209,2209,2209,2209,0,
210,338,402,274,2209,2209,2209,2209,2209,2209,2209,2209,2209,2209,2209,0,
210,274,2209,210,146,274,2209,2209,2209,2209,2209,2209,2209,2209,2209,0,
274,402,274,402,2209,2209,2209,2209,2209,2209,2209,2209,2209,2209,2209,0,
2209,2209,2209,2209,2209,2209,2209,2209,2209,2209,2209,2209,2209,2209,2209,0,
274,146,274,2209,2209,2209,2209,2209,2209,2209,2209,2209,2209,2209,2209,0,
146,338,146,2209,2209,2209,2209,2209,2209,2209,2209,2209,2209,2209,2209,0,
210,210,210,210,402,402,2209,2209,2209,2209,2209,2209,2209,2209,2209,0
</chunk>
   <chunk x="-80" y="-32" width="16" height="16">
0,0,0,0,2386,0,0,0,0,0,0,0,0,0,0,2358,
0,0,0,2354,2355,0,0,0,0,0,0,0,0,0,0,0,
0,0,2354,2355,0,0,0,0,0,0,0,0,0,0,0,0,
0,2354,2355,0,0,0,0,0,0,0,0,0,0,0,0,0,
2354,2355,0,0,0,0,0,0,0,0,0,0,0,0,0,0,
2387,0,0,0,0,0,0,0,0,0,0,0,0,0,0,0,
2387,0,0,0,0,0,0,0,0,0,0,0,0,0,0,0,
2387,0,0,0,0,0,0,0,0,0,0,0,0,0,0,0,
2387,0,0,0,0,0,0,0,0,0,0,0,0,0,0,0,
2387,0,0,0,0,0,0,0,0,0,0,0,0,0,0,0,
2387,0,0,0,0,0,0,0,0,0,0,0,0,0,0,0,
2387,0,0,0,0,0,0,0,0,0,0,0,0,0,0,0,
2387,0,0,0,0,0,0,0,0,0,0,0,0,0,0,0,
2387,0,0,0,0,0,0,0,0,0,0,0,2209,2209,2209,2209,
2387,0,0,0,0,0,0,0,0,0,0,0,2209,2209,2209,2209,
2387,0,0,0,0,0,0,0,0,0,0,0,2209,2209,2209,2209
</chunk>
   <chunk x="-64" y="-32" width="16" height="16">
2359,0,0,0,0,0,0,0,0,0,0,0,0,0,0,0,
2358,2356,2359,0,0,0,0,0,0,0,0,0,0,0,0,0,
0,0,2391,0,2354,2357,2359,0,0,0,0,0,0,0,0,0,
0,0,2358,2357,2355,0,2358,2359,0,0,0,0,2681,2681,2681,2681,
0,0,0,0,0,0,0,2358,2359,0,0,0,2643,2643,2643,2643,
0,0,0,0,0,0,0,0,2358,2359,0,0,0,0,0,0,
0,0,0,0,0,0,0,0,0,2391,0,0,0,2130,2132,2672,
0,0,0,0,0,0,0,0,0,2390,0,0,0,2163,2209,0,
0,0,0,0,0,0,0,0,0,2358,2357,2671,2133,2131,2209,0,
0,0,0,0,0,0,0,0,0,0,0,0,2209,2209,2209,0,
0,0,0,0,0,0,0,0,0,0,0,0,2209,2209,2209,0,
0,0,0,0,0,0,0,0,0,0,0,0,2209,2209,2209,2209,
0,0,0,0,0,0,0,0,0,0,0,0,2209,2209,2209,2209,
2209,2209,2209,2209,2209,2209,2209,2209,2209,2209,2209,2209,2209,2209,2209,2209,
2209,2209,2209,2209,2209,2209,2209,2209,2209,2209,2209,2209,2209,2209,2209,2209,
2209,2209,2209,2209,2209,2209,2209,2209,2209,2209,2209,2209,2209,2209,2209,2209
</chunk>
   <chunk x="-48" y="-32" width="16" height="16">
0,0,0,7586,7357,7449,2681,2681,2681,2681,2418,2452,2453,2423,2324,2325,
0,0,7387,7388,7389,7449,2681,2681,2681,2681,2226,2261,2261,2641,2228,2195,
0,0,7449,7449,7449,7449,2681,2681,2681,2681,2258,2261,2260,2261,2261,2227,
2681,2681,2681,2681,2681,2681,2681,2681,2681,2681,2226,2261,2261,2293,2261,2259,
2644,2681,2681,2681,2681,2681,2681,2681,2681,2681,2258,2292,2261,2261,2261,2259,
2770,2643,2643,2643,2643,2644,2681,2681,2681,2681,2258,2261,2261,2261,2293,2259,
2359,0,0,0,0,2770,2643,2644,2681,2681,2491,2525,2526,2525,2526,2493,
2358,2357,2359,0,0,0,0,2770,2643,2644,2681,2681,2681,2681,2681,2524,
0,0,2358,2356,2357,2359,0,0,0,0,0,0,0,0,0,0,
0,0,0,0,0,2391,0,0,0,0,0,0,0,0,0,0,
0,0,0,0,0,2358,2359,0,0,0,0,0,0,0,0,0,
2209,2209,0,0,0,0,2358,2359,0,0,0,0,0,0,0,0,
2209,2209,0,0,0,0,0,2391,0,0,0,0,0,0,0,0,
2209,2209,2209,2209,2209,2209,0,2673,0,0,0,0,0,0,0,0,
2209,2209,2209,2209,2209,2209,2209,2134,2135,0,0,0,0,0,0,0,
2209,2209,2209,2209,2209,2209,2209,2209,2167,0,0,0,0,0,0,0
</chunk>
   <chunk x="-32" y="-32" width="16" height="16">
2420,2419,2185,2249,2391,2215,2217,2391,0,0,0,0,0,0,2418,0,
2323,2418,2452,2453,2423,2182,2183,2673,0,0,0,0,0,0,0,0,
2229,2638,2484,2485,2263,2198,2229,2199,0,0,0,0,0,0,0,0,
2261,2261,2261,2485,2641,2230,0,0,0,0,0,0,0,0,0,0,
2261,2261,2261,2293,0,0,0,0,0,0,0,0,0,0,0,0,
2261,2261,2292,2261,0,0,0,0,0,0,0,0,0,0,0,0,
2261,2261,2261,2261,0,0,0,0,0,0,0,0,0,0,0,0,
2525,2526,2525,2526,0,0,0,0,0,0,0,0,0,0,0,0,
0,0,0,0,0,0,0,0,0,0,0,0,0,0,0,0,
0,0,0,0,0,0,0,0,2130,2133,0,0,0,0,0,0,
0,0,0,0,0,0,0,0,2163,0,0,0,0,0,0,0,
0,0,0,0,0,0,0,0,2194,2195,0,0,0,0,0,0,
0,0,0,0,0,2130,2132,0,0,2227,2195,0,0,0,0,0,
0,0,0,0,2130,2131,2145,2177,0,0,2162,0,0,0,0,0,
0,0,0,0,2702,2119,2120,2209,2241,2130,2131,0,0,2354,2356,2357,
0,0,0,0,2386,2153,2278,2273,2145,2702,2418,2419,2356,2355,2214,2183
</chunk>
   <chunk x="-16" y="-32" width="16" height="16">
0,0,0,2358,2356,2357,2359,0,0,0,0,0,0,2702,27,410,
0,0,0,0,0,0,2391,0,0,0,0,0,0,2386,209,401,
2386,0,0,0,0,2153,2391,0,0,0,0,0,0,2387,273,273,
2418,2419,0,0,0,2185,2391,0,0,0,0,0,0,2386,145,145,
0,2451,2452,2453,2452,2453,2423,0,0,0,0,0,0,2387,273,401,
0,0,2261,2292,2293,2485,2455,0,0,0,0,0,0,2386,209,337,
0,0,0,0,0,0,0,0,0,0,0,0,0,2418,2419,273,
0,0,0,0,0,0,0,0,0,0,0,0,0,0,2670,155,
0,0,0,0,0,0,0,0,0,0,0,0,0,2130,2131,274,
0,0,0,0,0,0,0,0,0,0,0,0,0,2162,146,274,
0,0,0,0,0,0,0,0,0,0,2130,2132,2133,2131,146,146,
0,0,0,0,0,0,0,0,2130,2133,2131,146,146,146,146,146,
0,0,0,0,0,0,0,2130,2131,146,402,274,274,210,146,210,
0,0,0,0,2354,2671,2133,2131,146,210,338,146,402,338,274,274,
2356,2357,2359,0,2386,92,146,146,2209,338,338,2209,338,210,2209,274,
2215,0,2358,2357,2355,92,146,146,2209,2209,2209,2209,2209,2209,2209,146
</chunk>
   <chunk x="0" y="-32" width="16" height="16">
28,146,26,283,209,273,337,92,146,146,146,2209,2209,2209,2209,2209,
282,27,283,337,209,224,161,987,24,25,2209,2209,2209,2209,2209,2209,
145,401,273,273,224,162,403,211,339,89,2209,2209,2209,2209,2209,2209,
209,145,337,273,98,32,33,34,147,89,2209,2209,2209,2209,2209,2209,
337,145,401,145,288,289,273,98,275,279,24,25,2209,2209,2209,274,
273,145,145,273,209,337,145,288,34,403,339,89,2209,338,338,146,
209,273,145,337,145,218,922,161,162,339,275,89,274,274,274,338,
219,273,218,155,411,156,151,216,403,215,152,153,402,402,146,146,
154,411,156,338,210,338,210,151,408,153,210,274,402,146,338,402,
274,274,210,210,274,402,338,338,146,210,338,274,338,146,146,338,
402,146,146,274,210,274,338,338,274,274,274,146,274,402,146,402,
146,146,274,146,338,402,338,274,402,210,210,210,274,210,338,338,
274,338,210,146,210,338,338,210,274,402,274,402,402,210,338,210,
146,146,338,210,338,274,402,210,402,210,274,402,274,210,210,338,
274,146,210,146,338,402,210,338,210,402,274,402,338,210,274,338,
2209,146,210,210,274,274,402,210,338,274,402,338,274,274,338,210
</chunk>
   <chunk x="16" y="-32" width="16" height="16">
2209,2209,2209,2209,2209,2209,210,274,274,402,146,146,274,146,210,274,
2209,2209,2209,2209,2209,2209,2209,2209,2209,2209,338,274,274,210,338,402,
2209,2209,2209,2209,2209,2209,2209,210,146,146,210,338,146,274,402,210,
2209,2209,2209,2209,2209,2209,2209,2209,2209,2209,2209,2209,210,274,338,274,
146,2209,2209,2209,2209,2209,2209,2209,338,338,210,210,210,146,402,146,
274,2209,2209,2209,2209,2209,2209,2209,338,146,402,274,210,274,274,338,
210,210,210,2209,2209,2209,2209,2209,2209,2209,2209,274,146,274,210,274,
274,274,402,2209,2209,2209,2209,2209,2209,2209,2209,2209,210,338,338,274,
338,274,210,402,2209,2209,2209,2209,2209,2209,2209,2209,2209,2209,2209,338,
146,274,210,274,146,338,146,146,146,2209,2209,2209,2209,274,274,274,
402,146,2209,2209,2209,2209,402,402,2209,2209,2209,2209,2209,2209,2209,2209,
210,146,146,210,146,338,2209,2209,2209,2209,2209,2209,2209,2209,2209,274,
146,2209,2209,274,146,274,2209,2209,2209,2209,2209,2209,2209,2209,2209,2209,
338,402,274,338,338,2209,2209,2209,2209,2209,2209,2209,2209,2209,2209,2209,
210,210,402,210,2209,2209,2209,2209,2209,2209,2209,2209,2209,2209,2209,2209,
274,338,338,402,210,274,2209,2209,2209,2209,2209,2209,2209,2209,146,338
</chunk>
   <chunk x="32" y="-32" width="16" height="16">
146,146,338,210,146,210,338,338,210,338,402,599,600,664,727,473,
210,146,146,210,274,146,338,338,402,338,146,146,338,599,664,727,
402,402,210,146,274,210,146,402,146,338,402,146,274,274,599,600,
338,274,146,210,402,338,402,210,210,338,402,274,274,338,402,210,
402,146,146,210,402,402,402,338,210,274,274,210,146,274,146,274,
146,402,402,402,146,338,210,338,274,210,338,146,146,338,274,274,
402,210,210,274,146,338,402,146,402,146,402,338,338,274,146,146,
274,146,274,210,146,146,338,274,146,338,146,274,210,338,402,146,
146,274,274,402,210,146,210,274,274,210,274,210,274,210,274,146,
274,402,338,210,210,146,338,338,210,146,338,338,274,146,338,402,
146,146,274,274,338,210,210,338,210,402,210,146,146,274,274,146,
210,274,274,274,146,402,402,274,146,402,402,210,402,274,402,146,
402,274,146,274,338,210,146,146,402,274,210,146,210,210,338,274,
2209,2209,274,210,210,274,274,402,210,338,338,402,210,274,274,274,
2209,402,146,146,146,210,210,338,146,402,274,402,338,210,2209,2209,
210,402,210,274,274,402,146,210,146,210,402,2209,2209,2209,2209,2209
</chunk>
   <chunk x="48" y="-32" width="16" height="16">
274,402,274,210,210,402,402,2209,2209,2209,2209,2209,2209,2209,2209,0,
472,472,472,472,472,473,2209,2209,2209,2209,2209,2209,2209,2209,2209,0,
600,600,600,664,536,537,338,2209,2209,2209,2209,2209,2209,2209,2209,0,
146,146,402,535,536,537,402,146,2209,2209,2209,2209,2209,2209,2209,0,
402,210,402,535,536,537,274,146,402,2209,2209,2209,2209,2209,2209,0,
338,210,402,535,536,537,2209,2209,2209,2209,2209,2209,2209,2209,2209,0,
210,274,146,535,536,537,146,2209,2209,2209,2209,2209,2209,2209,2209,0,
146,274,210,535,536,537,274,210,2209,2209,2209,2209,2209,2209,2209,0,
274,338,402,535,536,537,402,2209,2209,2209,2209,2209,2209,2209,2209,0,
146,274,210,535,536,537,2209,2209,2209,2209,2209,2209,2209,2209,2209,0,
210,210,402,535,536,537,2209,2209,2209,2209,2209,2209,2209,2209,2209,0,
338,146,402,535,536,537,2209,2209,2209,2209,2209,2209,2209,2209,2209,0,
402,210,338,535,536,537,2209,2209,2209,2209,2209,2209,2209,2209,2209,0,
338,210,2209,535,536,537,2209,2209,2209,2209,2209,2209,2209,2209,2209,0,
2209,2209,2209,535,536,537,2209,2209,2209,2209,2209,2209,2209,2209,2209,0,
2209,2209,2209,535,536,537,2209,2209,2209,2209,2209,2209,2209,2209,2209,0
</chunk>
   <chunk x="-96" y="-16" width="16" height="16">
0,0,0,0,0,0,0,0,0,0,0,0,0,0,0,0,
0,0,0,0,0,0,0,0,0,0,0,0,0,0,0,0,
0,0,0,0,0,0,0,0,0,0,0,0,0,0,0,0,
0,0,0,0,0,0,0,0,0,0,0,0,0,0,0,0,
0,0,0,0,0,0,0,0,0,0,0,0,0,0,0,0,
0,0,0,0,0,0,0,0,0,0,0,0,0,0,0,0,
0,0,0,0,0,0,0,0,0,0,0,0,0,0,0,0,
0,0,0,0,0,0,0,0,0,0,0,0,0,0,0,0,
0,0,0,0,0,0,0,0,0,0,0,0,0,0,0,2130,
0,0,0,0,0,0,0,0,0,0,0,0,0,0,2130,2131,
0,0,0,0,0,0,0,0,0,0,0,0,0,2130,2131,2209,
0,0,0,0,0,0,0,0,0,0,0,0,2130,2131,2209,2209,
0,0,0,0,0,0,0,0,0,0,0,2130,2131,2209,2209,2209,
0,0,0,0,0,0,0,0,0,0,2130,2131,2209,2209,2209,2209,
0,0,0,0,0,0,0,0,0,2130,2131,2209,2209,2209,2209,2209,
0,0,0,0,0,0,0,0,2130,2131,2209,2209,2209,2209,2209,2209
</chunk>
   <chunk x="-80" y="-16" width="16" height="16">
2387,0,0,0,0,0,0,0,0,0,0,0,2209,2209,2209,2209,
2387,0,0,0,0,0,0,0,0,0,0,0,2209,2209,2209,2209,
2387,0,0,0,0,0,0,0,0,0,0,0,2209,2209,2209,2209,
2387,0,0,0,0,0,0,0,0,0,0,0,2209,2209,2209,2209,
2387,0,0,0,0,0,0,0,0,0,0,0,2209,2209,2209,2209,
2387,0,0,0,0,0,0,0,0,0,0,0,2209,2209,2209,2209,
2387,0,0,0,0,0,0,0,0,0,0,0,2209,2209,2209,2209,
2670,0,0,0,0,0,0,0,0,0,0,0,2209,2209,2209,2209,
2131,2209,2209,2209,2209,2209,2209,2209,2209,2209,2209,2209,2209,2209,2209,2209,
2209,2209,2209,2209,2209,2209,2209,2209,2209,2209,2209,2209,2209,2209,2209,2209,
2209,2209,2209,2209,2209,2209,2209,2209,2209,2209,2209,2209,2209,2209,2209,2209,
2209,2209,2209,2209,2209,2209,2209,2209,2209,2209,2209,2209,2209,2209,2209,2209,
2209,2209,2209,2209,2209,2209,2209,2209,2209,2209,2209,2209,2209,2209,2209,2209,
2209,2209,2209,2209,2209,2209,2209,2209,2209,2209,2209,2209,2209,2209,2209,2209,
2209,2209,2209,2209,2209,2209,2209,2209,2209,2209,2209,2209,2209,2209,2209,2209,
2209,2209,2209,2209,2209,2209,2209,2209,2209,2209,2209,2209,2209,2209,2209,2209
</chunk>
   <chunk x="-64" y="-16" width="16" height="16">
2209,2209,2209,2209,2209,2209,2209,2209,2209,2209,2209,2209,2209,2209,2209,2209,
2209,2209,2209,2209,2209,2209,2209,2209,2209,2209,2209,2209,2209,2209,2209,2209,
2209,2209,2209,2209,2209,2209,2209,2209,2209,2209,2209,2209,2209,2209,2209,2209,
2209,2209,2209,2209,2209,2209,2209,2209,2209,2209,2209,2209,2209,2209,2209,2209,
2209,2209,2209,2209,2209,2209,2209,2209,2209,2209,2209,2209,2209,2209,2209,2209,
2209,2209,2209,2209,2209,2209,2209,2209,2209,2209,2209,2209,2209,2209,2209,2209,
2209,2209,2209,2209,2209,2209,2209,2209,2209,2209,2209,2209,2209,2209,2209,2209,
2209,2209,2209,2209,2209,2209,2209,2209,2209,2209,2209,2209,2209,2209,2209,2209,
2209,2209,2209,2209,2209,2209,2209,2209,2209,2209,2209,2209,2209,2209,2209,2209,
2209,2209,2209,2209,2209,2209,2209,2209,2209,2209,2209,2209,2209,2209,2209,2209,
2209,2209,2209,2209,2209,2209,2209,2209,2209,2209,2209,2209,2209,2209,2209,2209,
2209,2209,2209,2209,2209,2209,2209,2209,2209,2209,2209,2209,2209,2209,2209,2209,
2209,2209,2209,2209,2209,2209,2209,2209,2209,2209,2209,2209,2209,2209,2209,2209,
2209,2209,2209,2209,2209,2209,2209,2209,2209,2209,2209,2209,2209,2209,2209,2209,
2209,2209,2209,2209,2209,2209,2209,2209,2209,2209,2209,2209,2209,402,210,338,
2209,2209,2209,2209,2209,2209,2209,2209,338,210,274,210,274,338,146,2209
</chunk>
   <chunk x="-48" y="-16" width="16" height="16">
2209,2209,2209,2209,2209,2209,2209,2209,2166,0,0,0,0,0,0,2130,
2209,2209,2209,2209,2209,2209,2209,2209,2134,2135,0,0,0,0,0,2162,
2209,2209,2209,2209,2209,2209,2209,2209,2209,2134,2135,0,0,0,2130,2131,
2209,2209,2209,2209,2209,2209,2209,2209,2209,2209,2134,2135,0,0,2162,2209,
2209,2209,2209,2209,2209,2209,2209,2209,2209,2209,2209,2134,2132,2133,2131,2209,
2209,2209,2209,2209,2209,2209,2209,2209,2209,2209,2209,2209,2209,2209,2209,2209,
2209,2209,2209,2209,2209,2209,2209,2209,2209,2209,2209,2209,2209,2209,2209,2209,
2209,2209,2209,2209,2209,2209,2209,2209,2209,2209,2209,2209,2209,2209,2209,2209,
2209,2209,2209,2209,2209,2209,2209,2209,2209,2209,2209,2209,2209,2209,2209,2209,
2209,2209,2209,2209,2209,2209,2209,2209,2209,2209,2209,2209,2209,2209,2209,2209,
2209,2209,2209,2209,2209,2209,2209,2209,2209,2209,2209,2209,2209,2209,2209,2209,
2209,2209,2209,2209,2209,2209,2209,2209,2209,2209,2209,2209,2209,2209,2209,2209,
2209,2209,2209,2209,2209,2209,2209,2209,2209,2209,2209,2209,2209,2209,2209,2209,
338,2209,2209,2209,2209,2209,2209,2209,2209,2209,2209,2209,2209,2209,2209,2209,
402,2209,2209,2209,2209,2209,2209,2209,2209,2209,2209,2209,2209,2209,2209,2209,
2209,2209,2209,2209,2209,2209,2209,2209,2209,2209,2209,2209,2209,2209,2209,2209
</chunk>
   <chunk x="-32" y="-16" width="16" height="16">
2133,2135,0,0,2418,2419,2246,2120,2177,2418,2226,2451,2423,0,2184,2177,
2209,2134,2132,2672,2226,2451,2419,2152,2209,2450,2259,2259,2641,2199,2209,2118,
2209,2209,2209,90,2226,2259,2451,2703,2228,2638,2259,2259,2261,2231,2118,2247,
2340,2340,2209,90,2450,2259,2259,2260,2261,2292,2259,2259,2261,2263,2150,0,
2372,2372,2209,90,2482,2483,2259,2293,2147485818,2147485817,2147485816,2259,2293,2455,2150,0,
2209,2209,2209,90,0,2515,2483,2485,2147485850,2147485849,2147485848,2259,2485,2641,2704,2454,
2209,2209,2209,154,219,0,2515,2516,2147485882,2147485881,2147485880,2259,2292,2261,2262,2486,
2209,2209,2209,0,154,155,411,219,0,0,2482,2483,2261,2293,2486,2518,
2209,2209,2209,0,0,0,0,154,411,219,0,2515,2516,2517,218,411,
2209,2209,2209,0,0,0,0,0,0,154,219,0,218,155,156,210,
2209,2209,2209,0,0,0,0,0,0,0,347,0,92,210,274,338,
2209,2209,2209,0,0,0,0,0,0,0,90,0,282,28,210,146,
2209,2209,2209,0,0,0,0,0,0,26,283,0,0,346,210,146,
2209,2209,2209,2209,2209,2209,0,0,0,154,219,0,0,92,146,146,
2209,2209,2209,2209,2209,2209,0,0,0,0,347,0,218,156,146,0,
2209,2209,2209,2209,2209,2209,0,0,0,0,154,219,92,0,0,0
</chunk>
   <chunk x="-16" y="-16" width="16" height="16">
2150,0,0,0,2391,346,146,146,2209,2209,2209,2209,2209,2209,2209,2209,
2247,0,0,0,2423,92,146,146,2209,2209,2209,2209,2209,2209,2209,2209,
0,2422,2453,2454,2455,346,146,146,2209,2209,2209,2209,2209,2209,2209,2209,
0,2454,2484,2486,218,156,146,146,2209,2209,2209,2209,2209,2209,2209,2209,
2454,2486,2516,2518,92,146,210,274,2209,2209,2209,2209,2209,2209,2209,2209,
2486,2518,218,155,156,274,146,338,2209,2209,2209,2209,2209,2209,2209,2209,
2518,0,346,402,338,210,274,146,2209,2209,2209,2209,2209,2209,2209,2209,
218,411,156,146,210,146,146,146,2209,2209,2209,2209,2209,2209,2209,2209,
156,338,274,210,338,274,146,146,2209,2209,2209,2209,2209,2209,2209,2209,
210,146,146,146,274,146,146,146,2209,2209,2209,2209,2209,2209,2209,2209,
146,146,146,146,146,146,146,146,2209,2209,2209,2209,2209,210,338,274,
146,146,146,146,146,146,146,146,2209,2209,2209,2209,338,338,2209,2209,
146,2209,2209,2209,2209,2209,2209,2209,2209,2209,2209,2209,2209,2209,210,274,
2209,2209,2209,2209,2209,2209,2209,2209,2209,2209,2209,2209,2209,2209,2209,2209,
2209,2209,2209,2209,2209,2209,2209,2209,2209,2209,2209,2209,2209,274,210,146,
2209,2209,2209,2209,2209,2209,2209,2209,2209,2209,2209,2209,2209,2209,2209,2209
</chunk>
   <chunk x="0" y="-16" width="16" height="16">
2209,2209,338,210,146,210,210,402,274,402,146,402,210,402,274,402,
2209,2209,2209,2209,402,210,402,210,402,210,210,338,338,146,338,146,
2209,2209,2209,2209,274,146,402,146,338,210,146,338,338,402,274,146,
2209,338,338,146,338,210,402,146,402,274,146,338,210,338,146,338,
2209,210,210,402,402,274,338,402,210,210,146,274,402,146,338,146,
2209,274,274,146,146,146,210,210,402,146,274,402,210,274,146,274,
274,402,338,402,210,338,210,402,338,338,338,146,338,274,402,402,
2209,2209,402,274,338,210,402,338,210,210,274,274,402,274,210,338,
2209,402,338,210,274,338,146,402,146,274,210,274,146,338,338,402,
210,402,2209,2209,210,210,274,402,402,210,210,338,338,146,338,402,
210,402,146,210,338,274,146,402,402,274,146,210,210,210,402,338,
2209,2209,2209,338,146,274,146,210,146,274,402,274,338,274,338,0,
210,338,210,146,274,338,402,210,338,146,338,210,146,402,146,210,
338,402,402,146,210,274,274,274,338,146,402,274,146,210,402,402,
402,402,274,338,338,146,210,338,210,210,338,402,274,274,274,274,
402,274,146,338,338,402,402,146,146,146,402,338,210,210,146,210
</chunk>
   <chunk x="16" y="-16" width="16" height="16">
210,274,338,210,146,2209,2209,2209,2209,2209,2209,2209,2209,2209,146,274,
146,146,146,2209,2209,2209,2209,2209,2209,2209,2209,2209,2209,2209,2209,210,
338,338,402,338,2209,210,338,146,2209,2209,2209,2209,2209,2209,2209,2209,
338,146,210,338,402,146,2209,2209,2209,2209,2209,2209,2209,146,402,210,
146,338,338,210,0,2209,2209,2209,2209,2209,2209,2209,2209,2209,2209,402,
210,274,210,402,338,338,210,338,274,2209,2209,2209,2209,2209,2209,2209,
338,402,210,274,402,402,2209,210,274,402,2209,2209,2209,2209,2209,471,
146,402,402,146,402,210,210,274,2209,2209,2209,2209,2209,2209,471,728,
274,210,274,274,0,2209,2209,2209,2209,2209,2209,2209,2209,471,728,663,
274,402,0,0,0,2209,2209,2209,2209,2209,2209,2209,471,728,663,601,
210,274,0,0,0,2209,210,402,338,2209,2209,471,728,663,601,402,
146,146,210,274,402,338,274,2209,2209,2209,471,728,663,601,2209,2209,
210,274,402,146,2209,2209,2209,2209,2209,471,728,663,601,2209,2209,2209,
274,2209,2209,2209,2209,2209,2209,2209,471,728,663,601,2209,402,210,402,
2209,146,2209,2209,2209,2209,2209,471,728,663,601,338,146,338,146,146,
210,2209,2209,2209,2209,2209,471,728,663,601,338,274,210,210,146,274
</chunk>
   <chunk x="32" y="-16" width="16" height="16">
402,274,274,146,338,338,146,402,274,2209,2209,2209,2209,2209,2209,2209,
338,210,274,146,402,274,402,274,274,146,338,338,146,2209,2209,2209,
338,338,338,210,402,338,338,402,274,146,274,274,146,2209,2209,2209,
210,146,0,0,402,402,338,210,210,2209,2209,2209,2209,2209,2209,2209,
274,338,338,210,338,146,338,146,146,338,210,402,210,274,146,338,
2209,2209,0,402,402,146,338,274,146,402,274,2209,2209,2209,2209,2209,
472,472,472,472,472,472,472,472,472,472,472,472,472,472,472,472,
663,600,600,600,600,600,600,600,600,600,600,600,600,600,600,600,
601,338,402,210,274,338,338,338,402,338,210,2209,402,210,338,2209,
2209,338,274,210,338,274,402,338,274,146,402,402,146,338,402,274,
338,338,274,146,338,274,274,274,210,402,402,274,402,338,274,210,
2209,2209,338,146,210,146,338,146,210,146,2209,210,402,146,338,402,
338,210,210,210,402,402,402,274,210,146,274,274,338,338,210,146,
146,274,210,402,338,210,146,338,274,146,338,146,402,338,210,274,
274,274,274,210,338,338,210,402,146,338,146,210,210,274,402,146,
274,274,146,338,210,402,146,210,338,402,274,274,274,338,338,146
</chunk>
   <chunk x="48" y="-16" width="16" height="16">
2209,2209,2209,535,536,537,2209,2209,2209,2209,2209,2209,2209,2209,2209,0,
2209,2209,2209,535,536,537,2209,2209,2209,2209,2209,2209,2209,2209,2209,0,
2209,2209,2209,535,536,537,2209,2209,2209,2209,2209,2209,2209,2209,2209,0,
2209,2209,2209,535,536,537,2209,2209,2209,2209,2209,2209,2209,2209,2209,0,
2209,2209,2209,535,536,537,2209,2209,2209,2209,2209,2209,2209,2209,2209,0,
2209,2209,2209,535,536,537,2209,2209,2209,2209,2209,2209,2209,2209,2209,0,
472,472,472,728,536,537,2209,2209,2209,2209,2209,2209,2209,2209,2209,0,
600,600,600,600,600,601,2209,2209,2209,2209,2209,2209,2209,2209,2209,0,
2209,338,274,274,2209,2209,2209,2209,2209,2209,2209,2209,2209,2209,2209,0,
338,274,2209,146,146,2209,2209,2209,2209,2209,2209,2209,2209,2209,2209,0,
210,210,146,146,146,2209,2209,2209,2209,2209,2209,2209,2209,2209,2209,0,
402,402,210,2209,2209,2209,2209,2209,2209,2209,2209,2209,2209,2209,2209,0,
146,274,274,2209,2209,2209,2209,2209,2209,2209,2209,2209,2209,2209,2209,0,
210,274,402,338,210,2209,2209,2209,2209,2209,2209,2209,2209,2209,2209,0,
402,146,2209,2209,2209,2209,2209,2209,2209,2209,2209,2209,2209,2209,2209,0,
2209,2209,2209,2209,2209,2209,2209,2209,2209,2209,2209,2209,2209,2209,2209,0
</chunk>
   <chunk x="-96" y="0" width="16" height="16">
0,0,0,0,0,0,0,2130,2131,2209,2209,2209,2209,2209,2209,2209,
0,0,0,0,0,0,2130,2131,2209,2209,2209,2209,2209,2209,2209,2209,
0,0,0,0,0,2130,2131,2209,2209,2209,2209,2209,2209,2209,2209,2209,
0,0,0,0,0,2162,2209,2209,2209,2209,2209,2209,2209,2209,2209,2209,
0,0,0,0,0,2162,2209,2209,2209,2209,2209,2209,2209,2209,2209,2209,
0,0,0,0,0,2162,2209,2209,2209,2209,2209,2209,2209,2209,2209,2209,
0,0,0,0,0,2162,2209,2209,2209,2209,2209,2209,2209,2209,2209,2209,
0,0,0,0,0,2162,2209,2209,2209,2209,2209,2209,2209,2209,2209,2209,
0,0,0,0,0,2162,2209,2209,2209,2209,2209,2209,2209,2209,2209,2209,
0,0,0,0,0,2162,2209,2209,2209,2209,2209,2209,2209,2209,2209,2209,
0,0,0,0,0,2162,2209,2209,2209,2209,2209,2209,2209,2209,2209,2209,
0,0,0,0,0,2162,2209,2209,2209,2209,2209,2209,2209,2209,2209,2209,
0,0,0,0,0,2162,2209,2209,2209,2209,2209,2209,2209,2209,2209,2209,
0,0,0,0,0,2162,2209,2209,2209,2209,2209,2209,2209,2209,2209,2209,
0,0,0,0,0,2162,2209,2209,2209,2209,2209,2209,2209,2209,2209,2209,
0,0,0,0,0,2162,2209,2209,2209,2209,2209,2209,2209,2209,2209,2209
</chunk>
   <chunk x="-80" y="0" width="16" height="16">
2209,2209,2209,2209,2209,2209,2209,2209,2209,2209,2209,2209,2209,2209,2209,2209,
2209,2209,2209,2209,2209,2209,2209,2209,2209,2209,2209,2209,2209,2209,2209,2209,
2209,2209,2209,2209,2209,2209,2209,2209,2209,2209,2209,2209,2209,2209,2209,274,
2209,2209,2209,2209,2209,2209,2209,2209,2209,2209,2209,2209,2209,2209,2209,2209,
2209,2209,2209,2209,2209,2209,2209,2209,2209,2209,2209,2209,2209,2209,2209,2209,
2209,2209,2209,2209,2209,2209,2209,2209,2209,2209,2209,2209,2209,2209,2209,2209,
2209,2209,2209,2209,2209,2209,2209,2209,2209,2209,2209,2209,2209,2209,2209,2209,
2209,2209,2209,2209,2209,2209,2209,2209,2209,2209,2209,2209,2209,2209,146,2209,
2209,2209,2209,2209,2209,2209,2209,2209,2209,2209,2209,2209,2209,210,338,210,
2209,2209,2209,2209,2209,2209,2209,2209,2209,2209,2209,2209,0,338,146,274,
2209,2209,2209,2209,2209,2209,2209,2209,2209,2209,2209,2209,0,274,338,274,
2209,2209,2209,2209,2209,2209,2209,2209,2209,2209,2209,2209,0,338,274,274,
2209,2209,2209,2209,2209,2209,2209,2209,2209,2209,2209,2209,146,146,146,338,
2209,2209,2209,2209,2209,2209,2209,2209,2209,2209,146,338,210,338,402,402,
2209,2209,2209,2209,2209,2209,2209,2209,2209,2209,2209,2209,210,274,402,402,
2209,2209,2209,2209,2209,2209,2209,2209,2209,2209,2209,2209,274,402,338,402
</chunk>
   <chunk x="-64" y="0" width="16" height="16">
2209,2209,2209,2209,210,402,274,338,402,402,338,338,2209,2209,2209,2209,
2209,2209,210,274,274,338,274,274,2209,2209,2209,2209,2209,2209,146,210,
210,210,274,146,274,146,338,274,210,274,274,146,210,146,146,338,
2209,210,146,274,146,402,146,146,402,146,402,402,402,210,338,338,
2209,274,338,146,2209,146,146,402,338,146,146,402,402,274,210,274,
2209,146,338,274,402,210,146,402,402,146,146,146,210,338,210,146,
2209,210,402,146,2209,146,402,210,338,210,210,146,210,274,338,146,
402,2209,338,274,274,210,210,338,274,338,274,338,146,274,146,402,
146,146,274,146,402,210,338,274,338,402,210,274,210,210,274,210,
146,146,2374,338,274,146,338,274,274,338,210,210,210,210,402,146,
274,338,338,274,402,210,338,210,338,402,210,146,338,402,338,338,
402,274,274,402,210,274,402,146,274,402,338,210,210,210,210,274,
274,274,210,402,146,402,146,210,402,402,210,274,402,146,146,338,
274,146,274,274,210,210,402,338,274,210,146,146,402,210,274,338,
274,210,402,402,274,402,338,338,210,402,274,338,274,210,338,338,
274,210,402,146,274,338,402,274,274,210,402,274,146,210,402,2209
</chunk>
   <chunk x="-48" y="0" width="16" height="16">
2209,2209,338,210,146,402,402,402,2209,2209,2209,2209,2209,2209,2209,2209,
210,274,146,274,338,2209,2209,2209,2209,2209,2209,2209,2209,2209,2209,2209,
210,274,274,210,338,402,210,274,2209,2209,2209,2209,2209,2209,2209,2209,
274,338,402,402,274,146,146,402,274,2209,2209,2209,2209,2209,2209,2209,
210,338,274,274,338,338,402,402,210,2209,2209,2209,2209,2209,2209,2209,
146,210,338,338,210,274,338,402,146,338,210,146,338,2209,146,210,
402,402,338,146,338,274,402,274,338,274,274,210,402,338,402,210,
402,274,274,338,146,402,146,210,402,338,338,402,146,338,274,210,
338,146,338,210,210,210,338,338,146,402,338,338,402,210,210,274,
146,274,402,338,274,146,210,402,210,210,146,2209,2209,2209,2209,2209,
338,210,274,402,274,210,210,274,402,2209,2209,2209,2209,274,274,146,
146,402,274,210,274,146,338,274,402,2209,2209,2209,2209,274,274,146,
402,146,338,402,338,402,402,146,146,338,402,2209,402,210,210,274,
146,338,274,338,210,146,274,146,210,402,2374,274,2209,2209,2209,2209,
274,210,146,338,210,402,210,274,210,274,210,2209,2209,2209,2209,2209,
2209,2209,2209,2209,210,402,402,274,338,274,210,2209,2209,2209,2209,2209
</chunk>
   <chunk x="-32" y="0" width="16" height="16">
2209,2209,2209,2209,2209,2209,0,0,0,0,0,154,156,0,0,0,
2209,2209,2209,2209,2209,2209,0,0,0,0,0,0,0,0,0,0,
2209,2209,2209,2209,2209,2209,0,0,0,0,0,0,0,0,0,0,
2209,2209,2209,2209,2209,2209,0,0,0,0,0,0,0,0,0,274,
2209,2209,2209,2209,2209,2209,210,338,146,210,146,146,210,210,274,146,
402,146,274,146,210,210,146,274,402,274,210,338,338,210,338,274,
338,338,146,146,338,338,210,338,338,274,274,402,402,402,210,274,
402,338,210,402,146,146,146,274,274,146,210,274,338,146,210,210,
402,210,402,210,274,210,274,274,210,146,274,274,210,146,402,402,
2209,2209,2209,402,210,210,146,274,274,338,146,402,402,402,274,210,
146,146,146,274,402,338,146,146,402,146,402,402,338,146,274,274,
338,274,210,402,210,210,402,146,402,338,210,274,146,274,210,210,
274,146,338,402,338,210,210,210,274,210,274,146,146,146,402,210,
210,210,402,402,2209,402,402,338,338,210,274,274,210,402,274,274,
402,338,210,146,338,146,210,210,274,274,338,338,210,210,338,274,
274,402,210,210,210,338,274,210,274,210,274,210,146,338,274,402
</chunk>
   <chunk x="-16" y="0" width="16" height="16">
2209,2209,2209,2209,2209,2209,2209,2209,2209,2209,2209,2209,2209,402,338,338,
2209,2209,2209,2209,2209,2209,2209,2209,2209,2209,2209,2209,2209,2209,2209,2209,
2209,2209,2209,2209,2209,2209,2209,2209,2209,2209,2209,2209,2209,2209,2209,2209,
146,146,146,210,210,338,210,210,210,402,402,2209,2209,2209,402,210,
338,2209,402,338,338,210,210,210,210,2209,2209,2209,2209,2209,2209,402,
146,210,210,146,338,146,338,274,210,338,402,338,210,210,210,274,
210,402,146,402,338,210,402,210,338,338,402,146,210,210,274,402,
274,338,402,338,338,146,210,338,146,146,146,338,274,210,338,402,
402,146,402,210,274,274,402,210,338,274,146,210,146,338,402,274,
210,274,210,402,210,210,338,402,274,402,210,274,338,146,210,210,
210,274,210,146,210,210,338,146,274,402,274,402,146,146,338,274,
274,210,338,210,210,146,402,402,274,146,274,402,210,338,402,210,
338,402,210,210,210,274,146,146,274,274,210,146,210,146,146,146,
146,210,274,274,338,402,402,146,210,338,210,210,146,402,2209,274,
146,402,274,146,402,338,402,402,146,146,402,2209,2209,338,210,2209,
402,210,402,146,274,402,146,210,274,274,274,338,274,146,274,274
</chunk>
   <chunk x="0" y="0" width="16" height="16">
338,338,2209,2209,274,338,402,210,146,146,146,146,274,402,338,146,
2209,274,338,338,210,402,274,146,210,274,402,210,402,146,2209,2209,
210,402,338,146,274,274,146,274,274,274,338,402,338,2209,2209,2209,
210,146,402,402,210,146,274,402,146,274,274,338,210,2209,2209,2209,
402,210,274,210,338,210,402,274,146,338,146,146,402,274,146,402,
146,402,402,210,210,274,338,402,402,402,146,274,338,274,338,146,
146,338,210,210,402,274,210,210,274,210,402,146,274,146,274,471,
338,274,274,338,210,146,402,338,274,210,146,146,2209,2209,471,728,
274,210,210,338,274,210,402,210,146,146,210,402,146,471,728,663,
146,146,210,402,338,146,274,338,210,338,210,274,471,728,663,601,
210,146,402,402,402,338,146,402,402,338,210,210,535,663,601,402,
274,338,338,146,210,402,146,402,338,274,274,146,535,537,2209,2209,
274,210,402,402,146,146,2209,2209,2209,2209,2209,2209,535,537,2209,2209,
146,2209,2209,2209,2209,2209,2209,2209,2209,2209,2209,2209,535,537,2209,2209,
2209,2209,2209,2209,2209,2209,2209,2209,2209,2209,2209,2209,535,537,338,210,
2209,2209,2209,2209,2209,2209,2209,2209,2209,2209,402,210,535,537,274,146
</chunk>
   <chunk x="16" y="0" width="16" height="16">
2209,2209,274,210,402,471,728,663,601,274,146,402,338,210,146,210,
2209,2209,2209,2209,471,728,663,601,338,146,402,146,338,146,146,274,
2209,2209,2209,471,728,663,601,2209,2209,2209,2209,338,338,210,402,338,
2209,2209,471,728,663,601,2209,146,210,210,210,210,210,402,210,338,
210,471,728,663,601,402,210,274,2209,2209,210,274,210,338,274,210,
471,728,663,601,146,2209,2209,2209,2209,2209,146,146,274,402,274,402,
728,663,601,146,338,338,146,274,402,146,210,338,146,338,402,402,
663,601,210,338,338,210,2209,146,210,338,338,402,210,210,146,274,
601,338,210,274,274,274,210,338,402,338,210,338,338,338,402,338,
2209,2209,274,210,146,274,146,402,210,338,210,146,274,402,402,146,
146,146,402,274,338,210,210,210,402,338,210,338,210,210,274,402,
2209,2209,2209,2209,2209,402,210,274,274,146,402,210,338,402,274,274,
2209,2209,2209,2209,2209,210,338,210,402,210,210,210,402,338,402,338,
402,274,274,402,146,210,274,29,30,413,413,413,31,274,338,402,
146,338,274,402,210,274,29,286,404,276,340,404,285,30,413,30,
338,338,210,402,210,29,286,148,276,340,148,212,148,94,212,276
</chunk>
   <chunk x="32" y="0" width="16" height="16">
402,274,338,146,402,146,402,210,338,338,146,402,402,402,338,2209,
146,146,146,210,146,274,274,210,402,274,402,338,402,146,338,146,
146,402,146,338,146,338,338,402,210,210,274,402,210,210,146,146,
274,402,146,210,402,338,210,210,402,402,274,338,402,338,2209,2209,
274,146,338,274,402,274,274,210,146,146,210,338,210,210,2209,2209,
210,274,402,146,402,146,274,210,338,402,210,210,2209,2209,2209,2209,
210,402,146,146,210,274,146,210,402,146,146,402,210,210,210,338,
402,210,146,146,338,338,338,402,274,338,210,274,146,146,210,274,
146,338,210,210,338,146,274,146,338,338,210,402,274,210,402,274,
146,274,274,210,146,338,274,338,146,338,274,338,338,2209,2209,2209,
338,146,274,338,402,402,274,402,338,274,274,402,402,2209,2209,2209,
210,146,402,146,210,146,210,274,210,402,210,210,210,402,274,2209,
210,402,146,146,338,338,146,338,274,274,146,274,2209,2209,2209,2209,
338,338,274,210,338,274,210,402,402,210,274,274,146,146,146,274,
30,30,413,30,30,413,30,413,30,30,30,30,413,30,30,413,
340,148,276,404,148,212,276,340,404,148,212,276,340,94,94,94
</chunk>
   <chunk x="48" y="0" width="16" height="16">
2209,338,210,402,2209,2209,2209,2209,2209,2209,2209,2209,2209,2209,2209,0,
338,402,210,2209,2209,2209,2209,2209,2209,2209,2209,2209,2209,2209,2209,0,
2209,2209,2209,2209,2209,2209,2209,2209,2209,2209,2209,2209,2209,2209,2209,0,
2209,2209,2209,2209,2209,2209,2209,2209,2209,2209,2209,2209,2209,2209,2209,0,
2209,2209,2209,2209,2209,2209,2209,2209,2209,2209,2209,2209,2209,2209,338,210,
2209,2209,2209,2209,2209,2209,2209,2209,210,402,338,274,274,210,146,274,
2209,2209,2209,274,146,274,274,402,338,274,338,274,338,210,338,338,
274,2209,274,146,274,210,0,338,210,402,338,146,402,274,338,274,
2209,274,274,210,402,146,274,146,402,338,274,338,210,210,210,402,
2209,2209,2209,2209,2209,2209,274,402,146,146,146,274,210,402,338,210,
2209,2209,2209,2209,2209,2209,274,338,210,210,210,338,274,146,338,146,
2209,2209,2209,2209,146,210,338,274,146,338,210,338,210,274,210,210,
2209,2209,2209,274,210,402,274,402,402,402,146,210,402,210,338,146,
274,146,146,146,338,402,338,274,146,338,338,146,210,146,338,402,
30,30,30,413,30,413,30,413,30,30,402,274,402,210,338,338,
94,94,94,94,94,94,94,94,94,94,146,402,210,338,338,146
</chunk>
   <chunk x="64" y="0" width="16" height="16">
0,0,0,0,0,0,0,0,0,0,0,0,0,0,0,0,
0,0,0,0,0,0,0,0,0,0,0,0,0,0,0,0,
0,0,0,0,0,0,0,0,0,0,0,0,0,0,0,0,
0,0,0,0,0,0,0,0,0,0,0,0,0,0,0,0,
338,338,146,338,0,0,0,0,0,0,0,0,0,0,0,0,
146,402,274,210,210,0,0,0,0,0,0,0,0,0,0,0,
274,146,274,210,402,402,338,146,0,0,0,0,0,0,0,0,
210,402,146,338,274,210,146,402,0,0,0,0,0,0,0,0,
146,338,210,338,210,210,146,210,274,402,0,0,0,0,0,0,
338,402,146,210,402,210,402,402,0,0,0,0,0,0,0,0,
338,274,402,0,0,0,0,0,0,0,0,0,0,0,0,0,
274,210,210,402,146,274,0,0,0,0,0,0,0,0,0,0,
402,338,402,338,338,274,0,0,0,0,0,0,0,0,0,0,
146,402,274,274,146,274,338,146,402,210,0,0,0,0,0,0,
274,402,210,402,338,338,402,402,402,146,0,0,0,0,0,0,
274,338,338,402,274,210,402,0,0,0,0,0,0,0,0,0
</chunk>
   <chunk x="-96" y="16" width="16" height="16">
0,0,0,0,0,2162,2209,2209,2209,2209,2209,2209,2209,2209,2209,2209,
0,0,0,0,0,2162,2209,2209,2209,2209,2209,2209,2209,2209,2209,2209,
0,0,0,0,0,2162,2209,2209,2209,2209,2209,2209,2209,2209,2209,2209,
0,0,0,0,0,2162,2209,2209,2209,2209,2209,2209,2209,2209,2209,2209,
0,0,0,0,0,2162,2209,2209,2209,2209,2209,2209,2209,2209,2209,2209,
0,0,0,0,0,2162,2209,2209,2209,2209,2209,2209,2209,2209,2209,2209,
0,0,0,0,0,2162,2209,2209,2209,2209,2209,2209,2209,2209,2209,2209,
0,0,0,0,0,2162,2209,2209,2209,2209,2209,2209,2209,2209,2209,2209,
0,0,0,0,0,2162,2209,2209,2209,2209,2209,2209,2209,2209,2209,2209,
0,0,0,0,0,2162,2209,2209,2209,2209,2209,2209,2209,2209,2209,2209,
0,0,0,0,0,2162,2209,2209,2209,2209,2209,2209,2209,2209,2209,2209,
0,0,0,0,0,2162,2209,2209,2209,2209,2209,2209,2209,2209,2209,2209,
0,0,0,0,0,2162,2209,2209,2209,2209,2209,2209,2209,2209,2209,2209,
0,0,0,0,0,2162,2209,2209,2209,2209,2209,2209,2209,2209,2209,2209,
0,0,0,0,0,2162,2209,2209,2209,2209,2209,2209,2209,2209,2209,2209,
0,0,0,0,0,2162,2209,2209,2209,2209,2209,2209,2209,2209,2209,2209
</chunk>
   <chunk x="-80" y="16" width="16" height="16">
2209,2209,2209,2209,2209,2209,2209,2209,2209,2209,2209,2209,146,0,338,0,
2209,2209,2209,2209,2209,2209,2209,2209,2209,2209,2209,2209,146,0,0,274,
2209,2209,2209,2209,2209,2209,2209,2209,2209,2209,2209,210,146,146,402,402,
2209,2209,2209,2209,2209,2209,2209,2209,2209,2209,2209,2209,0,210,338,146,
2209,2209,2209,2209,2209,2209,2209,2209,2209,2209,2209,274,402,274,338,402,
2209,2209,2209,2209,2209,2209,2209,2209,2209,2209,2209,2209,402,338,402,146,
2209,2209,2209,2209,2209,2209,2209,2209,2209,2209,338,338,338,210,274,274,
2209,2209,2209,2209,2209,2209,2209,2209,2209,2209,2209,2209,146,402,402,146,
2209,2209,2209,2209,2209,2209,2209,2209,2209,2209,2209,210,274,0,0,210,
2209,2209,2209,2209,2209,2209,2209,2209,2209,2209,2209,2209,210,338,274,402,
2209,2209,2209,2209,2209,2209,2209,2209,2209,2209,2209,338,210,274,146,338,
2209,2209,2209,2209,2209,2209,2209,2209,2209,402,274,338,210,146,402,210,
2209,2209,2209,2209,2209,2209,2209,2209,2209,210,274,402,338,402,402,402,
2209,2209,0,0,0,0,0,0,338,402,210,146,210,338,338,402,
2209,2209,0,0,0,0,0,210,274,146,146,402,402,402,338,210,
2209,2209,0,0,0,274,402,274,274,210,274,338,210,402,146,23
</chunk>
   <chunk x="-64" y="16" width="16" height="16">
210,146,274,146,23,25,338,210,274,402,274,210,402,210,274,210,
146,23,25,23,280,343,210,274,274,146,274,2209,2209,2209,2209,2209,
338,151,281,280,275,89,210,210,146,338,338,338,338,402,210,2209,
402,402,87,211,215,153,338,146,402,146,402,274,146,146,210,2209,
23,24,280,35,979,274,338,146,402,338,338,2209,2209,2209,2209,2209,
344,147,339,99,95,274,274,338,210,210,210,338,146,2209,402,338,
87,211,403,99,285,30,31,402,146,338,210,402,2209,2209,2209,2209,
344,275,147,163,228,94,95,274,402,146,402,146,402,146,402,402,
151,152,216,215,788,222,349,210,210,146,146,146,2209,2209,2209,2209,
274,146,344,89,274,157,159,274,210,210,210,2209,2209,2209,2209,2209,
210,23,280,343,338,210,402,210,274,402,210,210,274,146,146,210,
274,344,215,153,402,402,338,274,274,146,402,146,2209,2209,2209,2209,
338,87,279,25,210,274,146,338,146,274,210,2209,2209,2209,2209,2209,
23,280,147,279,25,402,274,338,338,274,338,274,210,2209,2209,2209,
344,275,211,403,89,146,146,402,146,338,210,402,2209,2209,146,274,
280,339,275,215,153,210,274,274,402,210,2209,2209,146,210,338,402
</chunk>
   <chunk x="-48" y="16" width="16" height="16">
274,210,210,338,338,274,402,338,146,146,210,2209,2209,2209,2209,2209,
2209,210,210,274,146,274,210,146,274,338,210,2209,2209,2209,2209,2209,
2209,2209,2209,2209,338,146,146,146,402,210,402,146,274,146,146,402,
402,402,338,402,274,146,338,210,338,274,338,146,146,146,338,338,
2209,2209,210,338,210,146,338,2374,210,402,274,274,2209,2209,2209,2209,
274,210,146,274,146,274,274,402,210,338,274,146,274,338,338,210,
146,146,338,146,402,210,274,146,210,338,402,338,338,146,402,274,
402,210,210,338,402,338,402,146,146,274,338,338,338,2209,402,274,
2209,2209,2209,2209,2209,274,274,338,274,274,210,402,338,146,338,210,
2209,274,146,210,274,338,274,210,146,146,338,338,338,146,146,338,
2209,274,2209,2209,146,210,210,274,146,402,210,338,338,146,338,210,
2209,2209,402,402,402,146,402,146,146,402,210,210,338,274,146,146,
2209,146,210,274,338,338,402,402,210,338,402,210,274,146,402,402,
2209,338,338,402,146,402,146,210,146,338,338,146,338,210,338,402,
146,338,210,338,210,402,146,402,146,146,210,146,338,2209,2209,2209,
210,402,274,2209,2209,402,146,402,274,338,338,210,402,210,402,274
</chunk>
   <chunk x="-32" y="16" width="16" height="16">
2209,2209,2209,338,146,402,146,402,402,210,402,210,471,473,402,471,
2209,2209,2209,2209,274,210,146,402,210,274,146,471,728,727,472,728,
146,2209,2209,2209,146,338,274,338,210,274,274,535,536,536,536,536,
274,0,0,0,0,0,402,146,210,402,338,535,536,536,663,600,
2209,2209,2209,2209,2209,2209,2209,2209,2209,210,471,728,536,663,601,146,
402,274,402,338,402,2209,2162,2209,2209,2209,728,536,536,537,402,338,
146,210,402,210,338,471,2459,2209,2209,2209,536,536,536,727,473,2209,
146,2209,2209,2209,471,728,2491,2209,2209,2209,341,277,149,213,727,473,
2209,2209,146,210,535,405,341,277,213,405,149,149,341,405,405,537,
210,146,146,210,599,600,600,664,277,341,405,213,405,149,341,537,
402,338,146,274,274,402,402,599,664,213,277,149,341,213,277,537,
274,274,402,338,210,210,2209,2209,599,664,341,405,663,600,600,601,
146,402,2209,2209,2209,2209,2209,2209,2209,599,664,663,601,2209,2209,2209,
2209,2209,2209,2209,2209,2209,2209,2209,338,146,535,537,402,402,402,402,
2209,274,29,413,31,210,402,146,338,402,535,537,338,210,402,338,
338,274,93,94,285,30,31,402,274,210,535,537,274,274,402,210
</chunk>
   <chunk x="-16" y="16" width="16" height="16">
472,472,472,472,472,472,472,472,472,472,472,472,472,472,472,472,
536,663,600,600,600,600,600,600,600,600,600,600,600,600,600,600,
663,601,402,146,210,29,30,31,146,402,338,402,338,2209,2209,2209,
601,146,338,146,402,93,94,285,31,274,402,146,210,274,402,146,
210,338,402,274,146,93,404,285,285,31,338,338,338,274,146,338,
338,402,146,274,402,157,222,276,340,285,31,146,402,274,146,146,
274,338,210,402,274,274,157,222,148,212,285,31,274,210,274,402,
210,274,274,338,210,402,338,157,222,340,404,285,31,146,146,274,
146,338,146,338,274,210,274,274,157,222,276,94,285,31,338,274,
210,338,274,274,338,274,402,338,146,157,222,148,212,95,210,29,
402,402,210,338,210,146,210,146,338,402,93,340,404,95,29,286,
2209,402,402,210,338,274,210,210,402,402,350,148,94,285,286,212,
2209,2209,2209,2209,2209,146,338,402,274,402,93,340,94,148,212,276,
402,146,402,338,146,274,338,338,210,29,286,94,148,212,276,221,
146,2209,2209,210,146,146,338,210,29,286,276,340,94,94,221,159,
274,402,338,402,274,338,338,29,286,212,276,94,221,158,159,274
</chunk>
   <chunk x="0" y="16" width="16" height="16">
472,472,472,472,472,472,472,472,472,472,472,472,728,537,2209,2209,
600,600,600,600,600,600,600,600,600,600,600,600,600,601,274,338,
2209,338,274,210,402,146,402,402,274,210,210,210,210,338,210,146,
338,274,2209,2209,210,338,338,402,338,402,338,2209,338,402,338,274,
338,338,274,274,274,274,210,402,338,146,274,146,274,210,210,402,
274,146,402,338,338,338,274,402,402,210,274,210,338,274,210,210,
338,402,146,338,274,274,402,274,402,146,274,274,274,274,338,210,
402,338,274,274,274,338,402,146,338,274,402,402,146,210,146,210,
146,274,210,274,338,210,146,338,338,274,274,274,274,402,338,402,
30,30,413,30,413,413,413,30,30,30,413,30,413,413,413,30,
148,212,276,340,404,148,212,276,340,404,148,276,212,340,404,148,
276,221,158,414,158,414,158,414,158,414,158,414,158,414,158,414,
221,159,402,402,338,210,402,338,210,402,274,146,146,338,338,146,
159,338,274,274,274,402,338,146,146,274,274,210,402,338,146,146,
210,274,338,146,402,338,210,146,146,146,210,146,402,402,274,146,
210,274,338,274,274,146,146,402,274,338,2209,2209,2209,2209,2209,2209
</chunk>
   <chunk x="16" y="16" width="16" height="16">
338,146,338,274,29,286,404,148,212,276,340,94,221,158,158,158,
338,210,274,338,93,212,276,340,94,221,414,158,159,210,402,210,
402,338,146,338,350,94,148,221,158,159,274,274,274,402,402,338,
338,146,338,338,93,340,404,95,274,146,274,274,402,210,146,146,
402,402,338,338,350,212,276,349,402,338,402,338,146,274,338,402,
338,146,146,274,93,94,148,95,338,146,274,274,402,274,210,402,
146,338,146,29,286,340,404,349,146,146,402,274,2209,2209,2209,338,
146,338,29,286,148,212,276,95,146,210,210,402,338,338,274,146,
338,29,286,276,340,94,221,159,402,338,274,210,274,146,146,210,
30,286,404,148,212,221,159,402,274,146,338,146,146,210,2209,2209,
212,276,340,94,221,159,338,402,146,274,338,402,210,338,2209,2209,
158,414,158,414,159,210,338,274,210,146,0,2209,2209,2209,2209,2209,
146,274,402,274,274,210,338,274,338,274,146,2209,2209,2209,2209,2209,
210,210,146,402,146,2209,2209,2209,2209,2209,2209,2209,2209,2209,2209,2209,
210,402,402,210,338,338,146,210,146,146,274,338,2209,2209,2209,2209,
2209,402,210,274,338,274,146,402,210,402,2209,2209,2209,2209,2209,2209
</chunk>
   <chunk x="32" y="16" width="16" height="16">
414,158,158,158,158,158,414,414,414,414,414,158,158,158,158,158,
274,146,146,274,402,402,146,274,210,274,274,402,402,210,402,274,
402,338,338,338,402,402,402,146,146,0,2209,2209,2209,2209,2209,2209,
146,146,274,338,338,402,402,210,402,0,2209,210,146,274,146,146,
338,274,146,338,402,338,338,210,274,338,146,338,338,402,2209,2209,
146,146,402,338,402,338,274,146,274,402,402,210,274,2209,2209,2209,
338,338,402,338,146,274,274,146,146,402,146,338,274,210,338,2209,
338,274,274,402,2209,2209,2209,2209,2209,2209,2209,2209,2209,2209,2209,2209,
2209,2209,2209,2209,2209,2209,2209,2209,2209,2209,2209,2209,2209,2209,2209,2209,
2209,2209,2209,2209,2209,2209,2209,2209,2209,2209,2209,2209,2209,2209,2209,2209,
2209,2209,2209,2209,2209,2209,2209,2209,2209,2209,2209,2209,2209,2209,2209,2209,
2209,2209,2209,2209,2209,2209,2209,2209,2209,2209,2209,2209,2209,2209,2209,2209,
2209,2209,2209,2209,2209,2209,2209,2209,2209,2209,2209,2209,2209,2209,2209,2209,
2209,2209,2209,2209,2209,2209,2209,2209,2209,2209,2209,2209,2209,2209,2209,2209,
2209,2209,2209,2209,2209,2209,2209,2209,2209,2209,2209,2209,2209,2209,2209,2209,
2209,2209,2209,2209,2209,2209,2209,2209,2209,2209,2209,2209,2209,2209,2209,2209
</chunk>
   <chunk x="48" y="16" width="16" height="16">
158,158,158,158,158,158,158,158,158,158,338,210,274,402,210,0,
338,338,274,402,146,146,210,402,338,274,274,402,338,146,274,146,
338,274,2209,2209,2209,274,402,402,274,274,402,402,274,210,402,338,
2209,2209,2209,2209,210,274,146,338,2209,2209,2209,2209,2209,2209,2209,0,
2209,2209,2209,2209,2209,2209,2209,2209,2209,2209,2209,2209,2209,2209,2209,0,
2209,2209,2209,2209,2209,2209,2209,2209,2209,2209,2209,2209,2209,2209,2209,0,
2209,2209,2209,2209,2209,2209,2209,2209,2209,2209,2209,2209,2209,2209,2209,0,
2209,2209,2209,2209,2209,2209,2209,2209,2209,2209,2209,2209,2209,2209,2209,0,
2209,2209,2209,2209,2209,2209,2209,2209,2209,2209,2209,2209,2209,2209,2209,0,
2209,2209,2209,2209,2209,2209,2209,2209,2209,2209,2209,2209,2209,2209,2209,0,
2209,2209,2209,2209,2209,2209,2209,2209,2209,2209,2209,2209,2209,2209,2209,0,
2209,2209,2209,2209,2209,2209,2209,2209,2209,2209,2209,2209,2209,2209,2209,0,
2209,2209,2209,2209,2209,2209,2209,2209,2209,2209,2209,2209,2209,2209,2209,0,
2209,2209,2209,2209,2209,2209,2209,2209,2209,2209,2209,2209,2209,2209,2209,0,
2209,2209,2209,2209,2209,2209,2209,2209,2209,2209,2209,2209,2209,2209,2209,0,
2209,2209,2209,2209,2209,2209,2209,2209,2209,2209,2209,2209,2209,2209,2209,0
</chunk>
   <chunk x="64" y="16" width="16" height="16">
0,0,0,0,0,0,0,0,0,0,0,0,0,0,0,0,
338,402,402,338,210,402,338,146,146,0,0,0,0,0,0,0,
338,0,0,0,0,0,0,0,0,0,0,0,0,0,0,0,
0,0,0,0,0,0,0,0,0,0,0,0,0,0,0,0,
0,0,0,0,0,0,0,0,0,0,0,0,0,0,0,0,
0,0,0,0,0,0,0,0,0,0,0,0,0,0,0,0,
0,0,0,0,0,0,0,0,0,0,0,0,0,0,0,0,
0,0,0,0,0,0,0,0,0,0,0,0,0,0,0,0,
0,0,0,0,0,0,0,0,0,0,0,0,0,0,0,0,
0,0,0,0,0,0,0,0,0,0,0,0,0,0,0,0,
0,0,0,0,0,0,0,0,0,0,0,0,0,0,0,0,
0,0,0,0,0,0,0,0,0,0,0,0,0,0,0,0,
0,0,0,0,0,0,0,0,0,0,0,0,0,0,0,0,
0,0,0,0,0,0,0,0,0,0,0,0,0,0,0,0,
0,0,0,0,0,0,0,0,0,0,0,0,0,0,0,0,
0,0,0,0,0,0,0,0,0,0,0,0,0,0,0,0
</chunk>
   <chunk x="-96" y="32" width="16" height="16">
0,0,0,0,0,2162,2209,2209,2209,2209,2209,2209,2209,2209,2209,2209,
0,0,0,0,0,2162,2209,2209,2209,2209,2209,2209,2209,2209,2209,2209,
0,0,0,0,0,2162,2209,2209,2209,2209,2209,2209,2209,2209,2209,2209,
0,0,0,0,0,2162,2209,2209,2209,2209,2209,2209,2209,2209,2209,2209,
0,0,0,0,0,2162,2209,2209,2209,2209,2209,2209,2209,2209,2209,2209,
0,0,0,0,0,2162,2209,2209,2209,2209,2209,2209,2209,2209,2209,2209,
0,0,0,0,0,2162,2209,2209,2209,2209,2209,2209,2209,2209,2209,2209,
0,0,0,0,0,2162,2209,2209,2209,2209,2209,2209,2209,2209,2209,2209,
0,0,0,0,0,2162,2209,2209,2209,2209,2209,2209,2209,2209,2209,2209,
0,0,0,0,0,2162,2209,2209,2209,2209,2209,2209,2209,2209,2209,2209,
0,0,0,0,0,2162,2209,2209,2209,2209,2209,2209,2209,2209,2209,2209,
0,0,0,0,0,2162,2209,2209,2209,2209,2209,2209,2209,2209,2209,2209,
0,0,0,0,0,2162,2209,2209,2209,2209,2209,2209,2209,2209,2209,2209,
0,0,0,0,0,2162,2209,2209,2209,2209,2209,2209,2209,2209,2209,2209,
0,0,0,0,0,2162,2209,2209,2209,2209,2209,2209,2209,2209,2209,2209,
0,0,0,0,0,2162,2209,2209,2209,2209,2209,2209,2209,2209,2209,2209
</chunk>
   <chunk x="-80" y="32" width="16" height="16">
2209,2209,0,0,402,402,338,23,407,24,24,25,402,338,338,87,
2209,2209,2209,2209,338,274,0,87,32,416,34,279,24,25,210,344,
2209,2209,2209,2209,2209,0,23,280,96,145,288,34,147,279,24,280,
2209,2209,2209,2209,2209,338,344,32,289,337,401,352,211,339,275,211,
2209,2209,2209,2209,2209,146,87,96,209,273,224,162,275,403,339,275,
2209,2209,2209,2209,2209,402,344,353,209,145,98,339,403,147,403,215,
2209,2209,2209,2209,2209,0,87,96,337,273,288,34,147,211,147,89,
2209,2209,2209,2209,2209,0,344,160,161,225,401,352,211,215,152,153,
2209,2209,2209,2209,2209,0,87,275,339,160,417,162,275,89,402,402,
2209,2209,2209,2209,2209,0,151,152,152,216,403,147,215,153,146,402,
2209,2209,2209,2209,2209,0,402,274,402,151,152,408,153,402,274,402,
2209,2209,2209,2209,2209,0,0,0,274,338,338,274,210,338,146,402,
2209,2209,2209,2209,2209,402,338,274,146,402,274,146,210,146,210,210,
2209,2209,2209,2209,2209,0,0,274,146,146,402,210,210,210,210,402,
2209,2209,2209,2209,2209,0,0,146,146,402,210,210,210,402,146,274,
2209,2209,2209,2209,2209,0,274,146,338,402,402,402,274,274,146,146
</chunk>
   <chunk x="-64" y="32" width="16" height="16">
339,403,339,89,402,210,210,402,338,274,402,274,402,338,402,402,
403,215,152,153,210,274,338,210,2374,274,274,210,402,2209,2209,2209,
147,89,402,274,146,146,338,274,146,338,146,338,146,2209,2209,2209,
211,343,146,338,338,402,146,402,210,338,274,2209,146,210,210,402,
215,153,402,338,338,338,274,0,274,402,210,2209,2209,2209,338,146,
153,210,146,274,210,210,274,338,402,402,146,274,274,2209,274,146,
210,338,338,402,274,210,402,210,274,338,338,274,210,210,338,210,
402,338,338,402,402,338,402,2209,2209,2209,146,274,274,338,274,274,
338,146,146,402,2209,2209,2209,2209,2209,2209,2209,2209,2209,2209,2209,338,
338,274,0,2209,2209,2209,2209,2209,2209,2209,2209,2209,2209,146,402,2209,
402,338,274,2209,2209,2209,2209,2209,2209,2209,2209,402,210,274,2209,2209,
274,274,274,2209,2209,2209,2209,2209,2209,2209,210,274,146,210,146,402,
402,274,402,274,2209,2209,2209,2209,2209,2209,2209,2209,2209,2209,2209,2209,
274,274,402,402,338,2209,2209,2209,2209,2209,2209,2209,2209,146,402,402,
146,274,146,274,210,2209,2209,2209,2209,2209,2209,210,274,2209,2209,2209,
23,25,274,210,274,2209,210,146,274,274,146,338,146,402,210,210
</chunk>
   <chunk x="-48" y="32" width="16" height="16">
210,274,210,274,338,146,146,338,146,210,210,338,338,274,274,210,
2209,2209,146,338,338,274,402,338,274,146,338,274,338,274,146,338,
402,210,338,338,402,338,210,338,274,146,274,338,402,402,210,338,
338,274,210,402,402,402,146,210,402,402,274,146,210,210,402,338,
402,274,402,338,146,338,274,338,2372,2371,2372,2373,146,402,210,402,
146,338,338,210,274,146,402,338,2371,2372,2371,2372,2373,338,210,274,
146,146,402,338,338,146,338,210,274,2371,2372,2371,2372,2373,146,210,
146,274,274,338,146,210,210,146,146,146,2371,2372,2371,471,472,472,
210,402,146,146,210,210,402,210,471,472,472,472,472,728,277,277,
2209,210,210,274,338,274,338,471,728,213,277,277,341,405,663,600,
2209,210,210,146,274,338,338,535,663,600,600,600,600,600,601,338,
338,146,210,402,338,146,338,535,537,338,274,146,338,338,274,402,
2209,338,402,274,210,146,146,535,537,146,402,402,210,274,338,338,
402,2209,2209,2209,2209,146,471,728,537,146,210,210,146,146,338,402,
146,402,274,274,338,471,728,663,601,210,402,338,274,210,402,402,
402,210,210,274,471,728,405,537,146,274,338,146,210,338,210,402
</chunk>
   <chunk x="-32" y="32" width="16" height="16">
210,146,157,222,94,212,285,31,402,338,535,537,146,402,146,402,
402,274,274,157,222,94,404,285,31,402,535,537,338,338,274,146,
402,146,146,402,157,158,414,158,159,274,535,537,274,274,402,274,
146,402,210,338,146,210,402,146,146,471,728,537,146,274,338,146,
274,146,338,210,274,338,402,338,146,535,213,537,338,274,274,210,
210,402,338,2209,2209,471,472,472,472,728,277,537,274,210,210,402,
274,210,471,472,472,728,277,277,277,213,663,601,146,146,146,338,
472,472,728,277,663,600,600,600,600,600,601,146,210,402,338,338,
213,405,341,277,537,2209,210,402,402,274,402,338,274,402,210,402,
600,600,600,600,601,210,338,402,338,146,210,210,210,146,146,146,
146,338,146,338,146,210,210,210,402,402,338,338,274,146,146,146,
274,146,146,146,338,402,146,402,402,210,146,274,402,338,338,402,
274,210,2209,402,338,210,338,274,338,338,338,402,146,274,146,338,
338,274,210,146,274,210,338,274,338,402,210,210,146,338,210,210,
210,338,402,274,210,146,338,402,338,274,146,210,274,338,274,146,
146,338,274,274,338,274,402,146,274,338,210,338,210,338,210,146
</chunk>
   <chunk x="-16" y="32" width="16" height="16">
210,338,338,210,402,274,29,286,340,148,94,221,159,402,146,146,
210,338,274,146,402,146,93,212,276,94,221,159,210,146,210,274,
146,402,402,210,338,29,286,94,221,158,159,210,146,402,338,338,
338,402,402,146,338,157,158,414,159,338,274,274,274,338,274,402,
274,146,210,210,402,146,338,402,274,338,402,274,274,338,338,338,
146,210,338,210,402,402,146,146,402,210,274,146,146,146,210,210,
274,402,210,338,146,402,274,210,210,338,402,274,402,402,210,402,
338,402,274,210,402,274,338,146,338,402,402,210,402,210,210,210,
210,210,210,210,402,146,210,210,146,210,338,210,146,402,338,146,
210,402,402,210,210,210,274,274,210,210,338,402,338,338,146,210,
274,274,274,402,146,338,338,402,402,210,210,274,274,274,402,338,
274,338,402,274,146,210,338,146,210,274,146,210,210,402,402,274,
274,146,274,402,146,210,210,146,146,274,210,338,274,274,274,210,
210,274,146,146,402,402,146,274,210,274,338,338,210,274,338,210,
338,210,210,402,402,146,146,210,274,210,274,210,402,2209,2209,2209,
210,338,338,402,402,146,146,402,338,402,402,210,210,402,402,338
</chunk>
   <chunk x="0" y="32" width="16" height="16">
338,146,274,210,146,338,274,210,338,146,402,210,402,338,146,146,
338,146,274,210,338,146,402,402,146,146,210,338,210,338,2209,2209,
146,274,146,402,210,274,402,146,210,146,146,338,338,146,146,402,
210,338,402,274,210,338,402,146,2209,210,146,402,146,210,146,338,
274,338,210,402,210,338,402,274,338,338,338,146,338,274,274,210,
210,210,274,274,210,146,274,338,338,146,402,274,274,402,210,274,
338,338,146,338,210,210,338,402,274,210,338,210,2209,2209,2209,2209,
402,274,402,274,402,146,274,146,146,210,146,274,274,402,338,402,
210,402,146,146,402,274,402,402,274,210,146,2209,2209,2209,2209,274,
338,274,274,210,210,338,210,402,2209,2209,2209,146,210,210,274,2209,
210,338,146,210,146,338,210,274,210,210,274,2209,2209,2209,2209,2209,
402,210,274,2209,338,338,274,2209,2209,2209,2209,2209,2209,2209,2209,2209,
146,210,402,338,338,2209,2209,2209,2209,2209,2209,2209,2209,2209,2209,2209,
402,338,338,274,338,338,210,2209,2209,2209,2209,2209,2209,2209,2209,2209,
2209,146,146,146,338,274,338,2209,2209,2209,2209,2209,2209,2209,2209,2209,
274,402,338,210,402,2209,2209,2209,2209,2209,2209,2209,2209,2209,2209,2209
</chunk>
   <chunk x="16" y="32" width="16" height="16">
210,2209,2209,2209,2209,2209,2209,2209,2209,2209,2209,2209,2209,2209,2209,2209,
2209,2209,2209,2209,2209,2209,2209,2209,2209,2209,2209,2209,2209,2209,2209,2209,
2209,2209,2209,2209,2209,2209,2209,2209,2209,2209,2209,2209,2209,2209,2209,2209,
338,274,146,210,146,146,274,402,274,2209,2209,2209,2209,2209,2209,2209,
2209,2209,2209,210,146,210,274,402,402,402,338,2209,2209,2209,2209,2209,
146,274,146,2209,2209,2209,2209,2209,2209,2209,2209,2209,2209,2209,2209,2209,
2209,2209,2209,2209,2209,2209,2209,2209,2209,2209,2209,2209,2209,2209,2209,2209,
274,210,146,338,274,274,210,402,2209,2209,2209,2209,2209,2209,2209,2209,
146,210,402,274,146,274,274,2209,2209,2209,2209,2209,2209,2209,2209,2209,
2209,2209,2209,2209,2209,2209,2209,2209,2209,2209,2209,2209,2209,2209,2209,2209,
2209,2209,2209,2209,2209,2209,2209,2209,2209,2209,2209,2209,2209,2209,2209,2209,
2209,2209,2209,2209,2209,2209,2209,2209,2209,2209,2209,2209,2209,2209,2209,2209,
2209,2209,2209,2209,2209,2209,2209,2209,2209,2209,2209,2209,2209,2209,2209,2209,
2209,2209,2209,2209,2209,2209,2209,2209,2209,2209,2209,2209,2209,2209,2209,2209,
2209,2209,2209,2209,2209,2209,2209,2209,2209,2209,2209,2209,2209,2209,2209,2209,
2209,2209,2209,2209,2209,2209,2209,2209,2209,2209,2209,2209,2209,2209,2209,2209
</chunk>
   <chunk x="32" y="32" width="16" height="16">
2209,2209,2209,2209,2209,2209,2209,2209,2209,2209,2209,2209,2209,2209,2209,2209,
2209,2209,2209,2209,2209,2209,2209,2209,2209,2209,2209,2209,2209,2209,2209,2209,
2209,2209,2209,2209,2209,2209,2209,2209,2209,2209,2209,2209,2209,2209,2209,2209,
2209,2209,2209,2209,2209,2209,2209,2209,2209,2209,2209,2209,2209,2209,2209,2209,
2209,2209,2209,2209,2209,2209,2209,2209,2209,2209,2209,2209,2209,2209,2209,2209,
2209,2209,2209,2209,2209,2209,2209,2209,2209,2209,2209,2209,2209,2209,2209,2209,
2209,2209,2209,2209,2209,2209,2209,2209,2209,2209,2209,2209,2209,2209,2209,2209,
2209,2209,2209,2209,2209,2209,2209,2209,2209,2209,2209,2209,2209,2209,2209,2209,
2209,2209,2209,2209,2209,2209,2209,2209,2209,2209,2209,2209,2209,2209,2209,2209,
2209,2209,2209,2209,2209,338,2145,2145,2145,2145,2145,2145,2209,2209,2209,2209,
2209,2209,2209,2209,2209,2145,2145,2114,2115,2116,2209,2145,2209,2209,2209,2209,
2209,2209,2209,2209,2209,2145,2209,2146,2181,2148,2209,2145,2209,2209,2209,2209,
2209,2209,2209,2209,2209,2145,2209,2178,2211,0,2273,2145,2209,2209,2209,2209,
2209,2209,2209,2209,2209,2145,2273,2132,2133,2135,2273,2273,2209,2209,2209,2209,
2209,2209,2209,2209,2209,2145,0,0,0,2167,2241,2145,2209,2209,2209,2209,
2209,2209,2209,2209,2209,0,0,0,2198,2199,338,2145,2209,2209,2209,2209
</chunk>
   <chunk x="48" y="32" width="16" height="16">
2209,2209,2209,2209,2209,2209,2209,2209,2209,2209,2209,2209,2209,2209,2209,0,
2209,2209,2209,2209,2209,2209,2209,2209,2209,2209,2209,2209,2209,2209,2209,0,
2209,2209,2209,2209,2209,2209,2209,2209,2209,2209,2209,2209,2209,2209,2209,0,
2209,2209,2209,2209,2209,2209,2209,2209,2209,2209,2209,2209,2209,2209,2209,0,
2209,2209,2209,2209,2209,2209,2209,2209,2209,2209,2209,2209,2209,2209,2209,0,
2209,2209,2209,2209,2209,2209,2209,2209,2209,2209,2209,2209,2209,2209,2209,0,
2209,2209,2209,2209,2209,2209,2209,2209,2209,2209,2209,2209,2209,2209,2209,0,
2209,2209,2209,2209,2209,2209,2209,2209,2209,2209,2209,2209,2209,2209,2209,0,
2209,2209,2209,2209,2209,2209,2209,2209,2209,2209,2209,2209,2209,2209,2209,0,
2209,2209,2209,2209,2209,2209,2209,2209,2209,2209,2209,2209,2209,2209,2209,0,
2209,2209,2209,2209,2209,2209,2209,2209,2209,2209,2209,2209,2209,2209,2209,2209,
2209,2209,2209,2209,2209,2209,2209,2209,2209,2209,2209,2209,2209,2209,2209,2209,
2209,2209,2209,2209,2209,2209,2209,2209,2209,2209,2209,2209,2209,2209,2209,2209,
2209,2209,2209,2209,2209,2209,2209,2209,2209,2209,2209,2209,2209,2209,2209,2209,
2209,2209,2209,2209,2209,2209,2209,2209,2209,2209,2209,2209,2209,2209,2209,2209,
2209,2209,2209,2209,2209,2209,2209,2209,2209,2209,2209,2209,2209,2209,2209,2209
</chunk>
   <chunk x="64" y="32" width="16" height="16">
0,0,0,0,0,0,0,0,0,0,0,0,0,0,0,0,
0,0,0,0,0,0,0,0,0,0,0,0,0,0,0,0,
0,0,0,0,0,0,0,0,0,0,0,0,0,0,0,0,
0,0,0,0,0,0,0,0,0,0,0,0,0,0,0,0,
0,0,0,0,0,0,0,0,0,0,0,0,0,0,0,0,
0,0,0,0,0,0,0,0,0,0,0,0,0,0,0,0,
0,0,0,0,0,0,0,0,0,0,0,0,0,0,0,0,
0,0,0,0,0,0,0,0,0,0,0,0,0,0,0,0,
0,0,0,0,0,0,0,0,0,0,0,0,0,0,0,0,
0,0,0,0,0,0,0,0,0,0,0,0,0,0,0,0,
2209,2209,2209,2209,0,0,0,0,0,0,0,0,0,0,0,0,
2209,2209,2209,2209,0,0,0,0,0,0,0,0,0,0,0,0,
2209,2209,2209,2209,0,0,0,0,0,0,0,0,0,0,0,0,
2209,2209,2209,2209,2209,2209,2209,2209,2209,2209,2209,2209,2209,2209,2209,0,
2209,2209,2209,2209,2209,2209,2209,2209,2209,2209,2209,2209,2209,2209,2209,0,
2209,2209,2209,2209,2209,2209,2209,2209,2209,2209,2209,2209,2209,2209,2209,0
</chunk>
   <chunk x="-96" y="48" width="16" height="16">
0,0,0,0,0,2162,2209,2209,2209,2209,2209,2209,2209,2209,2209,2209,
0,0,0,0,0,2162,2209,2209,2209,2209,2209,2209,2209,2209,2209,2209,
0,0,0,0,0,2162,2209,2209,2209,2209,2209,2209,2209,2209,2209,2209,
0,0,0,0,0,2162,2209,2209,2209,2209,2209,2209,2209,2209,2209,2209,
0,0,0,0,0,2162,2209,2209,2209,2209,2209,2209,2209,2209,2209,2209,
0,0,0,0,0,2162,2209,2209,2209,2209,2209,2209,2209,2209,2209,2209,
0,0,0,0,0,2162,2209,2209,2209,2209,2209,2209,2209,2209,2209,2209,
0,0,0,0,0,2162,2209,2209,2209,2209,2209,2209,2209,2209,2209,2209,
0,0,0,0,0,2162,2209,2209,2209,2209,2209,2209,2209,2209,2209,2209,
0,0,0,0,0,2162,2209,2209,2209,2209,2209,2209,2209,2209,2209,2209,
0,0,0,0,0,2162,2209,2209,2209,2209,2209,2209,2209,2209,2209,2209,
0,0,0,0,0,2162,2209,2209,2209,2209,2209,2209,2209,2209,2209,2209,
0,0,0,0,0,2162,2209,2209,2209,2209,2209,2209,2209,2209,2209,2209,
0,0,0,0,0,2162,2209,2209,2209,2209,2209,2209,2209,2209,2209,2209,
0,0,0,0,0,2162,2209,2209,2209,2209,2209,2209,2209,2209,2209,2209,
0,0,0,0,0,2162,2209,2209,2209,2209,2209,2209,2209,2209,2209,2209
</chunk>
   <chunk x="-80" y="48" width="16" height="16">
2209,2209,2209,2209,2209,0,0,210,210,146,402,338,146,0,0,23,
2209,2209,2209,2209,2209,0,338,274,338,210,0,0,0,274,274,344,
2209,2209,2209,2209,2209,274,274,402,0,0,0,0,210,402,274,87,
2209,2209,2209,2209,146,338,0,0,0,0,0,0,274,210,274,87,
2209,2209,2209,146,338,0,0,0,0,0,0,0,0,402,402,151,
2209,2209,2209,2209,2209,0,0,0,0,0,0,0,274,338,274,402,
2209,2209,2209,2209,2209,0,0,210,210,0,0,146,274,274,210,23,
2209,2209,2209,2209,2209,0,210,210,210,210,210,274,146,146,210,344,
2209,2209,2209,2209,2209,0,210,146,146,146,146,338,274,210,402,87,
2209,2209,2209,2209,2209,0,210,210,146,210,146,146,146,210,146,344,
2209,2209,2209,2209,2209,0,0,146,146,146,146,210,146,146,402,87,
2209,2209,2209,2209,2209,210,210,146,210,210,210,146,210,402,146,87,
2209,2209,2209,2209,2209,0,210,210,210,146,146,146,210,23,25,344,
2209,2209,2209,2209,2209,274,274,146,146,23,24,25,23,280,279,280,
2209,2209,2209,2209,2209,274,210,146,146,344,147,279,280,275,339,35,
2209,2209,2209,2209,2209,274,210,146,146,87,211,215,408,152,216,99
</chunk>
   <chunk x="-64" y="48" width="16" height="16">
280,89,146,274,210,2209,2209,2209,2209,2209,2209,2209,0,402,274,402,
147,343,402,402,2209,2209,2209,2209,2209,2209,2209,2209,0,146,338,471,
211,89,402,2209,2209,2209,2209,2209,2209,2209,2209,338,338,274,471,728,
275,343,146,274,2209,2209,2209,2209,2209,146,338,402,146,471,728,663,
216,89,146,146,2209,2209,2209,2209,2209,210,210,402,338,535,277,537,
87,343,274,2209,2209,2209,2209,2209,2209,2209,2209,146,338,535,405,537,
280,89,274,274,2209,2209,2209,2209,2209,2209,2209,2209,2209,535,277,537,
215,153,338,146,2209,2209,2209,2209,2209,2209,2209,2209,2209,535,663,601,
343,210,210,2209,2209,2209,2209,2209,2209,2209,2209,2209,471,728,537,2209,
89,146,146,2209,2209,2209,2209,2209,2209,2209,2209,2209,535,663,601,2209,
343,146,146,2209,2209,2209,2209,2209,2209,2209,2209,471,665,601,2209,2209,
89,146,210,2209,2209,2209,2209,2209,2209,2209,471,665,601,2209,2209,2209,
279,25,210,210,2209,2209,2209,2209,210,471,665,601,2209,2209,2209,2209,
403,279,25,2209,2209,2209,2209,210,471,665,601,2209,2209,2209,2209,2209,
37,147,89,2209,2209,210,210,471,728,537,2209,2209,2209,2209,2209,2209,
291,37,279,25,146,146,471,728,663,601,146,2209,2209,2209,2209,2209
</chunk>
   <chunk x="-48" y="48" width="16" height="16">
146,210,471,472,728,405,277,537,210,338,210,338,146,402,402,210,
472,472,728,663,600,600,600,601,338,338,402,274,402,210,146,338,
663,600,600,601,210,338,274,146,274,146,402,274,274,402,338,146,
601,210,146,274,274,210,210,402,146,274,146,274,274,402,338,2209,
274,210,338,210,338,338,274,402,402,402,402,338,338,274,274,338,
210,274,402,274,402,338,402,2209,2209,2209,2209,2209,2209,2209,2209,2209,
2209,2209,2209,2209,2209,2209,2209,2209,2209,2209,2209,2209,2209,2209,2209,2209,
2209,2209,2209,2209,2209,2209,2209,2209,2209,2209,2209,2209,2209,2209,2209,2209,
2209,2209,2209,2209,2209,2209,2209,2209,2209,2209,2209,2209,2209,2209,2209,2209,
2209,2209,2209,2209,2209,2209,2209,2209,2209,2209,2209,2209,2209,2209,2209,2209,
2209,2209,2209,2209,2209,2209,2209,2209,2209,2209,2209,2209,2209,2209,2209,2209,
2209,2209,2209,2209,2209,2209,2209,2209,2209,2209,2209,2209,2209,2209,2209,2209,
2209,2209,2209,2209,2209,2209,2209,2209,2209,2209,2209,2209,2209,2209,2209,2209,
2209,2209,2209,2209,2209,2209,2209,2209,2209,2209,2209,2209,2209,2209,2209,2209,
2209,2209,2209,2209,2209,2209,2209,2209,2209,2209,2209,2209,2209,2209,2209,2209,
2209,2209,2209,2209,2209,2209,2209,2209,2209,2209,2209,2209,2209,2209,2209,2209
</chunk>
   <chunk x="-32" y="48" width="16" height="16">
402,338,402,338,338,338,338,146,338,146,210,210,338,274,146,402,
402,146,274,210,146,146,210,146,274,402,338,338,338,402,210,146,
146,274,210,402,402,338,338,402,210,338,274,402,402,402,274,210,
2209,2209,2209,2209,274,274,146,338,274,274,210,146,274,402,338,274,
402,2209,2209,2209,274,338,146,146,210,146,210,146,402,210,338,210,
2209,2209,2209,2209,2209,2209,2209,2209,146,146,146,146,146,146,274,210,
2209,2209,2209,2209,2209,2209,2209,2209,402,274,146,274,210,402,402,210,
2209,2209,2209,2209,2209,2209,210,146,146,338,338,274,402,402,210,338,
2209,2209,2209,210,274,338,146,338,338,146,2209,2209,2209,2209,2209,2209,
2209,2209,2209,2209,2209,2209,2209,2209,2209,2209,2209,2209,2209,2209,2209,2209,
2209,2209,2209,2209,2209,2209,2209,2209,2209,2209,2209,2209,2209,2209,2209,2209,
2209,2209,2209,2209,2209,2209,2209,2209,2209,2209,2209,2209,2209,2209,2209,2209,
2209,2209,2209,2209,2209,2209,2209,2209,2209,2209,2209,2209,2209,2209,2209,2209,
2209,2209,2209,2209,2209,2209,2209,2209,2209,2209,2209,2209,2209,2209,2209,2209,
2209,2209,2209,2209,2209,2209,2209,2209,2209,2209,2209,2209,2209,2209,2209,2209,
2209,2209,2209,2209,2209,2209,2209,2209,2209,2209,2209,2209,2209,2209,2209,2209
</chunk>
   <chunk x="-16" y="48" width="16" height="16">
338,402,338,274,274,210,274,274,402,146,338,402,146,338,2209,2209,
274,338,210,402,402,402,2209,2209,2209,2209,2209,2209,2209,2209,2209,2209,
274,146,402,338,146,2209,2209,2209,2209,2209,2209,2209,2209,2209,2209,2209,
210,146,402,210,274,402,146,338,2209,2209,2209,2209,2209,2209,2209,2209,
210,210,402,338,402,338,2209,2209,2209,2209,2209,2209,2209,2209,2209,2209,
338,402,274,338,2209,2209,2209,2209,2209,2209,2209,2209,2209,2209,2209,2209,
210,274,402,2209,2209,2209,2209,2209,2209,2209,2209,2209,2209,2209,2209,2209,
2209,2209,2209,2209,2209,2209,2209,2209,2209,2209,2209,2209,2209,2209,2209,2209,
2209,2209,2209,2209,2209,2209,2209,2209,2209,2209,2209,2209,2209,2209,2209,2209,
2209,2209,2209,2209,2209,2209,2209,2209,2209,2209,2209,2209,2209,2209,2209,2209,
2209,2209,2209,2209,2209,2209,2209,2209,2209,2209,2209,2209,2209,2209,2209,2209,
2209,2209,2209,2209,2209,2209,2209,2209,2209,2209,2209,2209,2209,2209,2209,2209,
2209,2209,2209,2209,2209,2209,2209,2209,2209,2209,2209,2209,2209,2209,2209,2209,
2209,2209,2209,2209,2209,2209,2209,2209,2209,2209,2209,2209,2209,2209,2209,2209,
2209,2209,2209,2209,2209,2209,2209,2209,2209,2209,2209,2209,2209,2209,2209,2209,
2209,2209,2209,2209,2209,2209,2209,338,338,338,338,338,274,338,402,338
</chunk>
   <chunk x="0" y="48" width="16" height="16">
2209,2209,2209,2209,2209,2209,2209,2209,2209,2209,2209,2209,2209,2209,2209,2209,
2209,2209,2209,2209,2209,2209,2209,2209,2209,2209,2209,2209,2209,2209,2209,2209,
2209,2209,2209,2209,2209,2209,2209,2209,2209,2209,2209,2209,2209,2209,2209,2209,
2209,2209,2209,2209,2209,2209,2209,2209,2209,2209,2209,2209,2209,2209,2209,2209,
2209,2209,2209,2209,2209,2209,2209,2209,2209,2209,2209,2209,2209,2209,2209,2209,
2209,2209,2209,2209,2209,2209,2209,2209,2209,2209,2209,2209,2209,2209,2209,2209,
2209,2209,2209,2209,2209,2209,2209,2209,2209,2209,2209,2209,2209,2209,2209,2209,
2209,2209,2209,2209,2209,2209,2209,146,146,338,146,23,25,274,274,210,
2209,2209,2209,2209,2209,2209,146,146,146,146,402,344,279,24,25,274,
2209,2209,2209,2209,2209,2209,2209,338,274,402,23,280,215,152,153,210,
2209,2209,2209,2209,2209,2209,2209,210,210,274,151,216,89,274,146,338,
2209,2209,2209,2209,2209,2209,2209,146,274,210,210,151,153,274,274,274,
2209,2209,2209,2209,2209,2209,2209,146,338,274,146,274,338,210,274,210,
2209,2209,2209,2209,2209,2209,2209,274,402,338,23,407,24,25,274,402,
2209,2209,2209,2209,2209,2209,2209,210,274,23,280,32,34,279,25,274,
402,338,338,146,338,210,402,146,146,87,32,289,98,215,153,274
</chunk>
   <chunk x="16" y="48" width="16" height="16">
2209,2209,2209,2209,2209,2209,2209,2209,2209,2209,2209,2209,338,338,338,2145,
2209,2209,2209,2209,2209,2209,2209,2209,2209,2209,2209,2209,338,338,338,2145,
2209,2209,2209,2209,2209,2209,2209,2209,2209,2209,2209,2209,2209,338,338,2145,
2209,2209,2209,2209,2209,2209,2209,2209,2209,2209,2209,2209,2209,338,2145,2145,
2209,2209,2209,2209,2209,2209,2209,2209,2209,2209,2209,2209,2209,338,2145,2145,
2209,2209,2209,2209,2209,2209,2209,2209,2209,2209,2209,2209,2209,2145,0,0,
2209,2209,2209,2209,2209,2209,2209,2209,2209,2209,2209,2209,2209,2145,2145,2145,
146,338,402,402,23,25,338,402,2209,338,2177,2241,2145,2241,2209,2209,
210,210,274,146,151,281,24,25,2209,2177,2273,2209,2177,2209,2145,2241,
146,146,402,274,402,151,152,153,2241,2145,2241,2177,2145,2209,2241,2273,
402,274,338,338,210,274,2122,2123,2124,2273,2145,2209,2241,2177,2241,2145,
338,274,26,28,2122,2123,2251,221,2188,274,2273,338,2177,2241,338,2145,
338,23,858,861,2251,340,221,159,274,2273,338,338,338,338,338,338,
210,87,96,294,39,927,159,146,338,402,338,2209,2209,2209,2209,2209,
23,280,160,225,97,92,274,23,25,338,2209,2209,2209,2209,2209,2209,
87,88,88,795,411,156,210,87,89,146,2209,2209,2209,2209,2209,2209
</chunk>
   <chunk x="32" y="48" width="16" height="16">
0,0,0,0,0,0,0,0,2167,2231,338,2145,2209,2209,2209,2209,
2194,2195,0,0,0,0,0,0,2167,2295,338,338,2209,2209,2209,2209,
2226,2227,2228,2195,0,0,0,2198,2199,2145,2145,2145,2209,2209,2209,2209,
2290,2291,2293,2227,2415,2416,2417,2230,2231,2273,2145,2241,2209,2209,2209,2209,
0,2323,2324,2291,2447,2448,2449,2294,2295,2241,2273,274,2209,2209,2209,2209,
2145,2122,2124,2323,2479,2480,2481,2326,146,274,146,274,338,146,210,146,
2177,2154,2250,2124,2241,2145,2241,274,274,402,210,402,338,210,146,146,
2122,2251,2157,2156,0,2273,274,274,338,274,274,274,338,274,146,146,
2186,2285,2219,2250,2124,2241,274,210,210,338,274,402,274,338,274,210,
2177,2145,2186,2187,2252,2124,210,402,274,210,146,146,210,402,210,146,
338,338,2241,338,2186,2188,146,210,210,210,210,23,24,407,24,25,
338,338,338,338,274,338,402,210,274,274,23,280,275,32,34,279,
338,338,338,338,338,146,274,146,210,274,344,403,32,289,288,34,
2209,2209,2209,2209,2209,402,210,210,402,210,151,216,160,225,224,162,
2209,2209,2209,2209,2209,274,274,402,338,274,146,151,216,96,288,34,
2209,2209,2209,2209,2209,338,210,210,210,274,402,210,344,160,161,162
</chunk>
   <chunk x="48" y="48" width="16" height="16">
2209,2209,2209,2209,2209,2209,2209,2209,2209,2209,2209,2209,2209,2209,2209,2209,
2209,2209,2209,2209,2209,2209,2209,2209,2209,2209,2209,2209,2209,2209,2209,2209,
2209,2209,2209,2209,2209,2209,2209,2209,2209,2209,2209,2209,2209,2209,2209,2209,
2209,2209,2209,2209,2209,2209,2209,2209,2209,2209,2209,2209,2209,2209,2209,2209,
2209,2209,2209,2209,2209,2209,2209,2209,2209,2209,2209,2209,2209,2209,2209,2209,
2209,2209,2209,2209,2209,2209,2209,2209,2209,2209,2209,2209,2209,2209,2209,2209,
2209,2209,2209,2209,2209,2209,2209,2209,2209,2209,2209,2209,2209,2209,2209,2209,
2209,2209,2209,2209,2209,2209,2209,2209,2209,2209,2209,2209,2209,2209,2209,2209,
2209,2209,2209,2209,2209,2209,2209,2209,2209,2209,2209,2209,2209,2209,2209,2209,
2209,2209,2209,2209,2209,2209,2209,2209,2209,2209,2209,2209,2209,2209,2209,2209,
210,146,2209,2209,2209,2209,2209,2209,2209,2209,2209,2209,2209,2209,2209,2209,
25,338,2209,2209,2209,2209,2209,2209,2209,2209,2209,2209,2209,2209,2209,2209,
279,25,2209,2209,2209,2209,2209,2209,2209,2209,2209,2209,2209,2209,2209,2209,
147,89,2209,2209,2209,2209,2209,2209,2209,2209,2209,2209,2209,2209,2209,2209,
275,89,2209,2209,2209,2209,2209,2209,2209,2209,2209,2209,2209,2209,2209,2209,
215,153,338,146,146,402,2209,2209,2209,2209,2209,2209,2209,2209,2209,2209
</chunk>
   <chunk x="64" y="48" width="16" height="16">
2209,2209,2209,2209,2209,2209,2209,2209,2209,2209,2209,2209,2209,2209,2209,0,
2209,2209,2209,2209,2209,2209,2209,2209,2209,2209,2209,2209,2209,2209,2209,0,
2209,2209,2209,2209,2209,2209,2209,2209,2209,2209,2209,2209,2209,2209,2209,0,
2209,2209,2209,2209,2209,2209,2209,2209,2209,2209,2209,2209,2209,2209,2209,0,
2209,2209,2209,2209,2209,2209,2209,2209,2209,2209,2209,2209,2209,2209,2209,0,
2209,2209,2209,2209,2209,2209,2209,2209,2209,2209,2209,2209,2209,2209,2209,0,
2209,2209,2209,2209,2209,2209,2209,2209,2209,2209,2209,2209,2209,2209,2209,0,
2209,2209,2209,2209,2209,2209,2209,2209,2209,2209,2209,2209,2209,2209,2209,0,
2209,2209,2209,2209,2209,2209,2209,2209,2209,2209,2209,2209,2209,2209,2209,0,
2209,2209,2209,2209,2209,2209,2209,2209,2209,2209,2209,2209,2209,2209,2209,0,
2209,2209,2209,2209,2209,2209,2209,2209,2209,2209,2209,2209,2209,2209,2209,0,
2209,2209,2209,2209,2209,2209,2209,2209,2209,2209,2209,2209,2209,2209,2209,0,
2209,2209,2209,2209,2209,2209,2209,2209,2209,2209,2209,2209,2209,2209,2209,0,
2209,2209,2209,2209,2209,2209,2209,2209,2209,2209,2209,2209,2209,2209,2209,0,
2209,2209,2209,2209,2209,2209,2209,2209,2209,2209,2209,2209,2209,2209,2209,0,
2209,2209,2209,2209,2209,2209,2209,2209,2209,2209,2209,2209,2209,2209,2209,0
</chunk>
   <chunk x="-96" y="64" width="16" height="16">
0,0,0,0,0,2162,2209,2209,2209,2209,2209,2209,2209,2209,2209,2209,
0,0,0,0,0,2162,2209,2209,2209,2209,2209,2209,2209,2209,2209,2209,
0,0,0,0,0,2162,2209,2209,2209,2209,2209,2209,2209,2209,2209,2209,
0,0,0,0,0,2162,2209,2209,2209,2209,2209,2209,2209,2209,2209,2209,
0,0,0,0,0,2162,2209,2209,2209,2209,2209,2209,2209,2209,2209,2209,
0,0,0,0,0,2162,2209,2209,2209,2209,2209,2209,2209,2209,2209,2209,
0,0,0,0,0,2162,2209,2209,2209,2209,2209,2209,2209,2209,2209,2209,
0,0,0,0,0,2162,2209,2209,2209,2209,2209,2209,2209,2209,2209,2209,
0,0,0,0,0,2162,2209,2209,2209,2209,2209,2209,2209,2209,2209,2209,
0,0,0,0,0,2162,2209,2209,2209,2209,2209,2209,2209,2209,2209,2209,
0,0,0,0,0,2162,2209,2209,2209,2209,2209,2209,2209,2209,2209,2209,
0,0,0,0,0,2162,2209,2209,2209,2209,2209,2209,2209,2209,2209,2209,
0,0,0,0,0,2162,2209,2209,2209,2209,2209,2209,2209,2209,2209,2209,
0,0,0,0,0,2162,2209,2209,2209,2209,2209,2209,2209,2209,2209,2209,
0,0,0,0,0,2162,2209,2209,2209,2209,2209,2209,2209,2209,2209,2209,
0,0,0,0,0,2162,2209,2209,2209,2209,2209,2209,2209,2209,2209,2209
</chunk>
   <chunk x="-80" y="64" width="16" height="16">
2209,2209,2209,2209,274,0,0,210,146,151,152,153,210,210,151,824,
2209,2209,2209,2209,2209,0,0,0,146,146,210,210,146,146,146,93,
2209,2209,2209,2209,2209,274,0,274,402,146,210,146,146,210,210,93,
2209,2209,2209,2209,2209,274,274,210,402,402,146,146,210,210,210,93,
2209,2209,2209,2209,2209,274,274,274,210,402,402,402,210,210,274,157,
2209,2209,2209,2209,2209,274,274,274,210,210,210,402,402,146,274,210,
2209,2209,2209,2209,2209,274,210,210,210,210,210,146,146,274,402,402,
2209,2209,2209,2209,2209,274,210,274,210,274,146,146,146,274,146,402,
2209,2209,2209,2209,2209,274,274,274,210,146,146,146,210,274,210,471,
2209,2209,2209,2209,2209,274,274,274,210,146,210,210,210,210,210,535,
2209,2209,2209,2209,2209,0,0,471,472,473,274,210,471,472,472,1829,
2209,2209,2209,2209,2209,0,274,535,405,727,472,472,728,341,341,1577,
2209,2209,2209,2209,2209,0,471,728,341,341,149,213,405,341,405,537,
2209,2209,2209,2209,2209,0,535,149,277,149,277,341,341,149,663,601,
2209,2209,2209,2209,2209,0,535,149,341,341,213,277,405,213,537,402,
2209,2209,2209,2209,2209,0,535,405,277,149,149,405,277,149,537,146
</chunk>
   <chunk x="-64" y="64" width="16" height="16">
212,101,215,153,146,146,535,663,601,210,146,2209,2209,2209,2209,2209,
404,355,343,402,274,146,535,537,210,210,146,2209,2209,2209,2209,2209,
94,823,153,274,338,471,728,537,210,210,210,2209,2209,2209,2209,2209,
276,285,30,31,274,535,663,601,210,402,402,2209,2209,2209,2209,2209,
222,94,221,159,402,535,537,210,402,29,31,2209,2209,2209,2209,2209,
157,158,159,274,338,535,537,210,29,286,95,2209,2209,2209,2209,2209,
402,471,472,472,472,728,537,29,286,148,95,2209,2209,2209,2209,2209,
471,728,669,1579,600,600,601,93,276,221,159,2209,2209,2209,2209,2209,
728,669,607,89,146,210,274,157,158,159,402,2209,2209,2209,2209,2209,
669,607,211,279,25,402,402,402,402,402,402,2209,2209,2209,2209,2209,
607,275,339,403,279,24,407,24,25,402,274,2209,2209,2209,2209,2209,
152,216,147,211,275,339,275,403,279,25,274,2209,2209,2209,2209,2209,
402,87,215,152,408,216,147,211,339,89,146,2209,2209,2209,2209,2209,
23,280,279,24,25,151,408,152,216,279,25,274,274,274,274,210,
87,211,147,403,89,146,210,402,151,152,153,210,210,274,274,210,
151,216,339,275,279,25,402,210,210,210,210,210,274,210,146,402
</chunk>
   <chunk x="-48" y="64" width="16" height="16">
2209,2209,2209,2209,2209,2209,2209,2209,2209,2209,2209,2209,2209,146,402,402,
2209,2209,2209,2209,2209,2209,2209,2209,2209,2209,2209,2209,2209,146,402,402,
2209,2209,2209,2209,2209,2209,2209,2209,2209,2209,2209,2209,2209,146,402,402,
2209,2209,2209,2209,2209,2209,2209,2209,2209,2209,2209,2209,2209,146,402,210,
2209,2209,2209,2209,2209,2209,2209,2209,2209,2209,2209,2209,2209,402,402,210,
2209,2209,2209,2209,2209,2209,2209,2209,2209,2209,2209,2209,274,274,274,210,
2209,2209,2209,2209,2209,2209,2209,2209,2209,2209,2209,2209,2209,402,146,146,
2209,2209,2209,2209,2209,2209,2209,2209,2209,2209,210,2209,2209,146,23,24,
2209,2209,2209,2209,2209,2209,2209,2209,2209,2209,210,2209,2209,338,87,275,
2209,2209,2209,2209,2209,2209,2209,146,210,210,210,274,338,338,87,32,
2209,2209,2209,2209,2209,2209,2209,210,210,210,274,274,23,24,280,96,
2209,2209,2209,2209,2209,2209,2209,274,210,338,338,23,280,32,33,289,
2209,2209,2209,2209,2209,2209,2209,274,210,210,210,87,88,160,225,401,
2209,2209,2209,2209,2209,2209,2209,274,210,210,210,151,216,88,96,209,
210,210,210,402,402,402,210,210,210,210,210,210,151,216,96,224,
402,402,402,402,274,274,210,210,210,210,210,210,146,87,160,162
</chunk>
   <chunk x="-32" y="64" width="16" height="16">
402,402,402,402,402,402,146,146,2209,2209,2209,2209,2209,2209,2209,2209,
402,210,274,274,338,146,146,210,210,210,2209,2209,2209,2209,2209,2209,
210,210,274,274,146,146,210,210,2209,210,2209,2209,2209,2209,2209,2209,
274,274,338,338,146,210,210,146,146,210,2209,2209,2209,2209,2209,2209,
146,274,23,25,210,23,25,146,210,2209,2209,2209,2209,2209,2209,2209,
274,274,87,279,407,217,153,146,210,274,2209,2209,2209,2209,2209,23,
23,24,280,32,34,89,210,210,274,274,402,23,407,25,402,87,
280,147,32,872,785,153,274,338,274,274,146,151,216,89,146,344,
403,32,218,156,274,338,210,338,338,338,402,402,151,153,402,151,
34,96,857,25,210,210,210,210,210,338,2209,2209,2209,2209,2209,2209,
288,226,162,89,402,402,402,338,338,338,2209,2209,2209,2209,2209,2209,
224,162,215,153,402,402,146,146,146,146,2209,2209,2209,2209,2209,2209,
98,215,153,402,2209,2209,2209,2209,2209,2209,2209,2209,2209,2209,2209,2209,
352,89,274,274,2209,2209,2209,2209,2209,2209,2209,2209,2209,2209,2209,2209,
162,89,274,2209,2209,2209,2209,2209,2209,2209,2209,2209,2209,2209,2209,2209,
211,89,274,2209,2209,2209,2209,2209,2209,2209,2209,2209,2209,2209,2209,2209
</chunk>
   <chunk x="-16" y="64" width="16" height="16">
2209,2209,2209,2209,2209,2209,2209,338,338,338,274,338,402,26,27,28,
2209,2209,2209,2209,2209,2209,2209,338,338,338,274,338,274,154,219,92,
2209,2209,2209,2209,2209,2209,2209,274,274,23,24,852,30,31,154,156,
2209,2209,2209,2209,2209,2209,2209,274,23,280,275,163,228,285,31,274,
2209,2209,2209,2209,2209,2209,2209,210,87,35,36,37,163,164,915,274,
25,2209,2209,2209,2209,2209,23,24,815,292,227,165,147,211,89,146,
279,25,23,25,274,402,87,35,292,148,101,403,215,152,153,274,
275,279,217,153,338,23,280,163,420,164,165,215,153,146,274,146,
152,408,153,274,402,151,152,152,216,215,152,153,274,338,146,26,
2209,2209,2209,2209,2209,2209,2209,274,151,153,274,274,338,274,402,90,
2209,2209,2209,2209,2209,2209,2209,146,402,274,146,146,274,146,274,154,
2209,2209,2209,2209,2209,2209,2209,6027,6128,6128,6128,6128,6128,6128,6028,338,
2209,2209,2209,2209,2209,2209,2209,6090,6374,6418,6417,6421,6422,6375,6122,274,
2209,2209,2209,2209,2209,2209,2209,6090,6406,6450,6449,6453,6454,6407,6379,274,
2209,2209,2209,2209,2209,2209,2209,6090,6272,6273,6273,6273,6273,6274,6411,338,
2209,2209,2209,2209,2209,2209,2209,6090,6304,6305,6305,6305,6305,6306,6304,26
</chunk>
   <chunk x="0" y="64" width="16" height="16">
402,402,402,146,210,274,338,146,338,151,794,273,793,153,210,402,
338,338,338,402,274,402,29,31,274,26,220,155,156,274,274,274,
274,210,29,31,29,30,223,159,146,154,156,146,146,274,146,210,
338,274,157,287,286,212,95,274,210,274,210,402,274,274,338,2130,
274,338,274,157,414,158,159,338,146,210,274,210,402,402,2130,2131,
274,146,146,402,274,146,146,338,146,402,23,25,210,274,2702,849,
146,402,210,274,146,402,146,146,146,23,280,343,338,210,2670,785,
26,28,210,210,338,274,274,146,210,87,275,89,274,274,2162,23,
283,92,210,338,338,274,274,146,146,344,211,279,407,25,2163,151,
91,282,28,274,210,274,146,402,210,151,152,216,215,153,2388,2195,
219,218,156,274,338,210,146,146,146,210,210,151,153,146,2323,2388,
90,92,274,274,274,210,274,274,274,274,274,146,146,146,274,2323,
90,92,274,274,274,338,274,274,274,274,274,338,338,338,338,338,
90,92,274,274,274,338,338,338,338,338,338,338,338,338,338,338,
90,92,338,338,2209,2209,338,338,338,338,338,2209,2209,2209,2209,2209,
283,92,338,2209,2209,2209,2209,2209,2209,2209,2209,2209,2209,2209,2209,2209
</chunk>
   <chunk x="16" y="64" width="16" height="16">
151,216,215,153,402,338,402,151,153,338,2209,2209,2209,2209,2209,2209,
402,151,153,274,210,274,210,274,210,146,2209,2209,2209,2209,2209,2209,
2130,2132,2672,2359,146,274,338,338,402,274,2209,2209,2209,2209,2209,2209,
2131,402,90,2358,2359,210,146,274,338,210,2209,2209,2209,2209,2209,2209,
146,26,283,2121,2543,2177,274,274,402,146,2209,2209,2209,2209,2209,2209,
24,858,2185,2249,2575,2546,146,338,146,210,2209,2209,2209,2209,2209,2209,
216,353,224,225,2607,2578,210,338,274,402,2209,2209,2209,2209,2209,2209,
280,160,290,805,2673,2610,402,402,210,274,2209,2209,2209,2209,2209,2209,
216,147,96,92,2134,2135,274,274,146,210,2209,2209,2209,2209,2209,2209,
151,924,805,156,274,2166,338,210,146,210,2209,2209,2209,2209,2209,2209,
2195,90,282,27,27,2705,402,146,274,274,2209,2209,2209,2209,2209,2209,
2388,2704,2453,2452,2453,2421,274,274,274,274,2209,2209,2209,2209,2209,2209,
2323,2324,2325,2324,2325,2326,338,338,338,338,2209,2209,2209,2209,2209,2209,
338,338,338,338,338,338,338,338,338,274,274,274,2209,2209,2209,2209,
2209,2209,2209,2209,2209,2209,2209,2209,2209,2209,2209,2209,2209,2209,2209,2209,
2209,2209,2209,2209,2209,2209,2209,2209,2209,2209,2209,2209,2209,2209,2209,2209
</chunk>
   <chunk x="32" y="64" width="16" height="16">
2209,2209,2209,2209,2209,338,338,274,274,210,402,210,87,403,147,215,
2209,2209,2209,2209,2209,2209,2209,2209,210,210,274,146,151,216,215,153,
2209,2209,2209,2209,2209,2209,2209,2209,274,338,274,402,146,151,153,402,
2209,2209,2209,2209,2209,2209,2209,2209,338,338,338,338,274,210,274,274,
2209,2209,2209,2209,2209,2209,2209,2209,338,338,338,338,338,274,210,402,
2209,2209,2209,2209,2209,2209,2209,2209,2209,2209,2209,2209,2209,2209,2209,26,
2209,2209,2209,2209,2209,2209,2209,2209,2209,2209,2209,2209,2209,2209,2209,90,
2209,2209,2209,2209,2209,2209,2209,2209,2209,2209,2209,2209,2209,2209,2209,154,
2209,2209,2209,2209,2209,2209,2209,2209,2209,2209,2209,2209,2209,2209,2209,146,
2209,2209,2209,2209,2209,2209,2209,2209,2209,2209,2209,2209,2209,2209,2209,338,
2209,2209,2209,2209,2209,2209,2209,2209,2209,2209,2209,2209,2209,2209,2209,146,
2209,2209,2209,2209,2209,2209,2209,2209,2209,2209,2209,2209,2209,2209,2209,274,
2209,2209,2209,2209,2209,2209,2209,2209,2209,2209,2209,2209,2209,2209,2209,146,
2209,2209,2209,2209,2209,2209,2209,2209,2209,2209,2209,2209,2209,2209,2209,210,
2209,2209,2209,2209,2209,2209,2209,2209,2209,2209,2209,2209,2209,2209,2209,274,
2209,2209,2209,2209,2209,2209,2209,2209,2209,2209,2209,2209,2209,2209,2209,210
</chunk>
   <chunk x="48" y="64" width="16" height="16">
153,338,274,146,402,338,2209,2209,2209,2209,2209,2209,2209,2209,2209,2209,
338,402,146,146,338,210,402,274,402,2209,2209,2209,2209,2209,2209,2209,
2122,2123,2124,402,210,146,146,338,402,146,2209,2209,2209,2209,2209,2209,
2186,2219,2250,2124,402,274,338,146,338,146,2209,2209,2209,2209,2209,2209,
146,2154,2221,2156,402,402,146,274,402,146,2209,2209,2209,2209,2209,2209,
28,2186,2219,2250,851,24,25,210,338,146,2209,2209,2209,2209,2209,2209,
282,28,1610613588,164,165,275,89,338,402,146,2209,2209,2209,2209,2209,2209,
219,92,344,211,147,215,153,402,210,402,2209,2209,2209,2209,2209,2209,
154,156,87,339,275,343,210,274,338,146,2209,2209,2209,2209,2209,2209,
274,23,280,403,215,153,402,146,402,402,2209,2209,2209,2209,2209,2209,
274,151,152,408,153,23,24,25,274,274,2209,2209,2209,2209,2209,2209,
146,402,274,338,210,87,403,279,25,338,2209,2209,2209,2209,2209,2209,
210,210,146,274,402,151,216,147,279,25,2209,2209,2209,2209,2209,2209,
146,338,402,210,402,210,151,924,34,89,2209,2209,2209,2209,2209,2209,
402,274,402,402,338,146,26,283,98,343,2209,2209,2209,2209,2209,2209,
402,146,146,2114,2276,2116,90,401,98,89,2209,2209,2209,2209,2209,2209
</chunk>
   <chunk x="64" y="64" width="16" height="16">
2209,2209,2209,2209,2209,2209,2209,2209,2209,2209,2209,2209,2209,2209,2209,0,
2209,2209,2209,2209,2209,2209,2209,2209,2209,2209,2209,2209,2209,2209,2209,0,
2209,2209,2209,2209,2209,2209,2209,2209,2209,2209,2209,2209,2209,2209,2209,0,
2209,2209,2209,2209,2209,2209,2209,2209,2209,2209,2209,2209,2209,2209,2209,0,
2209,2209,2209,2209,2209,2209,2209,2209,2209,2209,2209,2209,2209,2209,2209,0,
2209,2209,2209,2209,2209,2209,2209,2209,2209,2209,2209,2209,2209,2209,2209,0,
2209,2209,2209,2209,2209,2209,2209,2209,2209,2209,2209,2209,2209,2209,2209,0,
2209,2209,2209,2209,2209,2209,2209,2209,2209,2209,2209,2209,2209,2209,2209,0,
2209,2209,2209,2209,2209,2209,2209,2209,2209,2209,2209,2209,2209,2209,2209,0,
2209,2209,2209,2209,2209,2209,2209,2209,2209,2209,2209,2209,2209,2209,2209,0,
2209,2209,2209,2209,2209,2209,2209,2209,2209,2209,2209,2209,2209,2209,2209,0,
2209,2209,2209,2209,2209,2209,2209,2209,2209,2209,2209,2209,2209,2209,2209,0,
2209,2209,2209,2209,2209,2209,2209,2209,2209,2209,2209,2209,2209,2209,2209,0,
2209,2209,2209,2209,2209,2209,2209,2209,2209,2209,2209,2209,2209,2209,2209,0,
2209,2209,2209,2209,2209,2209,2209,2209,2209,2209,2209,2209,2209,2209,2209,0,
2209,2209,2209,2209,2209,2209,2209,2209,2209,2209,2209,2209,2209,2209,2209,0
</chunk>
   <chunk x="-96" y="80" width="16" height="16">
0,0,0,0,0,2162,2209,2209,2209,2209,2209,2209,2209,2209,2209,2209,
0,0,0,0,0,2162,2209,2209,2209,2209,2209,2209,2209,2209,2209,2209,
0,0,0,0,0,2162,2209,2209,2209,2209,2209,2209,2209,2209,2209,2209,
0,0,0,0,0,2162,2209,2209,2209,2209,2209,2209,2209,2209,2209,2209,
0,0,0,0,0,2162,2209,2209,2209,2209,2209,2209,2209,2209,2209,2209,
0,0,0,0,0,2162,2209,2209,2209,2209,2209,2209,2209,2209,2209,2209,
0,0,0,0,0,2162,2209,2209,2209,2209,2209,2209,2209,2209,2209,2209,
0,0,0,0,0,2162,2209,2209,2209,2209,2209,2209,2209,2209,2209,2209,
0,0,0,0,0,2162,2209,2209,2209,2209,2209,2209,2209,2209,2209,2209,
0,0,0,0,0,2162,2209,2209,2209,2209,2209,2209,2209,2209,2209,2209,
0,0,0,0,0,2162,2209,2209,2209,2209,2209,2209,2209,2209,2209,2209,
0,0,0,0,0,2162,2209,2209,2209,2209,2209,2209,2209,2209,2209,2209,
0,0,0,0,0,2162,2209,2209,2209,2209,2209,2209,2209,2209,2209,2209,
0,0,0,0,0,0,2209,2209,2209,2209,2209,2209,2209,2209,2209,2209,
0,0,0,0,0,0,2209,2209,2209,2209,2209,2209,2209,2209,2209,2209,
0,0,0,0,0,0,2209,2209,2209,2209,2209,2209,2209,2209,2209,2209
</chunk>
   <chunk x="-80" y="80" width="16" height="16">
2209,2209,2209,2209,2209,0,535,405,341,213,341,663,600,600,601,210,
2209,2209,2209,2209,2209,210,599,664,341,405,663,601,274,210,210,402,
2209,2209,2209,2209,2209,0,210,599,600,402,601,402,402,210,402,402,
2209,2209,2209,2209,2209,0,0,402,402,146,0,274,274,402,0,0,
2209,2209,2209,2209,2209,0,0,0,0,0,0,0,402,402,0,0,
2209,2209,2209,2209,2209,0,0,0,0,0,0,0,0,0,0,0,
2209,2209,2209,2209,2209,2209,2209,2209,2209,2209,2209,2209,2209,2209,2209,2209,
2209,2209,2209,2209,2209,2209,2209,2209,2209,2209,2209,2209,2209,2209,2209,2209,
2209,2209,2209,2209,2209,2209,2209,2209,2209,2209,2209,2209,2209,2209,2209,2209,
2209,2209,2209,2209,2209,2209,2209,2209,2209,2209,2209,2209,2209,2209,2209,2209,
2209,2209,2209,2209,2209,2209,2209,2209,2209,2209,2209,2209,2209,2209,2209,2209,
2209,2209,2209,2209,2209,2209,2209,2209,2209,2209,2209,2209,2209,2209,2209,2209,
2209,2209,2209,2209,2209,2209,2209,2209,2209,2209,2209,2209,2209,2209,2209,2209,
2209,2209,2209,2209,2209,2209,2209,2209,2209,2209,2209,2209,2209,2209,2209,2209,
2209,2209,2209,2209,2209,2209,2209,2209,2209,2209,2209,2209,2209,2209,2209,2209,
2209,2209,2209,2209,2209,2209,2209,2209,2209,2209,2209,2209,2209,2209,2209,2209
</chunk>
   <chunk x="-64" y="80" width="16" height="16">
402,151,408,152,216,279,24,25,210,210,210,146,146,146,274,210,
402,402,210,210,87,211,215,153,210,210,146,146,146,146,146,146,
402,210,210,274,151,152,153,210,210,146,2209,2209,2209,2209,2209,2209,
274,402,402,402,402,210,210,146,146,146,2209,2209,2209,2209,2209,2209,
0,0,0,0,210,210,146,146,146,146,2209,2209,2209,2209,2209,2209,
0,0,0,0,0,0,146,146,146,146,2209,2209,2209,2209,2209,2209,
2209,2209,2209,2209,2209,2209,2209,2209,2209,2209,2209,2209,2209,2209,2209,2209,
2209,2209,2209,2209,2209,2209,2209,2209,2209,2209,2209,2209,2209,2209,2209,2209,
2209,2209,2209,2209,2209,2209,2209,2209,2209,2209,2209,2209,2209,2209,2209,2209,
2209,2209,2209,2209,2209,2209,2209,2209,2209,2209,2209,2209,2209,2209,2209,2209,
2209,2209,2209,2209,2209,2209,2209,2209,2209,2209,2209,2209,2209,2209,2209,2209,
2209,2209,2209,2209,2209,2209,2209,2209,2209,2209,2209,2209,2209,2209,2209,2209,
2209,2209,2209,2209,2209,2209,2209,2209,2209,2209,2209,2209,2209,2209,2209,2209,
2209,2209,2209,2209,2209,2209,2209,2209,2209,2209,2209,2209,2209,2209,2209,2209,
2209,2209,2209,2209,2209,2209,2209,2209,2209,2209,2209,2209,2209,2209,2209,2209,
2209,2209,2209,2209,2209,2209,2209,2209,2209,2209,2209,2209,2209,2209,2209,2209
</chunk>
   <chunk x="-48" y="80" width="16" height="16">
210,210,210,146,146,146,210,210,210,338,210,146,146,151,216,215,
146,146,210,146,146,146,146,210,338,210,210,146,146,402,151,153,
2209,2209,2209,2209,2209,2209,146,146,146,210,210,146,146,146,146,146,
2209,2209,2209,2209,2209,2209,2209,146,146,146,210,210,210,210,210,146,
2209,2209,2209,2209,2209,2209,2209,146,146,146,146,210,210,146,146,146,
2209,2209,2209,2209,2209,2209,2209,2209,2209,2209,2209,2209,2209,2209,2209,2209,
2209,2209,2209,2209,2209,2209,2209,2209,2209,2209,2209,2209,2209,2209,2209,2209,
2209,2209,2209,2209,2209,2209,2209,2209,2209,2209,2209,2209,2209,2209,2209,2209,
2209,2209,2209,2209,2209,2209,2209,2209,2209,2209,2209,2209,2209,2209,2209,2209,
2209,2209,2209,2209,2209,2209,2209,2209,2209,2209,2209,2209,2209,2209,2209,2209,
2209,2209,2209,2209,2209,2209,2209,2209,2209,2209,2209,2209,2209,2209,2209,2209,
2209,2209,2209,2209,2209,2209,2209,2209,2209,2209,2209,2209,2209,2209,2209,2209,
2209,2209,2209,2209,2209,2209,2209,2209,2209,2209,2209,2209,2209,2209,2209,2209,
2209,2209,2209,2209,2209,2209,2209,2209,2209,2209,2209,2209,2209,2209,2209,2209,
2209,2209,2209,2209,2209,2209,2209,2209,2209,2209,2209,2209,2209,2209,2209,2209,
2209,2209,2209,2209,2209,2209,2209,2209,2209,2209,2209,2209,2209,2209,2209,2209
</chunk>
   <chunk x="-32" y="80" width="16" height="16">
408,153,146,2209,2209,2209,2209,2209,2209,2209,2209,2209,2209,2209,2209,2209,
210,210,146,2209,2209,2209,2209,2209,2209,2209,2209,2209,2209,2209,2209,2209,
402,146,146,2209,2209,2209,2209,2209,2209,2209,2209,2209,2209,2209,2209,2209,
146,146,146,2209,2209,2209,2209,2209,2209,2209,2209,2209,2209,2209,2209,2209,
146,146,146,2209,2209,2209,2209,2209,2209,2209,2209,2209,2209,2209,2209,2209,
2209,2209,2209,2209,2209,2209,2209,2209,2209,2209,2209,2209,2209,2209,2209,2209,
2209,2209,2209,2209,2209,2209,2209,2209,2209,2209,2209,2209,2209,2209,2209,2209,
2209,2209,2209,2209,2209,2209,2209,2209,2209,2209,2209,2209,2209,2209,2209,2209,
2209,2209,2209,2209,2209,2209,2209,2209,2209,2209,2209,2209,2209,2209,2209,2209,
2209,2209,2209,2209,2209,2209,2209,2209,2209,2209,2209,2209,2209,2209,2209,2209,
2209,2209,2209,2209,2209,2209,2209,2209,2209,2209,2209,2209,2209,2209,2209,2209,
2209,2209,2209,2209,2209,2209,2209,2209,2209,2209,2209,2209,2209,2209,2209,2209,
2209,2209,2209,2209,2209,2209,2209,2209,2209,2209,2209,2209,2209,2209,2209,2209,
2209,2209,2209,2209,2209,2209,2209,2209,2209,2209,2209,2209,2209,2209,2209,2209,
2209,2209,2209,2209,2209,2209,2209,2209,2209,2209,2209,2209,2209,2209,2209,2209,
2209,2209,2209,2209,2209,2209,2209,2209,2209,2209,2209,2209,2209,2209,2209,2209
</chunk>
   <chunk x="-16" y="80" width="16" height="16">
2209,2209,2209,2209,2209,2209,2209,6090,6336,6337,6337,6337,6337,6338,6304,154,
2209,2209,2209,2209,2209,2209,2209,6059,6128,6128,6128,6128,6128,6128,6129,274,
2209,2209,2209,2209,2209,2209,2209,274,274,338,338,338,338,338,338,338,
2209,2209,2209,2209,2209,2209,2209,274,338,338,338,338,338,402,274,274,
2209,2209,2209,2209,2209,2209,2209,2209,2209,2209,2209,2209,2209,2209,2209,2209,
2209,2209,2209,2209,2209,2209,2209,2209,2209,2209,2209,2209,2209,2209,2209,2209,
2209,2209,2209,2209,2209,2209,2209,2209,2209,2209,2209,2209,2209,2209,2209,2209,
2209,2209,2209,2209,2209,2209,2209,2209,2209,2209,2209,2209,2209,2209,2209,2209,
2209,2209,2209,2209,2209,2209,2209,2209,2209,2209,2209,2209,2209,2209,2209,2209,
2209,2209,2209,2209,2209,2209,2209,2209,2209,2209,2209,2209,2209,2209,2209,2209,
2209,2209,2209,2209,2209,2209,2209,2209,2209,2209,2209,2209,2209,2209,2209,2209,
2209,2209,2209,2209,2209,2209,2209,2209,2209,2209,2209,2209,2209,2209,2209,2209,
2209,2209,2209,2209,2209,2209,2209,2209,2209,2209,2209,2209,2209,2209,2209,2209,
2209,2209,2209,2209,2209,2209,2209,2209,2209,2209,2209,2209,2209,2209,2209,2209,
2209,2209,2209,2209,2209,2209,2209,2209,2209,2209,2209,2209,2209,2209,2209,2209,
2209,2209,2209,2209,2209,2209,2209,2209,2209,2209,2209,2209,2209,2209,2209,2209
</chunk>
   <chunk x="0" y="80" width="16" height="16">
155,156,338,2209,2209,2209,2209,2209,2209,2209,2209,2209,2209,2209,2209,2209,
274,338,338,2209,2209,2209,2209,2209,2209,2209,2209,2209,2209,2209,2209,2209,
338,338,338,2209,2209,2209,2209,2209,2209,2209,2209,2209,2209,2209,2209,2209,
338,338,338,2209,2209,2209,2209,2209,2209,2209,2209,2209,2209,2209,2209,2209,
2209,2209,2209,2209,2209,2209,2209,2209,2209,2209,2209,2209,2209,2209,2209,2209,
2209,2209,2209,2209,2209,2209,2209,2209,2209,2209,2209,2209,2209,2209,2209,2209,
2209,2209,2209,2209,2209,2209,2209,2209,2209,2209,2209,2209,2209,2209,2209,2209,
2209,2209,2209,2209,2209,2209,2209,2209,2209,2209,2209,2209,2209,2209,2209,2209,
2209,2209,2209,2209,2209,2209,2209,2209,2209,2209,2209,2209,2209,2209,2209,2209,
2209,2209,2209,2209,2209,2209,2209,2209,2209,2209,2209,2209,2209,2209,2209,2209,
2209,2209,2209,2209,2209,2209,2209,2209,2209,2209,2209,2209,2209,2209,2209,2209,
2209,2209,2209,2209,2209,2209,2209,2209,2209,2209,2209,2209,2209,2209,2209,2209,
2209,2209,2209,2209,2209,2209,2209,2209,2209,2209,2209,2209,2209,2209,2209,2209,
2209,2209,2209,2209,2209,2209,2209,2209,2209,2209,2209,2209,2209,2209,2209,2209,
2209,2209,2209,2209,2209,2209,2209,2209,2209,2209,2209,2209,2209,2209,2209,2209,
2209,2209,2209,2209,2209,2209,2209,2209,2209,2209,2209,2209,2209,2209,2209,2209
</chunk>
   <chunk x="16" y="80" width="16" height="16">
2209,2209,2209,2209,2209,2209,2209,2209,2209,2209,2209,2209,2209,2209,2209,2209,
2209,2209,2209,2209,2209,2209,2209,2209,2209,2209,2209,2209,2209,2209,2209,2209,
2209,2209,2209,2209,2209,2209,2209,2209,2209,2209,2209,2209,2209,2209,2209,2209,
2209,2209,2209,2209,2209,2209,2209,2209,2209,2209,2209,2209,2209,2209,2209,2209,
2209,2209,2209,2209,2209,2209,2209,2209,2209,2209,2209,2209,2209,2209,2209,2209,
2209,2209,2209,2209,2209,2209,2209,2209,2209,2209,2209,2209,2209,2209,2209,2209,
2209,2209,2209,2209,2209,2209,2209,2209,2209,2209,2209,2209,2209,2209,2209,2209,
2209,2209,2209,2209,2209,2209,2209,2209,2209,2209,2209,2209,2209,2209,2209,2209,
2209,2209,2209,2209,2209,2209,2209,2209,2209,2209,2209,2209,2209,2209,2209,2209,
2209,2209,2209,2209,2209,2209,2209,2209,2209,2209,2209,2209,2209,2209,2209,2209,
2209,2209,2209,2209,2209,2209,2209,2209,2209,2209,2209,2209,2209,2209,2209,2209,
2209,2209,2209,2209,2209,2209,2209,2209,2209,2209,2209,2209,2209,2209,2209,2209,
2209,2209,2209,2209,2209,2209,2209,2209,2209,2209,2209,2209,2209,2209,2209,2209,
2209,2209,2209,2209,2209,2209,2209,2209,2209,2209,2209,2209,2209,2209,2209,2209,
2209,2209,2209,2209,2209,2209,2209,2209,2209,2209,2209,2209,2209,2209,2209,2209,
2209,2209,2209,2209,2209,2209,2209,2209,2209,2209,2209,2209,2209,2209,2209,2209
</chunk>
   <chunk x="32" y="80" width="16" height="16">
2209,2209,2209,2209,2209,2209,2209,2209,2209,2209,2209,2209,2209,2209,2209,274,
2209,2209,2209,2209,2209,2209,2209,2209,2209,2209,2209,2209,94,2209,2209,338,
2209,2209,2209,2209,2209,2209,2209,2209,2209,2209,2209,2209,2209,2209,2209,274,
2209,2209,2209,2209,2209,2209,2209,2209,2209,2209,2209,2209,2209,2209,2209,338,
2209,2209,2209,2209,2209,2209,2209,2209,2209,2209,2209,2209,2209,2209,2209,2209,
2209,2209,2209,2209,2209,2209,2209,2209,2209,2209,2209,2209,2209,2209,2209,2209,
2209,2209,2209,2209,2209,2209,2209,2209,2209,2209,2209,2209,2209,2209,2209,2209,
2209,2209,2209,2209,2209,2209,2209,2209,2209,2209,2209,2209,2209,2209,2209,2209,
2209,2209,2209,2209,2209,2209,2209,2209,2209,2209,2209,2209,2209,2209,2209,2209,
2209,2209,2209,2209,2209,2209,2209,2209,2209,2209,2209,2209,2209,2209,2209,2209,
2209,2209,2209,2209,2209,2209,2209,2209,2209,2209,2209,2209,2209,2209,2209,2209,
2209,2209,2209,2209,2209,2209,2209,2209,2209,2209,2209,2209,2209,2209,2209,2209,
2209,2209,2209,2209,2209,2209,2209,2209,2209,2209,2209,2209,2209,2209,2209,2209,
2209,2209,2209,2209,2209,2209,2209,2209,2209,2209,2209,2209,2209,2209,2209,2209,
2209,2209,2209,2209,2209,2209,2209,2209,2209,2209,2209,2209,2209,2209,2209,2209,
2209,2209,2209,2209,2209,2209,2209,2209,2209,2209,2209,2209,2209,2209,2209,2209
</chunk>
   <chunk x="48" y="80" width="16" height="16">
210,2114,2115,2243,2245,2148,154,155,796,343,2209,2209,2209,2209,2209,2209,
146,2178,2211,2149,2210,2244,2115,2116,87,89,2209,2209,2209,2209,2209,2209,
210,338,2146,2213,2242,2243,2117,2148,87,343,2209,2209,2209,2209,2209,2209,
338,338,2178,2179,2211,2210,2277,2180,151,153,2209,2209,2209,2209,2209,2209,
2209,2209,2209,2209,2178,2244,2116,2209,2209,2209,2209,2209,2209,2209,2209,2209,
2209,2209,2209,2114,2115,2212,2180,2209,2209,2209,2209,2209,2209,2209,2209,2209,
2209,2209,2209,2146,2245,2274,2209,2209,2209,2209,2209,2209,2209,2209,2209,2209,
2209,2209,2209,2178,2211,2242,2116,2209,2209,2209,2209,2209,2209,2209,2209,2209,
2209,2209,2209,2209,2146,2213,2274,2209,2209,2209,2209,2209,2209,2209,2209,2209,
2209,2209,2209,2209,2275,2245,2148,2209,2209,2209,2209,2209,2209,2209,2209,2209,
2209,2209,2209,2114,2243,2210,2180,2209,2209,2209,2209,2209,2209,2209,2209,2209,
2209,2209,2209,2146,2149,2148,2209,2209,2209,2209,2209,2209,2209,2209,2209,2209,
2209,2209,2209,2178,2211,2242,2116,2209,2209,2209,2209,2209,2209,2209,2209,2209,
2209,2209,2209,2209,2146,2117,2148,2209,2209,2209,2209,2209,2209,2209,2209,2209,
2209,2209,2209,2209,2178,2211,2148,2209,2209,2209,2209,2209,2209,2209,2209,2209,
2209,2209,2209,2209,2209,2178,2180,2209,2209,2209,2209,2209,2209,2209,2209,2209
</chunk>
   <chunk x="64" y="80" width="16" height="16">
2209,2209,2209,2209,2209,2209,2209,2209,2209,2209,2209,2209,2209,2209,2209,0,
2209,2209,2209,2209,2209,2209,2209,2209,2209,2209,2209,2209,2209,2209,2209,0,
2209,2209,2209,2209,2209,2209,2209,2209,2209,2209,2209,2209,2209,2209,2209,0,
2209,2209,2209,2209,2209,2209,2209,2209,2209,2209,2209,2209,2209,2209,2209,0,
2209,2209,2209,2209,2209,2209,2209,2209,2209,2209,2209,2209,2209,2209,2209,0,
2209,2209,2209,2209,2209,2209,2209,2209,2209,2209,2209,2209,2209,2209,2209,0,
2209,2209,2209,2209,2209,2209,2209,2209,2209,2209,2209,2209,2209,2209,2209,0,
2209,2209,2209,2209,2209,2209,2209,2209,2209,2209,2209,2209,2209,2209,2209,0,
2209,2209,2209,2209,2209,2209,2209,2209,2209,2209,2209,2209,2209,2209,2209,0,
2209,2209,2209,2209,2209,2209,2209,2209,2209,2209,2209,2209,2209,2209,2209,0,
2209,2209,2209,2209,2209,2209,2209,2209,2209,2209,2209,2209,2209,2209,2209,0,
2209,2209,2209,2209,2209,2209,2209,2209,2209,2209,2209,2209,2209,2209,2209,0,
2209,2209,2209,2209,2209,2209,2209,2209,2209,2209,2209,2209,2209,2209,2209,0,
2209,2209,2209,2209,2209,2209,2209,2209,2209,2209,2209,2209,2209,2209,2209,0,
2209,2209,2209,2209,2209,2209,2209,2209,2209,2209,2209,2209,2209,2209,2209,0,
2209,2209,2209,2209,2209,2209,2209,2209,2209,2209,2209,2209,2209,2209,2209,0
</chunk>
   <chunk x="-96" y="96" width="16" height="16">
0,0,0,0,0,0,2209,2209,2209,2209,2209,2209,2209,2209,2209,2209,
0,0,0,0,0,0,2209,2209,2209,2209,2209,2209,2209,2209,2209,2209,
0,0,0,0,0,0,0,0,0,0,0,0,0,0,0,0,
0,0,0,0,0,0,0,0,0,0,0,0,0,0,0,0,
0,0,0,0,0,0,0,0,0,0,0,0,0,0,0,0,
0,0,0,0,0,0,0,0,0,0,0,0,0,0,0,0,
0,0,0,0,0,0,0,0,0,0,0,0,0,0,0,0,
0,0,0,0,0,0,0,0,0,0,0,0,0,0,0,0,
0,0,0,0,0,0,0,0,0,0,0,0,0,0,0,0,
0,0,0,0,0,0,0,0,0,0,0,0,0,0,0,0,
0,0,0,0,0,0,0,0,0,0,0,0,0,0,0,0,
0,0,0,0,0,0,0,0,0,0,0,0,0,0,0,0,
0,0,0,0,0,0,0,0,0,0,0,0,0,0,0,0,
0,0,0,0,0,0,0,0,0,0,0,0,0,0,0,0,
0,0,0,0,0,0,0,0,0,0,0,0,0,0,0,0,
0,0,0,0,0,0,0,0,0,0,0,0,0,0,0,0
</chunk>
   <chunk x="-80" y="96" width="16" height="16">
2209,2209,2209,2209,2209,2209,2209,2209,2209,2209,2209,2209,2209,2209,2209,2209,
2209,2209,2209,2209,2209,2209,2209,2209,2209,2209,2209,2209,2209,2209,2209,2209,
0,0,0,0,0,0,0,0,0,0,0,0,0,0,0,0,
0,0,0,0,0,0,0,0,0,0,0,0,0,0,0,0,
0,0,0,0,0,0,0,0,0,0,0,0,0,0,0,0,
0,0,0,0,0,0,0,0,0,0,0,0,0,0,0,0,
0,0,0,0,0,0,0,0,0,0,0,0,0,0,0,0,
0,0,0,0,0,0,0,0,0,0,0,0,0,0,0,0,
0,0,0,0,0,0,0,0,0,0,0,0,0,0,0,0,
0,0,0,0,0,0,0,0,0,0,0,0,0,0,0,0,
0,0,0,0,0,0,0,0,0,0,0,0,0,0,0,0,
0,0,0,0,0,0,0,0,0,0,0,0,0,0,0,0,
0,0,0,0,0,0,0,0,0,0,0,0,0,0,0,0,
0,0,0,0,0,0,0,0,0,0,0,0,0,0,0,0,
0,0,0,0,0,0,0,0,0,0,0,0,0,0,0,0,
0,0,0,0,0,0,0,0,0,0,0,0,0,0,0,0
</chunk>
   <chunk x="-64" y="96" width="16" height="16">
2209,2209,2209,2209,2209,2209,2209,2209,2209,2209,2209,2209,2209,2209,2209,2209,
2209,2209,2209,2209,2209,2209,2209,2209,2209,2209,2209,2209,2209,2209,2209,2209,
0,0,0,0,0,0,0,0,0,0,0,0,0,0,0,0,
0,0,0,0,0,0,0,0,0,0,0,0,0,0,0,0,
0,0,0,0,0,0,0,0,0,0,0,0,0,0,0,0,
0,0,0,0,0,0,0,0,0,0,0,0,0,0,0,0,
0,0,0,0,0,0,0,0,0,0,0,0,0,0,0,0,
0,0,0,0,0,0,0,0,0,0,0,0,0,0,0,0,
0,0,0,0,0,0,0,0,0,0,0,0,0,0,0,0,
0,0,0,0,0,0,0,0,0,0,0,0,0,0,0,0,
0,0,0,0,0,0,0,0,0,0,0,0,0,0,0,0,
0,0,0,0,0,0,0,0,0,0,0,0,0,0,0,0,
0,0,0,0,0,0,0,0,0,0,0,0,0,0,0,0,
0,0,0,0,0,0,0,0,0,0,0,0,0,0,0,0,
0,0,0,0,0,0,0,0,0,0,0,0,0,0,0,0,
0,0,0,0,0,0,0,0,0,0,0,0,0,0,0,0
</chunk>
   <chunk x="-48" y="96" width="16" height="16">
2209,2209,2209,2209,2209,2209,2209,2209,2209,2209,2209,2209,2209,2209,2209,2209,
2209,2209,2209,2209,2209,2209,2209,2209,2209,2209,2209,2209,2209,2209,2209,2209,
0,0,0,0,0,0,0,0,0,0,0,0,0,0,0,0,
0,0,0,0,0,0,0,0,0,0,0,0,0,0,0,0,
0,0,0,0,0,0,0,0,0,0,0,0,0,0,0,0,
0,0,0,0,0,0,0,0,0,0,0,0,0,0,0,0,
0,0,0,0,0,0,0,0,0,0,0,0,0,0,0,0,
0,0,0,0,0,0,0,0,0,0,0,0,0,0,0,0,
0,0,0,0,0,0,0,0,0,0,0,0,0,0,0,0,
0,0,0,0,0,0,0,0,0,0,0,0,0,0,0,0,
0,0,0,0,0,0,0,0,0,0,0,0,0,0,0,0,
0,0,0,0,0,0,0,0,0,0,0,0,0,0,0,0,
0,0,0,0,0,0,0,0,0,0,0,0,0,0,0,0,
0,0,0,0,0,0,0,0,0,0,0,0,0,0,0,0,
0,0,0,0,0,0,0,0,0,0,0,0,0,0,0,0,
0,0,0,0,0,0,0,0,0,0,0,0,0,0,0,0
</chunk>
   <chunk x="-32" y="96" width="16" height="16">
2209,2209,2209,2209,2209,2209,2209,2209,2209,2209,2209,2209,2209,2209,2209,2209,
2209,2209,2209,2209,2209,2209,2209,2209,2209,2209,2209,2209,2209,2209,2209,2209,
0,0,0,0,0,0,0,0,0,0,0,0,0,0,0,0,
0,0,0,0,0,0,0,0,0,0,0,0,0,0,0,0,
0,0,0,0,0,0,0,0,0,0,0,0,0,0,0,0,
0,0,0,0,0,0,0,0,0,0,0,0,0,0,0,0,
0,0,0,0,0,0,0,0,0,0,0,0,0,0,0,0,
0,0,0,0,0,0,0,0,0,0,0,0,0,0,0,0,
0,0,0,0,0,0,0,0,0,0,0,0,0,0,0,0,
0,0,0,0,0,0,0,0,0,0,0,0,0,0,0,0,
0,0,0,0,0,0,0,0,0,0,0,0,0,0,0,0,
0,0,0,0,0,0,0,0,0,0,0,0,0,0,0,0,
0,0,0,0,0,0,0,0,0,0,0,0,0,0,0,0,
0,0,0,0,0,0,0,0,0,0,0,0,0,0,0,0,
0,0,0,0,0,0,0,0,0,0,0,0,0,0,0,0,
0,0,0,0,0,0,0,0,0,0,0,0,0,0,0,0
</chunk>
   <chunk x="-16" y="96" width="16" height="16">
2209,2209,2209,2209,2209,2209,2209,2209,2209,2209,2209,2209,2209,2209,2209,2209,
2209,2209,2209,2209,2209,2209,2209,2209,2209,2209,2209,2209,2209,2209,2209,2209,
0,0,0,0,0,0,0,0,0,0,0,0,0,0,0,0,
0,0,0,0,0,0,0,0,0,0,0,0,0,0,0,0,
0,0,0,0,0,0,0,0,0,0,0,0,0,0,0,0,
0,0,0,0,0,0,0,0,0,0,0,0,0,0,0,0,
0,0,0,0,0,0,0,0,0,0,0,0,0,0,0,0,
0,0,0,0,0,0,0,0,0,0,0,0,0,0,0,0,
0,0,0,0,0,0,0,0,0,0,0,0,0,0,0,0,
0,0,0,0,0,0,0,0,0,0,0,0,0,0,0,0,
0,0,0,0,0,0,0,0,0,0,0,0,0,0,0,0,
0,0,0,0,0,0,0,0,0,0,0,0,0,0,0,0,
0,0,0,0,0,0,0,0,0,0,0,0,0,0,0,0,
0,0,0,0,0,0,0,0,0,0,0,0,0,0,0,0,
0,0,0,0,0,0,0,0,0,0,0,0,0,0,0,0,
0,0,0,0,0,0,0,0,0,0,0,0,0,0,0,0
</chunk>
   <chunk x="0" y="96" width="16" height="16">
2209,2209,2209,2209,2209,2209,2209,2209,2209,2209,2209,2209,2209,2209,2209,2209,
2209,2209,2209,2209,2209,2209,2209,2209,2209,2209,2209,2209,2209,2209,2209,2209,
0,0,0,0,0,0,0,0,0,0,0,0,0,0,0,0,
0,0,0,0,0,0,0,0,0,0,0,0,0,0,0,0,
0,0,0,0,0,0,0,0,0,0,0,0,0,0,0,0,
0,0,0,0,0,0,0,0,0,0,0,0,0,0,0,0,
0,0,0,0,0,0,0,0,0,0,0,0,0,0,0,0,
0,0,0,0,0,0,0,0,0,0,0,0,0,0,0,0,
0,0,0,0,0,0,0,0,0,0,0,0,0,0,0,0,
0,0,0,0,0,0,0,0,0,0,0,0,0,0,0,0,
0,0,0,0,0,0,0,0,0,0,0,0,0,0,0,0,
0,0,0,0,0,0,0,0,0,0,0,0,0,0,0,0,
0,0,0,0,0,0,0,0,0,0,0,0,0,0,0,0,
0,0,0,0,0,0,0,0,0,0,0,0,0,0,0,0,
0,0,0,0,0,0,0,0,0,0,0,0,0,0,0,0,
0,0,0,0,0,0,0,0,0,0,0,0,0,0,0,0
</chunk>
   <chunk x="16" y="96" width="16" height="16">
2209,2209,2209,2209,2209,2209,2209,2209,2209,2209,2209,2209,2209,2209,2209,2209,
2209,2209,2209,2209,2209,2209,2209,2209,2209,2209,2209,2209,2209,2209,2209,2209,
0,0,0,0,0,0,0,0,0,0,0,0,0,0,0,0,
0,0,0,0,0,0,0,0,0,0,0,0,0,0,0,0,
0,0,0,0,0,0,0,0,0,0,0,0,0,0,0,0,
0,0,0,0,0,0,0,0,0,0,0,0,0,0,0,0,
0,0,0,0,0,0,0,0,0,0,0,0,0,0,0,0,
0,0,0,0,0,0,0,0,0,0,0,0,0,0,0,0,
0,0,0,0,0,0,0,0,0,0,0,0,0,0,0,0,
0,0,0,0,0,0,0,0,0,0,0,0,0,0,0,0,
0,0,0,0,0,0,0,0,0,0,0,0,0,0,0,0,
0,0,0,0,0,0,0,0,0,0,0,0,0,0,0,0,
0,0,0,0,0,0,0,0,0,0,0,0,0,0,0,0,
0,0,0,0,0,0,0,0,0,0,0,0,0,0,0,0,
0,0,0,0,0,0,0,0,0,0,0,0,0,0,0,0,
0,0,0,0,0,0,0,0,0,0,0,0,0,0,0,0
</chunk>
   <chunk x="32" y="96" width="16" height="16">
2209,2209,2209,2209,2209,2209,2209,2209,2209,2209,2209,2209,2209,2209,2209,2209,
2209,2209,2209,2209,2209,2209,2209,2209,2209,2209,2209,2209,2209,2209,2209,2209,
0,0,0,0,0,0,0,0,0,0,0,0,0,0,0,0,
0,0,0,0,0,0,0,0,0,0,0,0,0,0,0,0,
0,0,0,0,0,0,0,0,0,0,0,0,0,0,0,0,
0,0,0,0,0,0,0,0,0,0,0,0,0,0,0,0,
0,0,0,0,0,0,0,0,0,0,0,0,0,0,0,0,
0,0,0,0,0,0,0,0,0,0,0,0,0,0,0,0,
0,0,0,0,0,0,0,0,0,0,0,0,0,0,0,0,
0,0,0,0,0,0,0,0,0,0,0,0,0,0,0,0,
0,0,0,0,0,0,0,0,0,0,0,0,0,0,0,0,
0,0,0,0,0,0,0,0,0,0,0,0,0,0,0,0,
0,0,0,0,0,0,0,0,0,0,0,0,0,0,0,0,
0,0,0,0,0,0,0,0,0,0,0,0,0,0,0,0,
0,0,0,0,0,0,0,0,0,0,0,0,0,0,0,0,
0,0,0,0,0,0,0,0,0,0,0,0,0,0,0,0
</chunk>
   <chunk x="48" y="96" width="16" height="16">
2209,2209,2209,2209,2209,2209,2209,2209,2209,2209,2209,2209,2209,2209,2209,2209,
2209,2209,2209,2209,2209,2209,2209,2209,2209,2209,2209,2209,2209,2209,2209,2209,
0,0,0,0,0,0,0,0,0,0,0,0,0,0,0,0,
0,0,0,0,0,0,0,0,0,0,0,0,0,0,0,0,
0,0,0,0,0,0,0,0,0,0,0,0,0,0,0,0,
0,0,0,0,0,0,0,0,0,0,0,0,0,0,0,0,
0,0,0,0,0,0,0,0,0,0,0,0,0,0,0,0,
0,0,0,0,0,0,0,0,0,0,0,0,0,0,0,0,
0,0,0,0,0,0,0,0,0,0,0,0,0,0,0,0,
0,0,0,0,0,0,0,0,0,0,0,0,0,0,0,0,
0,0,0,0,0,0,0,0,0,0,0,0,0,0,0,0,
0,0,0,0,0,0,0,0,0,0,0,0,0,0,0,0,
0,0,0,0,0,0,0,0,0,0,0,0,0,0,0,0,
0,0,0,0,0,0,0,0,0,0,0,0,0,0,0,0,
0,0,0,0,0,0,0,0,0,0,0,0,0,0,0,0,
0,0,0,0,0,0,0,0,0,0,0,0,0,0,0,0
</chunk>
   <chunk x="64" y="96" width="16" height="16">
2209,2209,2209,2209,2209,2209,2209,2209,2209,2209,2209,2209,2209,2209,2209,0,
2209,2209,2209,2209,2209,2209,2209,2209,2209,2209,2209,2209,2209,2209,2209,0,
0,0,0,0,0,0,0,0,0,0,0,0,0,0,0,0,
0,0,0,0,0,0,0,0,0,0,0,0,0,0,0,0,
0,0,0,0,0,0,0,0,0,0,0,0,0,0,0,0,
0,0,0,0,0,0,0,0,0,0,0,0,0,0,0,0,
0,0,0,0,0,0,0,0,0,0,0,0,0,0,0,0,
0,0,0,0,0,0,0,0,0,0,0,0,0,0,0,0,
0,0,0,0,0,0,0,0,0,0,0,0,0,0,0,0,
0,0,0,0,0,0,0,0,0,0,0,0,0,0,0,0,
0,0,0,0,0,0,0,0,0,0,0,0,0,0,0,0,
0,0,0,0,0,0,0,0,0,0,0,0,0,0,0,0,
0,0,0,0,0,0,0,0,0,0,0,0,0,0,0,0,
0,0,0,0,0,0,0,0,0,0,0,0,0,0,0,0,
0,0,0,0,0,0,0,0,0,0,0,0,0,0,0,0,
0,0,0,0,0,0,0,0,0,0,0,0,0,0,0,0
</chunk>
  </data>
 </layer>
 <layer id="20" name="Buildings" width="30" height="20">
  <data encoding="csv">
   <chunk x="-48" y="-48" width="16" height="16">
0,0,0,0,0,0,0,0,0,0,0,0,0,0,0,0,
0,0,0,0,0,0,0,0,0,0,0,0,0,0,0,0,
0,0,0,0,0,0,0,0,0,0,0,0,0,0,0,0,
0,0,0,0,0,0,0,0,0,0,0,0,0,0,0,0,
0,0,6477,6478,6479,6480,6481,6479,6480,6482,6483,0,0,0,0,0,
0,0,6504,6505,6506,6507,6508,6506,6507,6509,6510,0,0,0,0,0,
0,0,6531,6532,6533,6534,6535,6533,6534,6536,6537,0,0,0,0,0,
0,0,6558,6559,6560,6561,6562,6560,6561,6563,6564,0,0,0,0,0,
0,0,0,0,0,0,6589,0,0,0,0,0,0,0,0,0,
0,0,0,0,0,0,6589,0,0,0,0,0,0,0,0,0,
0,0,0,0,0,0,6589,0,0,0,0,0,0,0,0,0,
0,0,0,0,0,0,6589,0,0,0,0,0,0,0,0,0,
0,0,0,0,0,0,6589,0,0,0,0,0,0,0,0,0,
0,0,0,0,0,0,6516,0,0,0,0,0,0,0,0,0,
0,0,0,0,0,0,6543,0,0,0,0,0,0,0,0,0,
0,0,0,0,0,0,0,0,0,0,0,0,0,0,0,0
</chunk>
   <chunk x="-32" y="-48" width="16" height="16">
0,0,0,0,0,0,0,0,0,0,0,0,0,0,0,0,
0,0,0,0,0,0,0,0,0,0,0,0,0,0,0,0,
0,0,0,0,0,0,0,0,0,0,0,0,0,0,0,0,
0,0,0,0,0,0,0,0,0,0,0,0,0,0,0,0,
0,0,0,0,0,0,0,0,0,0,0,0,0,0,0,0,
0,0,0,0,0,0,0,0,0,0,0,0,0,0,0,0,
0,0,0,0,0,0,0,0,0,0,0,0,0,0,0,0,
0,0,0,0,0,0,0,0,0,0,0,0,0,0,0,0,
0,0,0,0,0,0,0,0,0,0,0,0,0,0,0,0,
0,0,0,0,0,0,0,0,0,0,0,0,0,0,0,0,
0,0,0,0,0,0,0,0,0,0,0,0,0,0,0,0,
0,0,0,0,0,0,0,0,0,0,0,0,0,0,0,0,
0,0,0,0,0,0,0,0,0,0,0,0,0,0,0,0,
0,0,0,0,0,0,0,6469,6470,6471,6472,6473,6474,6475,6476,0,
0,0,0,0,0,0,0,6496,6497,6498,6499,6500,6501,6502,6503,0,
0,0,0,0,0,0,0,6523,6524,6525,6526,6527,6528,6529,6530,0
</chunk>
   <chunk x="-16" y="-32" width="16" height="16">
0,0,0,0,0,0,0,0,0,0,0,0,0,0,0,0,
0,0,0,0,0,0,6469,6470,6471,6472,6473,6474,6475,6476,0,0,
0,0,0,0,0,0,6496,6497,6498,6499,6500,6501,6502,6503,0,0,
0,0,0,0,0,0,6523,6524,6525,6526,6527,6528,6529,6530,0,0,
0,0,0,0,0,0,0,0,0,0,0,0,0,0,0,0,
0,0,0,0,0,0,0,0,0,0,0,0,0,0,0,0,
0,0,0,0,0,0,0,0,0,0,0,0,0,0,0,0,
0,0,0,0,0,0,0,0,0,0,0,0,0,0,0,0,
0,0,0,0,0,0,0,0,0,0,0,0,0,0,0,0,
0,0,0,0,0,0,0,0,0,0,0,0,0,0,0,0,
0,0,0,0,0,0,0,0,0,0,0,0,0,0,0,0,
0,0,0,0,0,0,0,0,0,0,0,0,0,0,0,0,
0,0,0,0,0,0,0,0,0,0,0,0,0,0,0,0,
0,0,0,0,0,0,0,0,0,0,0,0,0,0,0,0,
0,0,0,0,0,0,0,0,0,0,0,0,0,0,0,0,
0,0,0,0,0,0,0,0,0,0,0,0,0,0,0,0
</chunk>
   <chunk x="32" y="-16" width="16" height="16">
0,0,0,0,0,0,0,0,0,0,0,0,0,0,0,0,
0,0,0,0,0,0,0,0,0,0,0,0,0,0,0,0,
0,0,0,0,0,0,0,0,0,0,0,0,0,0,0,0,
0,0,0,0,0,0,0,0,0,0,0,0,0,0,0,0,
0,0,0,0,0,0,0,0,0,0,0,0,0,0,0,0,
0,0,0,0,6484,6485,6486,0,0,0,0,0,0,0,0,0,
0,0,0,0,6511,6512,6513,0,0,0,0,0,0,0,0,0,
0,0,0,0,6511,6512,6513,0,0,0,0,0,0,0,0,0,
0,0,0,0,6538,6539,6540,0,0,0,0,0,0,0,0,0,
0,0,0,0,0,0,0,0,0,0,0,0,0,0,0,0,
0,0,0,0,0,0,0,0,0,0,0,0,0,0,0,0,
0,0,0,0,0,0,0,0,0,0,0,0,0,0,0,0,
0,0,0,0,0,0,0,0,0,0,0,0,0,0,0,0,
0,0,0,0,0,0,0,0,0,0,0,0,0,0,0,0,
0,0,0,0,0,0,0,0,0,0,0,0,0,0,0,0,
0,0,0,0,0,0,0,0,0,0,0,0,0,0,0,0
</chunk>
   <chunk x="-16" y="0" width="16" height="16">
0,0,0,0,0,0,0,0,0,0,0,0,0,0,0,0,
0,0,0,0,0,0,0,0,0,0,0,0,0,0,0,0,
0,0,0,0,0,0,0,0,0,0,0,0,0,0,0,0,
0,0,0,0,0,0,0,0,0,0,0,0,0,0,0,0,
0,0,0,0,0,0,0,0,0,0,0,0,0,0,0,0,
0,0,0,0,0,0,0,0,0,0,0,0,0,0,0,0,
0,0,0,0,0,0,0,0,0,0,0,0,0,0,0,0,
0,0,0,0,0,0,0,0,0,0,0,0,0,0,0,0,
0,0,0,0,0,0,0,0,0,0,0,0,0,0,0,0,
0,0,0,0,0,0,0,0,0,0,0,0,0,0,0,0,
0,0,0,0,0,0,0,0,0,0,0,0,0,0,0,0,
0,0,0,0,0,0,0,0,0,0,0,0,0,0,0,0,
0,0,0,0,0,0,0,0,0,0,0,0,0,0,0,0,
0,0,0,0,0,0,0,0,0,0,0,0,0,0,0,0,
0,0,0,0,0,0,0,0,0,0,0,0,0,0,0,0,
0,0,0,0,0,6484,6485,6486,0,0,0,0,0,0,0,0
</chunk>
   <chunk x="-16" y="16" width="16" height="16">
0,0,0,0,0,6511,6512,6513,0,0,0,0,0,0,0,0,
0,0,0,0,0,6511,6512,6513,0,0,0,0,0,0,0,0,
0,0,0,0,0,6538,6539,6540,0,0,0,0,0,0,0,0,
0,0,0,0,0,0,0,0,0,0,0,0,0,0,0,0,
0,0,0,0,0,0,0,0,0,0,0,0,0,0,0,0,
0,0,0,0,0,0,0,0,0,0,0,0,0,0,0,0,
0,0,0,0,0,0,0,0,0,0,0,0,0,0,0,0,
0,0,0,0,0,0,0,0,0,0,0,0,0,0,0,0,
0,0,0,0,0,0,0,0,0,0,0,0,0,0,0,0,
0,0,0,0,0,0,0,0,0,0,0,0,0,0,0,0,
0,0,0,0,0,0,0,0,0,0,0,0,0,0,0,0,
0,0,0,0,0,0,0,0,0,0,0,0,0,0,0,0,
0,0,0,0,0,0,0,0,0,0,0,0,0,0,0,0,
0,0,0,0,0,0,0,0,0,0,0,0,0,0,0,0,
0,0,0,0,0,0,0,0,0,0,0,0,0,0,0,0,
0,0,0,0,0,0,0,0,0,0,0,0,0,0,0,0
</chunk>
   <chunk x="-32" y="32" width="16" height="16">
0,0,0,0,0,0,0,0,0,6590,6591,6592,6593,0,0,0,
0,0,0,0,0,0,0,0,0,6617,6618,6619,6620,0,0,0,
0,0,0,0,0,0,0,0,0,6644,6645,6646,6647,0,0,0,
0,0,0,0,0,0,0,0,0,0,0,0,0,0,0,0,
0,0,0,0,0,0,0,0,0,0,0,0,0,0,0,0,
0,0,0,0,0,0,0,0,0,0,0,0,0,0,0,0,
0,0,0,0,0,0,0,0,0,0,0,0,0,0,0,0,
0,0,0,0,0,0,0,0,0,0,0,0,0,0,0,0,
0,0,0,0,0,0,0,0,0,0,0,0,0,0,0,0,
0,0,0,0,0,0,0,0,0,0,0,0,0,0,0,0,
0,0,0,0,0,0,0,0,0,0,0,0,0,0,0,0,
0,0,0,0,0,0,0,0,0,0,0,0,0,0,0,0,
0,0,0,0,0,0,0,0,0,0,0,0,0,0,0,0,
0,0,0,0,0,0,0,0,0,0,0,0,0,0,0,0,
0,0,0,0,0,0,0,0,0,0,0,0,0,0,0,0,
0,0,0,0,0,0,0,0,0,0,0,0,0,0,0,0
</chunk>
   <chunk x="-64" y="64" width="16" height="16">
0,0,0,0,0,0,0,0,0,0,0,0,0,0,0,0,
0,0,0,0,0,0,0,0,0,0,0,0,0,0,0,0,
0,0,0,0,0,0,0,0,0,0,0,0,0,0,0,0,
0,0,0,0,6590,6591,6592,6593,0,0,0,0,0,0,0,0,
0,0,0,0,6617,6618,6619,6620,0,0,0,0,0,0,0,0,
0,0,0,0,6644,6645,6646,6647,0,0,0,0,0,0,0,0,
0,0,0,0,0,0,0,0,0,0,0,0,0,0,0,0,
0,0,0,0,0,0,0,0,0,0,0,0,0,0,0,0,
0,0,0,0,0,0,0,0,0,0,0,0,0,0,0,0,
0,0,0,0,0,0,0,0,0,0,0,0,0,0,0,0,
0,0,0,0,0,0,0,0,0,0,0,0,0,0,0,0,
0,0,0,0,0,0,0,0,0,0,0,0,0,0,0,0,
0,0,0,0,0,0,0,0,0,0,0,0,0,0,0,0,
0,0,0,0,0,0,0,0,0,0,0,0,0,0,0,0,
0,0,0,0,0,0,0,0,0,0,0,0,0,0,0,0,
0,0,0,0,0,0,0,0,0,0,0,0,0,0,0,0
</chunk>
   <chunk x="-16" y="64" width="16" height="16">
0,0,0,0,0,0,0,0,0,0,0,0,0,0,0,0,
0,0,0,0,0,0,0,0,0,0,0,0,0,0,0,0,
0,0,0,0,0,0,0,0,0,0,0,0,0,0,0,0,
0,0,0,0,0,0,0,0,0,0,0,0,0,0,0,0,
0,0,0,0,0,0,0,0,0,0,0,0,0,0,0,0,
0,0,0,0,0,0,0,0,0,0,0,0,0,0,0,0,
0,0,0,0,0,0,0,0,0,0,0,0,0,0,0,0,
0,0,0,0,0,0,0,0,0,0,0,0,0,0,0,0,
0,0,0,0,0,0,0,0,0,0,0,0,0,0,0,0,
0,0,0,0,0,0,0,0,0,0,0,0,0,0,0,0,
0,0,0,0,0,0,0,0,0,0,0,0,0,0,0,0,
0,0,0,0,0,0,0,0,0,0,0,0,0,0,0,0,
0,0,0,0,0,0,0,0,0,0,0,0,0,0,0,0,
0,0,0,0,0,0,0,0,0,0,0,0,0,0,0,0,
0,0,0,0,0,0,0,0,0,0,0,0,0,0,0,0,
0,0,0,0,0,0,0,5763,5764,5765,5766,5764,5768,5765,5769,0
</chunk>
   <chunk x="-16" y="80" width="16" height="16">
0,0,0,0,0,0,0,5795,5796,5797,5798,5796,5800,5797,5801,0,
0,0,0,0,0,0,0,5898,5925,5927,5926,5924,5928,5927,5890,0,
0,0,0,0,0,0,0,0,0,0,0,0,0,0,0,0,
0,0,0,0,0,0,0,0,0,0,0,0,0,0,0,0,
0,0,0,0,0,0,0,0,0,0,0,0,0,0,0,0,
0,0,0,0,0,0,0,0,0,0,0,0,0,0,0,0,
0,0,0,0,0,0,0,0,0,0,0,0,0,0,0,0,
0,0,0,0,0,0,0,0,0,0,0,0,0,0,0,0,
0,0,0,0,0,0,0,0,0,0,0,0,0,0,0,0,
0,0,0,0,0,0,0,0,0,0,0,0,0,0,0,0,
0,0,0,0,0,0,0,0,0,0,0,0,0,0,0,0,
0,0,0,0,0,0,0,0,0,0,0,0,0,0,0,0,
0,0,0,0,0,0,0,0,0,0,0,0,0,0,0,0,
0,0,0,0,0,0,0,0,0,0,0,0,0,0,0,0,
0,0,0,0,0,0,0,0,0,0,0,0,0,0,0,0,
0,0,0,0,0,0,0,0,0,0,0,0,0,0,0,0
</chunk>
  </data>
 </layer>
 <layer id="11" name="Trees" width="30" height="20">
  <data encoding="csv">
   <chunk x="0" y="-80" width="16" height="16">
0,0,0,0,0,0,0,0,0,0,0,0,0,0,0,0,
0,0,0,0,0,0,0,0,0,0,0,0,0,0,0,0,
0,0,0,0,0,0,0,0,0,0,0,0,0,0,0,0,
0,0,0,0,0,0,0,0,0,0,0,0,0,0,0,0,
0,0,0,0,0,0,0,0,0,0,0,0,0,0,0,0,
0,0,0,0,0,0,0,0,0,0,0,0,0,0,0,0,
0,0,0,0,0,0,0,0,0,0,0,0,0,0,0,0,
0,0,0,0,0,0,0,0,0,2786,0,0,0,0,0,0,
0,0,0,0,0,0,0,0,0,0,0,0,0,0,0,0,
0,0,0,0,0,0,0,0,0,0,0,0,0,0,0,0,
0,0,0,0,0,0,0,0,0,0,0,0,0,0,0,0,
0,0,0,0,0,0,0,0,0,0,0,0,0,0,0,0,
0,0,0,0,0,0,0,0,0,0,0,0,0,0,0,0,
0,0,0,0,0,0,0,0,0,0,0,0,0,0,0,0,
0,0,0,0,0,0,0,0,0,0,0,0,0,0,0,0,
0,0,0,0,0,0,0,0,0,0,0,0,0,0,0,0
</chunk>
   <chunk x="0" y="-64" width="16" height="16">
0,0,0,0,0,0,0,0,0,0,0,0,0,0,0,0,
0,0,0,0,0,0,0,0,0,0,0,0,0,0,0,0,
0,0,0,0,0,0,0,0,0,0,0,0,0,0,0,0,
0,0,0,0,0,0,0,0,0,0,0,0,0,0,0,0,
0,0,0,0,0,0,0,0,0,0,0,0,0,0,0,0,
0,0,0,0,0,0,0,0,0,0,0,0,0,0,0,0,
0,0,0,0,0,0,0,0,0,0,0,0,0,0,0,0,
0,0,0,0,0,0,0,0,0,0,0,0,0,0,0,0,
0,0,0,0,0,0,0,0,0,0,0,0,0,0,0,2785,
0,0,0,0,0,0,0,0,0,0,0,0,0,0,0,0,
0,0,0,0,0,0,0,0,0,0,0,0,0,0,0,0,
0,0,0,0,0,0,0,0,0,0,0,0,0,0,0,0,
0,0,0,0,0,0,0,0,0,0,0,0,0,0,0,0,
0,0,0,0,0,0,0,0,0,0,0,0,0,0,0,0,
0,0,0,0,0,0,0,0,0,0,0,0,0,0,0,0,
0,0,0,0,0,0,0,0,0,0,0,0,0,0,0,0
</chunk>
   <chunk x="16" y="-64" width="16" height="16">
0,0,0,0,0,0,0,0,0,0,0,0,0,0,0,0,
0,0,0,0,0,0,0,0,0,0,0,0,0,0,0,0,
0,0,0,0,0,0,0,0,0,0,0,0,0,0,0,0,
0,0,0,0,0,0,0,0,0,0,0,0,0,0,0,0,
0,0,0,0,0,0,0,0,0,0,0,0,0,0,0,0,
0,0,0,0,0,0,0,0,0,0,0,0,0,0,0,0,
0,0,0,0,0,0,0,0,0,0,0,0,0,0,0,0,
0,0,0,0,0,0,0,0,0,0,0,0,0,0,0,0,
0,0,0,0,0,0,0,2785,0,0,0,0,0,0,0,2785,
0,0,0,0,0,0,0,0,0,0,0,0,0,0,0,0,
0,0,0,0,0,0,0,0,0,0,0,0,0,0,0,0,
0,0,0,0,0,0,0,0,0,0,0,0,0,0,0,0,
0,0,0,0,0,0,0,0,0,0,0,0,0,0,0,0,
0,0,0,0,0,0,0,0,0,0,0,2785,0,0,0,0,
0,0,0,0,0,0,0,0,0,0,0,0,0,0,0,0,
0,0,0,0,0,0,0,0,0,0,0,0,2787,0,0,0
</chunk>
   <chunk x="32" y="-64" width="16" height="16">
0,0,0,0,0,0,0,0,0,0,0,0,0,0,0,0,
0,0,0,0,0,0,0,0,0,0,0,0,0,0,0,0,
0,0,0,0,0,0,0,0,0,0,0,0,0,0,0,0,
0,0,0,0,0,0,0,0,0,0,0,0,0,0,0,0,
0,0,0,0,0,0,0,0,0,0,0,0,0,0,0,0,
0,0,0,0,0,0,0,0,0,0,0,0,0,0,0,0,
0,0,0,0,0,0,0,0,0,0,0,0,0,0,0,0,
0,0,0,0,0,0,0,0,0,0,0,0,0,0,0,0,
0,0,0,0,0,0,0,2785,0,0,0,0,0,0,0,2785,
0,0,0,0,0,0,0,0,0,0,0,0,0,0,0,0,
0,0,0,0,0,0,0,0,0,0,0,0,0,0,0,0,
0,0,0,0,0,0,0,0,0,0,0,0,0,0,0,0,
2787,0,0,0,0,0,0,0,0,0,0,0,0,0,0,0,
0,0,0,2785,0,0,0,0,0,0,0,0,0,0,0,0,
0,0,0,0,0,0,0,0,0,0,0,0,0,0,0,0,
0,0,0,0,2787,0,0,0,0,0,0,0,0,0,0,0
</chunk>
   <chunk x="48" y="-64" width="16" height="16">
0,0,0,0,0,0,0,0,0,0,0,0,0,0,0,0,
0,0,0,0,0,0,0,0,0,0,0,0,0,0,0,0,
0,0,0,0,0,0,0,0,0,0,0,0,0,0,0,0,
0,0,0,0,0,0,0,0,0,0,0,0,0,0,0,0,
0,0,0,0,0,0,0,0,0,0,0,0,0,0,0,0,
0,0,0,0,0,0,0,0,0,0,0,0,0,0,0,0,
0,0,0,0,0,0,0,0,0,0,0,0,0,0,0,0,
0,0,0,0,0,0,0,0,0,0,0,0,0,0,0,0,
0,0,0,0,0,0,0,2785,0,0,0,0,0,0,0,0,
0,0,0,0,0,0,0,0,0,0,0,0,0,0,0,0,
0,0,0,0,0,0,0,0,0,0,0,0,0,0,0,0,
0,0,0,0,0,0,0,0,0,0,0,0,0,0,0,0,
0,0,0,0,0,0,0,0,0,0,0,0,0,0,0,0,
0,0,0,0,0,0,0,0,0,0,0,0,0,0,0,0,
0,0,0,0,0,0,0,0,0,0,0,0,0,0,0,0,
0,0,0,0,0,0,0,0,0,0,0,0,0,0,0,0
</chunk>
   <chunk x="-16" y="-48" width="16" height="16">
0,0,0,0,0,0,0,0,0,0,0,0,0,0,0,0,
0,0,0,0,0,0,0,0,0,0,0,0,0,0,0,0,
0,0,0,0,0,0,0,0,0,0,0,0,0,0,0,0,
0,0,0,0,0,0,0,0,0,0,0,0,0,0,0,0,
0,0,0,0,0,0,0,0,0,0,0,0,0,0,0,0,
0,0,0,0,0,0,0,0,0,0,0,0,0,0,0,0,
0,0,0,0,0,0,0,0,0,0,0,0,0,0,0,0,
0,0,0,0,0,0,0,0,0,2786,0,0,2787,0,0,0,
0,0,0,0,0,0,0,0,0,0,0,0,0,0,0,2785,
0,0,0,0,0,0,0,0,0,0,0,0,0,0,0,0,
0,0,0,0,0,0,0,0,0,0,0,0,0,0,0,0,
0,0,0,0,0,0,0,0,0,0,0,0,0,0,0,0,
0,0,0,0,0,0,0,0,2787,0,0,0,0,0,0,0,
0,0,0,0,0,0,0,0,0,0,0,2785,0,0,0,0,
0,0,0,0,0,0,0,0,0,0,0,0,0,0,0,0,
0,0,0,0,0,0,0,0,0,0,0,0,2787,0,0,0
</chunk>
   <chunk x="0" y="-48" width="16" height="16">
0,0,0,0,0,0,0,0,0,0,0,0,0,0,0,2785,
0,0,0,0,0,0,0,0,0,0,0,0,0,0,0,0,
0,0,0,0,0,0,0,0,0,0,0,0,0,0,0,0,
0,0,0,0,0,0,0,0,0,0,0,0,0,0,0,0,
0,0,0,0,0,0,0,0,0,0,0,0,0,0,0,0,
0,0,0,0,0,0,0,0,0,0,0,0,0,0,0,0,
0,0,0,0,0,0,0,0,0,0,0,0,0,0,0,0,
0,0,0,0,2787,0,0,0,0,0,0,0,0,0,0,0,
0,0,0,0,0,0,0,2785,0,0,0,0,0,0,0,2785,
0,0,0,0,0,0,0,0,0,0,0,0,0,0,0,0,
0,0,0,0,0,0,0,0,0,0,0,0,0,0,0,0,
0,0,0,0,0,0,0,0,0,0,0,0,0,0,0,0,
0,0,0,0,0,0,0,0,0,0,0,0,0,0,0,0,
0,0,0,2785,0,0,0,0,0,0,0,0,0,0,0,0,
0,0,0,0,0,0,0,0,0,0,0,0,0,0,0,0,
0,0,0,0,2787,0,0,0,0,0,0,0,0,0,0,0
</chunk>
   <chunk x="16" y="-48" width="16" height="16">
0,0,0,0,0,0,0,2785,0,0,0,0,0,0,0,2785,
0,0,0,0,0,0,0,0,0,0,0,0,0,0,0,0,
0,0,0,0,0,0,0,0,0,0,0,0,0,0,0,0,
0,0,0,0,0,0,0,0,0,0,0,0,0,0,0,0,
0,0,0,0,0,0,0,0,0,0,0,0,0,0,0,0,
0,0,0,0,0,0,0,0,0,0,0,0,0,0,0,0,
0,0,0,0,0,0,0,0,0,0,0,0,0,0,0,0,
0,0,0,0,0,0,0,0,0,0,0,0,0,0,0,0,
0,0,0,0,0,0,0,0,0,0,0,0,0,0,0,0,
0,0,0,0,0,0,0,0,0,0,0,0,0,0,0,0,
0,0,0,0,0,0,0,0,0,0,0,0,0,0,0,0,
0,0,0,0,0,0,0,0,0,0,0,0,0,0,0,0,
0,0,0,0,0,0,0,0,0,0,0,0,0,0,0,0,
0,0,0,0,0,0,0,0,0,0,0,0,0,0,0,0,
0,0,0,0,0,0,0,0,0,0,0,0,0,0,0,0,
0,0,0,0,0,0,0,0,0,2786,0,0,0,0,0,0
</chunk>
   <chunk x="32" y="-48" width="16" height="16">
0,0,0,0,0,0,0,2785,0,0,0,0,0,0,0,2785,
0,0,0,0,0,0,0,0,0,0,0,0,0,0,0,0,
0,0,0,0,0,0,0,0,0,0,0,0,0,0,0,0,
0,0,0,0,0,0,0,0,0,0,0,0,0,0,0,0,
0,0,0,0,0,0,0,0,2787,0,0,0,0,0,0,0,
0,0,0,0,0,0,0,0,0,0,0,0,0,0,0,0,
0,0,0,0,0,0,0,0,0,0,0,0,0,0,0,0,
0,0,0,0,0,0,0,0,0,0,0,0,0,0,0,0,
0,0,0,0,0,0,0,0,0,0,0,0,0,0,0,0,
0,0,0,0,0,0,0,0,0,0,0,0,0,0,0,0,
0,0,0,0,0,0,0,0,0,0,0,0,0,0,0,0,
0,0,0,0,0,0,0,0,0,0,0,0,0,0,0,0,
0,0,0,0,0,0,0,0,2787,0,0,0,0,0,0,0,
0,0,0,0,0,0,0,0,0,0,0,2785,0,0,0,0,
0,0,0,0,0,0,0,0,0,0,0,0,0,0,0,0,
0,0,0,0,0,0,0,0,0,0,0,0,2787,0,0,0
</chunk>
   <chunk x="48" y="-48" width="16" height="16">
0,0,0,0,0,0,0,2785,0,0,0,0,0,0,0,0,
0,0,0,0,0,0,0,0,0,0,0,0,0,0,0,0,
0,0,0,0,0,0,0,0,0,0,0,0,0,0,0,0,
0,0,0,0,0,0,0,0,0,0,0,0,0,0,0,0,
0,0,0,0,0,0,0,0,0,0,0,0,0,0,0,0,
0,0,0,0,0,0,0,0,0,0,0,0,0,0,0,0,
0,0,0,0,0,0,0,0,0,0,0,0,0,0,0,0,
0,0,0,0,0,0,0,0,0,0,0,0,0,0,0,0,
0,0,0,0,0,0,0,0,0,0,0,0,0,0,0,0,
0,0,0,0,0,0,0,0,0,0,0,0,0,0,0,0,
0,0,0,0,0,0,0,0,0,0,0,0,0,0,0,0,
0,0,0,0,0,0,0,0,0,0,0,0,0,0,0,0,
0,0,0,0,0,0,0,0,0,0,0,0,0,0,0,0,
0,0,0,0,0,0,0,0,0,0,0,0,0,0,0,0,
0,0,0,0,0,0,0,0,0,0,0,0,0,0,0,0,
0,0,0,0,0,0,0,0,0,0,0,0,0,0,0,0
</chunk>
   <chunk x="-80" y="-32" width="16" height="16">
0,0,0,0,0,0,0,0,0,0,0,0,0,0,0,0,
0,0,0,0,0,0,0,0,0,0,0,0,0,0,0,0,
0,0,0,0,0,0,0,0,0,0,0,0,0,0,0,0,
0,0,0,0,0,0,0,0,0,0,0,0,0,0,0,0,
0,0,0,0,0,0,0,0,0,0,0,0,0,0,0,0,
0,0,0,0,0,0,0,0,0,0,0,0,0,0,0,0,
0,0,0,0,0,0,0,0,0,0,0,0,0,0,0,0,
0,0,0,0,0,0,0,0,0,0,0,0,0,0,0,0,
0,0,0,0,0,0,0,0,0,0,0,0,0,0,0,0,
0,0,0,0,0,0,0,0,0,0,0,0,0,0,0,0,
0,0,0,0,0,0,0,0,0,0,0,0,0,0,0,0,
0,0,0,0,0,0,0,0,0,0,0,0,0,0,0,0,
0,0,0,0,0,0,0,0,0,0,0,0,0,0,0,0,
0,0,0,0,0,0,0,0,0,0,0,0,0,0,0,0,
0,0,0,0,0,0,0,0,0,0,0,0,0,0,0,0,
0,0,0,0,0,0,0,0,0,2786,0,0,0,0,0,0
</chunk>
   <chunk x="-48" y="-32" width="16" height="16">
0,0,0,0,0,0,0,0,0,0,0,0,0,0,0,0,
0,0,0,0,0,0,0,0,0,0,0,0,0,0,0,0,
0,0,0,0,0,0,0,0,0,0,0,0,0,0,0,0,
0,0,0,0,0,0,0,0,0,0,0,0,0,0,0,0,
0,0,0,0,0,0,0,0,0,0,0,0,0,0,0,0,
0,0,0,0,0,0,0,0,0,0,0,0,0,0,0,0,
0,0,0,0,0,0,0,0,0,0,0,0,0,0,0,0,
0,0,0,0,0,0,0,0,0,0,0,0,0,0,0,0,
0,0,0,0,0,0,0,0,0,0,0,0,0,0,0,0,
0,0,0,0,0,0,0,0,0,0,0,0,0,0,0,0,
0,0,0,0,0,0,0,0,0,0,0,0,0,0,0,0,
0,0,0,0,0,0,0,0,0,0,0,0,0,0,0,0,
0,0,0,0,0,0,0,0,0,0,0,0,0,0,0,0,
0,0,0,0,0,0,0,0,0,0,0,0,0,0,0,0,
0,0,0,0,0,0,0,0,0,0,0,0,0,0,0,0,
0,2786,0,0,0,0,0,0,0,0,0,0,0,0,0,0
</chunk>
   <chunk x="-16" y="-32" width="16" height="16">
0,0,0,0,0,0,0,0,0,0,0,0,0,0,0,2785,
0,0,0,0,0,0,0,0,0,0,0,0,0,0,0,0,
0,0,0,0,0,0,0,0,0,0,0,0,0,0,0,0,
0,0,0,0,0,0,0,0,0,0,0,0,0,0,0,0,
0,0,0,0,0,0,0,0,0,0,0,0,0,0,0,0,
0,0,0,0,0,0,0,0,0,0,0,0,0,0,0,0,
0,0,0,0,0,0,0,0,0,0,0,0,0,0,0,0,
0,0,0,0,0,0,0,0,0,0,0,0,0,0,0,0,
0,0,0,0,0,0,0,0,0,0,0,0,0,0,0,0,
0,0,0,0,0,0,0,0,0,0,0,0,0,0,0,0,
0,0,0,0,0,0,0,0,0,0,0,0,0,0,0,0,
0,0,0,0,0,0,0,0,0,0,0,0,0,0,0,0,
0,0,0,0,0,0,0,0,0,0,0,0,0,0,0,0,
0,0,0,0,0,0,0,0,0,0,0,0,0,0,0,0,
0,0,0,0,0,0,2786,0,0,2787,0,0,0,0,2786,0,
0,0,0,0,0,0,0,0,0,0,0,0,2785,0,0,0
</chunk>
   <chunk x="0" y="-32" width="16" height="16">
0,0,0,0,0,0,0,2785,0,0,0,0,0,0,0,2785,
0,0,0,0,0,0,0,0,0,0,0,0,0,0,0,0,
0,0,0,0,0,0,0,0,0,0,0,0,0,0,0,0,
0,0,0,0,0,0,0,0,0,0,0,0,0,0,0,0,
0,0,0,0,0,0,0,0,2787,0,0,0,0,0,0,0,
0,0,0,0,0,0,0,0,0,0,0,0,0,0,0,0,
0,0,0,0,0,0,0,0,0,0,0,0,0,0,0,0,
0,0,0,0,0,0,0,0,0,0,0,0,2787,0,0,0,
0,0,0,0,0,0,0,0,0,0,0,0,0,0,0,2785,
0,0,0,0,0,0,0,0,0,0,0,0,0,0,0,0,
0,0,0,0,0,0,0,0,0,0,0,0,0,0,0,0,
0,0,0,0,0,0,0,0,0,0,0,0,0,0,0,0,
0,0,0,0,0,0,0,0,0,0,0,0,0,0,0,0,
0,0,0,0,0,0,0,0,0,0,0,0,0,0,0,0,
0,0,0,0,0,0,0,0,0,0,0,0,0,0,0,0,
0,0,0,0,0,0,0,0,0,0,0,0,0,0,0,0
</chunk>
   <chunk x="16" y="-32" width="16" height="16">
0,0,0,0,0,0,0,2785,0,0,0,0,0,0,0,0,
0,0,0,0,0,0,0,0,0,0,0,0,0,0,0,0,
0,0,0,0,0,0,0,0,0,0,0,0,0,0,0,0,
0,0,0,0,0,0,0,0,0,0,0,0,0,0,0,0,
0,0,0,0,0,0,0,0,0,0,0,0,0,0,0,0,
0,0,0,0,0,0,0,0,0,0,0,0,0,0,0,0,
0,0,0,0,0,0,0,0,0,0,0,0,0,0,0,0,
0,0,0,0,0,0,0,0,0,0,0,0,0,0,0,0,
0,0,0,0,0,0,0,2785,0,0,0,0,0,0,0,0,
0,0,0,0,0,0,0,0,0,0,0,0,0,0,0,0,
0,0,0,0,0,0,0,0,0,0,0,0,0,0,0,0,
0,0,0,0,0,0,0,0,0,0,0,0,0,0,0,0,
2787,0,0,0,0,0,0,0,0,0,0,0,0,0,0,0,
0,0,0,0,0,0,0,0,0,0,0,0,0,0,0,0,
0,0,0,0,0,0,0,0,0,0,0,0,0,0,0,0,
0,0,0,0,0,0,0,0,0,0,0,0,0,0,0,0
</chunk>
   <chunk x="32" y="-32" width="16" height="16">
0,0,0,0,0,0,0,0,0,0,0,0,0,0,0,2785,
0,0,0,0,0,0,0,0,0,0,0,0,0,0,0,0,
0,0,0,0,0,0,0,0,0,0,0,0,0,0,0,0,
0,0,0,0,0,0,0,0,0,0,0,0,0,0,0,0,
0,0,0,0,0,0,0,0,0,0,0,0,0,0,0,0,
0,0,0,0,0,0,0,0,0,0,0,0,0,0,0,0,
0,0,0,0,0,0,0,0,0,0,0,0,0,0,0,0,
0,0,0,0,0,0,0,0,0,0,0,0,0,0,0,0,
0,0,0,0,0,0,0,0,0,0,0,0,0,0,0,0,
0,0,0,0,0,0,0,0,0,0,0,0,0,0,0,0,
0,0,0,0,0,0,0,0,0,0,0,0,0,0,0,0,
0,0,0,0,0,0,0,0,0,0,0,0,0,0,0,0,
0,0,0,0,0,0,0,0,0,0,0,0,0,0,0,0,
0,0,0,0,0,0,0,0,0,0,0,0,0,0,0,0,
0,0,0,0,0,0,0,0,0,0,0,0,0,0,0,0,
0,0,0,0,0,0,0,0,0,0,0,0,0,0,0,0
</chunk>
   <chunk x="48" y="-32" width="16" height="16">
0,0,0,0,0,0,0,2785,0,0,0,0,0,0,0,0,
0,0,0,0,0,0,0,0,0,0,0,0,0,0,0,0,
0,0,0,0,0,0,0,0,0,0,0,0,0,0,0,0,
0,0,0,0,0,0,0,0,0,0,0,0,0,0,0,0,
2787,0,0,0,0,0,0,0,0,0,0,0,0,0,0,0,
0,0,0,0,0,0,0,0,0,0,0,0,0,0,0,0,
0,0,0,0,0,0,0,0,0,0,0,0,0,0,0,0,
0,0,0,0,0,0,0,0,0,0,0,0,0,0,0,0,
0,0,0,0,0,0,0,2785,0,0,0,0,0,0,0,0,
0,0,0,0,0,0,0,0,0,0,0,0,0,0,0,0,
0,0,0,0,0,0,0,0,0,0,0,0,0,0,0,0,
0,0,0,0,0,0,0,0,0,0,0,0,0,0,0,0,
0,0,0,0,0,0,0,0,0,0,0,0,0,0,0,0,
0,0,0,0,0,0,0,0,0,0,0,0,0,0,0,0,
0,0,0,0,0,0,0,0,0,0,0,0,0,0,0,0,
0,0,0,0,0,0,0,0,0,0,0,0,0,0,0,0
</chunk>
   <chunk x="-80" y="-16" width="16" height="16">
0,0,0,0,0,0,0,0,0,0,0,0,0,0,0,0,
0,0,0,0,0,0,0,0,0,0,0,0,0,0,0,0,
0,0,0,0,0,0,0,0,0,0,0,0,0,0,0,0,
0,0,0,0,0,0,0,0,0,0,0,0,0,0,0,0,
0,0,0,0,0,0,0,0,0,0,0,0,0,0,0,0,
0,0,0,0,0,0,0,0,0,0,0,0,0,0,0,0,
0,0,0,0,0,0,0,0,0,0,0,0,0,0,0,0,
0,0,0,0,0,0,0,0,0,0,0,0,0,0,0,0,
0,0,0,0,0,0,0,0,0,0,0,0,0,0,0,0,
0,0,0,0,0,0,0,0,0,0,0,0,0,0,0,0,
0,0,0,0,0,0,0,0,0,0,0,0,0,0,0,0,
0,0,0,0,0,0,0,0,0,0,0,0,0,0,0,0,
0,0,0,0,0,0,0,0,0,0,0,0,0,0,0,0,
0,0,0,0,0,0,0,0,0,0,0,0,0,0,0,0,
0,0,0,0,0,0,0,0,0,0,0,0,0,0,0,0,
0,2786,0,0,2787,0,0,0,0,0,0,0,0,0,0,0
</chunk>
   <chunk x="-64" y="-16" width="16" height="16">
0,0,0,0,0,0,0,0,0,0,0,0,0,0,0,0,
0,0,0,0,0,0,0,0,0,0,0,0,0,0,0,0,
0,0,0,0,0,0,0,0,0,0,0,0,0,0,0,0,
0,0,0,0,0,0,0,0,0,0,0,0,0,0,0,0,
0,0,0,0,0,0,0,0,0,0,0,0,0,0,0,0,
0,0,0,0,0,0,0,0,0,0,0,0,0,0,0,0,
0,0,0,0,0,0,0,0,0,0,0,0,0,0,0,0,
0,0,0,0,0,0,0,0,0,0,0,0,0,0,0,0,
0,0,0,0,0,0,0,0,0,0,0,0,0,0,0,0,
0,0,0,0,0,0,0,0,0,0,0,0,0,0,0,0,
0,0,0,0,0,0,0,0,0,0,0,0,0,0,0,0,
0,0,0,0,0,0,0,0,0,0,0,0,0,0,0,0,
0,0,0,0,0,0,0,0,0,0,0,0,0,0,0,0,
0,0,0,0,0,0,0,0,0,0,0,2785,0,0,0,0,
0,0,0,0,0,0,0,0,0,0,0,0,0,0,0,0,
0,0,0,0,0,0,0,0,0,0,0,0,2787,0,0,0
</chunk>
   <chunk x="-48" y="-16" width="16" height="16">
0,0,0,0,0,0,0,0,0,0,0,0,0,0,0,0,
0,0,0,0,0,0,0,0,0,0,0,0,0,0,0,0,
0,0,0,0,0,0,0,0,0,0,0,0,0,0,0,0,
0,0,0,0,0,0,0,0,0,0,0,0,0,0,0,0,
0,0,0,0,0,0,0,0,0,0,0,0,0,0,0,0,
0,0,0,0,0,0,0,0,0,0,0,0,0,0,0,0,
0,0,0,0,0,0,0,0,0,0,0,0,0,0,0,0,
0,0,0,0,0,0,0,0,0,2786,0,0,0,0,0,0,
0,0,0,0,0,0,0,2785,0,0,0,0,0,0,0,0,
0,0,0,0,0,0,0,0,0,0,0,0,0,0,0,0,
0,0,0,0,0,0,0,0,0,0,0,0,0,0,0,0,
0,0,0,0,0,0,0,0,0,0,0,0,0,0,0,0,
0,0,0,0,0,0,0,0,0,0,0,0,0,0,0,0,
0,0,0,0,0,0,0,0,0,0,0,0,0,0,0,0,
0,0,0,0,0,0,0,0,0,0,0,0,0,0,0,0,
0,0,0,0,0,0,0,0,0,0,0,0,0,0,0,0
</chunk>
   <chunk x="-32" y="-16" width="16" height="16">
0,0,0,0,0,0,0,0,0,0,0,0,0,0,0,0,
0,0,0,0,0,0,0,0,0,0,0,0,0,0,0,0,
0,0,0,0,0,0,0,0,0,0,0,0,0,0,0,0,
0,0,0,0,0,0,0,0,0,0,0,0,0,0,0,0,
0,0,0,0,0,0,0,0,0,0,0,0,0,0,0,0,
0,0,0,0,0,0,0,0,0,0,0,0,0,0,0,0,
0,0,0,0,0,0,0,0,0,0,0,0,0,0,0,0,
0,0,0,0,0,0,0,0,0,0,0,0,0,0,0,0,
0,0,0,0,0,0,0,0,0,0,0,0,0,0,0,0,
0,0,0,0,0,0,0,0,0,0,0,0,0,0,0,0,
0,0,0,0,0,0,0,0,0,0,0,0,0,0,0,0,
0,0,0,0,0,0,0,0,0,0,0,0,0,0,0,0,
0,0,0,0,0,0,0,0,0,0,0,0,0,0,0,0,
0,0,0,0,0,0,0,0,0,0,0,0,0,0,0,0,
0,0,0,0,0,0,0,0,0,0,0,0,0,0,2786,0,
0,2786,0,0,0,0,0,0,0,0,0,0,0,0,0,0
</chunk>
   <chunk x="-16" y="-16" width="16" height="16">
0,0,0,0,0,0,0,0,0,0,0,0,0,0,0,0,
0,0,0,0,0,0,0,0,0,0,0,0,0,0,0,0,
0,0,0,0,0,0,0,0,0,0,0,0,0,0,0,0,
0,0,0,0,0,2787,0,0,0,0,0,0,0,0,0,0,
0,0,0,0,0,0,0,0,2785,0,0,0,0,0,0,0,
0,0,0,0,0,0,0,0,0,0,0,0,0,0,0,0,
0,0,0,0,0,0,0,0,0,0,0,0,0,0,0,0,
0,0,0,0,0,0,0,0,0,0,0,0,2785,0,0,0,
0,0,0,0,0,0,0,0,0,0,0,0,0,0,0,0,
0,0,0,0,0,0,0,0,0,0,0,0,0,0,0,0,
0,0,0,0,0,0,0,0,0,0,0,0,0,0,0,0,
0,0,0,0,0,0,0,0,0,0,0,0,0,0,0,0,
0,0,0,0,0,0,0,0,0,0,0,0,0,0,0,0,
0,0,0,0,0,0,0,0,0,0,0,0,0,0,0,0,
0,2787,0,0,0,0,0,0,0,2787,0,0,0,0,0,0,
0,0,0,0,2785,0,0,0,0,0,0,0,2785,0,0,0
</chunk>
   <chunk x="0" y="-16" width="16" height="16">
0,0,0,0,0,0,0,0,0,0,0,0,0,0,0,0,
0,0,0,0,0,0,0,0,0,0,0,0,0,0,0,0,
0,0,0,0,0,0,0,0,0,0,0,0,0,0,0,0,
0,0,0,0,0,0,0,0,0,0,0,0,0,0,0,0,
0,0,0,0,0,0,0,0,0,0,0,0,0,0,0,0,
0,0,0,0,0,0,0,0,0,0,0,0,0,0,0,0,
0,0,0,0,0,0,0,0,0,0,0,0,0,0,0,0,
0,0,0,0,0,0,0,0,0,0,0,0,0,0,0,0,
0,0,0,0,0,0,0,0,0,0,0,0,0,0,0,0,
0,0,0,0,0,0,0,0,0,0,0,0,0,0,0,0,
0,0,0,0,0,0,0,0,0,0,0,0,0,0,0,0,
0,0,0,0,0,0,0,0,0,0,0,0,0,0,0,0,
0,0,0,0,0,0,0,0,0,0,0,0,0,0,0,0,
0,0,0,0,0,0,0,0,0,0,0,0,0,0,0,0,
0,0,0,0,0,0,0,0,0,0,0,0,0,0,0,0,
0,0,0,0,0,0,0,0,0,2786,0,0,2787,0,0,0
</chunk>
   <chunk x="16" y="-16" width="16" height="16">
0,0,0,0,0,0,0,2785,0,0,0,0,0,0,0,2785,
0,0,0,0,0,0,0,0,0,0,0,0,0,0,0,0,
0,0,0,0,0,0,0,0,0,0,0,0,0,0,0,0,
0,0,0,0,0,0,0,0,0,0,0,0,0,0,0,0,
2787,0,0,0,0,0,0,0,0,0,0,0,0,0,0,0,
0,0,0,0,0,0,0,0,0,0,0,0,0,0,0,0,
0,0,0,0,0,0,0,0,0,0,0,0,0,0,0,0,
0,0,0,0,0,0,0,0,0,0,0,0,0,0,0,0,
0,0,0,0,0,0,0,2785,0,0,0,0,0,0,0,2785,
0,0,0,0,0,0,0,0,0,0,0,0,0,0,0,0,
0,0,0,0,0,0,0,0,0,0,0,0,0,0,0,0,
0,0,0,0,0,0,0,0,0,0,0,0,0,0,0,0,
0,0,0,0,0,0,0,0,0,0,0,0,0,0,0,0,
0,0,0,0,0,0,0,0,0,0,0,0,0,0,0,0,
0,0,0,0,0,0,0,0,0,0,0,0,0,0,0,0,
0,0,0,0,0,0,0,0,0,0,0,0,0,0,0,0
</chunk>
   <chunk x="32" y="-16" width="16" height="16">
0,0,0,0,0,0,0,2785,0,0,0,0,0,0,0,2785,
0,0,0,0,0,0,0,0,0,0,0,0,0,0,0,0,
0,0,0,0,0,0,0,0,0,0,0,0,0,0,0,0,
0,0,0,0,0,0,0,0,0,0,0,0,0,0,0,0,
2787,0,0,0,0,0,0,0,0,0,0,0,0,0,0,0,
0,0,0,0,0,0,0,0,0,0,0,0,0,0,0,0,
0,0,0,0,0,0,0,0,0,0,0,0,0,0,0,0,
0,0,0,0,0,0,0,0,0,0,0,0,0,0,0,0,
0,0,0,0,0,0,0,2785,0,0,0,0,0,0,0,2785,
0,0,0,0,0,0,0,0,0,0,0,0,0,0,0,0,
0,0,0,0,0,0,0,0,0,0,0,0,0,0,0,0,
0,0,0,0,0,0,0,0,0,0,0,0,0,0,0,0,
0,0,0,0,0,0,0,0,2787,0,0,0,0,0,0,0,
0,0,0,0,0,0,0,0,0,0,0,0,0,0,0,0,
0,0,0,0,0,0,0,0,0,0,0,0,0,0,0,0,
0,0,0,0,0,0,0,0,0,0,0,0,0,0,0,0
</chunk>
   <chunk x="48" y="-16" width="16" height="16">
0,0,0,0,0,0,0,2785,0,0,0,0,0,0,0,0,
0,0,0,0,0,0,0,0,0,0,0,0,0,0,0,0,
0,0,0,0,0,0,0,0,0,0,0,0,0,0,0,0,
0,0,0,0,0,0,0,0,0,0,0,0,0,0,0,0,
0,0,0,0,0,0,0,0,0,0,0,0,0,0,0,0,
0,0,0,0,0,0,0,0,0,0,0,0,0,0,0,0,
0,0,0,0,0,0,0,0,0,0,0,0,0,0,0,0,
0,0,0,0,0,0,0,0,0,0,0,0,0,0,0,0,
0,0,0,0,0,0,0,2785,0,0,0,0,0,0,0,0,
0,0,0,0,0,0,0,0,0,0,0,0,0,0,0,0,
0,0,0,0,0,0,0,0,0,0,0,0,0,0,0,0,
0,0,0,0,0,0,0,0,0,0,0,0,0,0,0,0,
0,0,0,0,0,0,0,0,0,0,0,0,0,0,0,0,
0,0,0,0,0,0,0,0,0,0,0,0,0,0,0,0,
0,0,0,0,0,0,0,0,0,0,0,0,0,0,0,0,
0,0,0,0,0,0,0,0,0,0,0,0,0,0,0,0
</chunk>
   <chunk x="-96" y="0" width="16" height="16">
0,0,0,0,0,0,0,0,0,0,0,0,0,0,0,0,
0,0,0,0,0,0,0,0,0,0,0,0,0,0,0,0,
0,0,0,0,0,0,0,0,0,0,0,0,0,0,0,0,
0,0,0,0,0,0,0,0,0,0,0,0,0,0,0,0,
0,0,0,0,0,0,0,0,0,0,0,0,0,0,0,0,
0,0,0,0,0,0,0,0,0,0,0,0,0,0,0,0,
0,0,0,0,0,0,0,0,0,0,0,0,0,0,0,0,
0,0,0,0,0,0,0,0,0,0,0,0,0,0,0,0,
0,0,0,0,0,0,0,0,0,0,0,0,0,0,0,0,
0,0,0,0,0,0,0,0,0,0,0,0,0,0,0,0,
0,0,0,0,0,0,0,0,0,0,0,0,0,0,0,0,
0,0,0,0,0,0,0,0,0,0,0,0,0,0,0,0,
0,0,0,0,0,0,0,0,0,0,0,0,0,0,0,0,
0,0,0,0,0,0,0,0,0,0,0,0,0,0,0,0,
0,0,0,0,0,0,0,0,0,0,0,0,0,0,0,0,
0,0,0,0,0,0,0,0,0,2786,0,0,0,0,0,0
</chunk>
   <chunk x="-80" y="0" width="16" height="16">
0,0,0,0,0,0,0,2785,0,0,0,0,0,0,0,2785,
0,0,0,0,0,0,0,0,0,0,0,0,0,0,0,0,
0,0,0,0,0,0,0,0,0,0,0,0,0,0,0,0,
0,0,0,0,0,0,0,0,0,0,0,0,0,0,0,0,
2787,0,0,0,0,0,0,0,0,0,0,0,0,0,0,0,
0,0,0,0,0,0,0,0,0,0,0,0,0,0,0,0,
0,0,0,0,0,0,0,0,0,0,0,0,0,0,0,0,
0,0,0,0,0,0,0,0,0,0,0,0,0,0,0,0,
0,0,0,0,0,0,0,2785,0,0,0,0,0,0,0,2785,
0,0,0,0,0,0,0,0,0,0,0,0,0,0,0,0,
0,0,0,0,0,0,0,0,0,0,0,0,0,0,0,0,
0,0,0,0,0,0,0,0,0,0,0,0,0,0,0,0,
0,0,0,0,0,0,0,0,0,0,0,0,0,0,0,0,
0,0,0,0,0,0,0,0,0,0,0,0,0,0,0,0,
0,0,0,0,0,0,0,0,0,0,0,0,0,0,0,0,
0,0,0,0,0,0,0,0,0,0,0,0,0,0,0,0
</chunk>
   <chunk x="-64" y="0" width="16" height="16">
0,0,0,0,0,0,0,2785,0,0,0,0,0,0,0,2785,
0,0,0,0,0,0,0,0,0,0,0,0,0,0,0,0,
0,0,0,0,0,0,0,0,0,0,0,0,0,0,0,2126,
0,0,0,0,0,0,0,0,0,0,0,0,0,0,0,2190,
0,0,0,0,0,0,0,0,0,0,0,0,0,0,0,0,
0,0,0,2785,0,0,0,0,0,0,0,0,0,0,0,0,
0,0,0,0,0,0,0,0,0,0,0,0,0,0,0,0,
0,2786,0,0,0,0,0,0,0,0,0,0,0,0,0,0,
0,0,0,0,0,0,0,0,0,0,0,0,0,0,0,0,
0,0,0,0,0,0,0,0,0,0,0,0,0,0,0,0,
0,0,0,0,0,0,0,0,0,0,0,0,0,0,0,0,
0,0,0,0,0,0,0,0,0,0,0,0,0,0,0,0,
0,0,0,0,0,0,0,0,0,0,0,0,0,0,0,0,
0,0,0,0,0,0,0,0,0,0,0,0,0,0,0,0,
0,0,0,0,0,0,0,0,0,0,0,0,0,0,0,0,
0,0,0,0,0,0,0,0,0,2786,0,0,2787,0,0,0
</chunk>
   <chunk x="-48" y="0" width="16" height="16">
0,0,0,0,0,0,0,2785,0,0,0,0,0,0,0,2785,
2126,2127,0,0,0,0,0,0,0,0,0,0,0,0,0,0,
2255,2159,2159,2160,0,0,0,0,0,0,0,0,0,0,0,0,
2191,2223,2159,2160,0,0,0,0,0,0,0,0,0,0,0,0,
2787,2190,2191,2192,0,0,0,0,0,0,0,0,0,0,0,0,
0,2190,0,2785,0,0,0,0,0,0,0,0,0,0,0,0,
0,0,0,0,0,0,0,0,0,0,0,0,0,0,0,0,
0,0,0,0,2787,0,0,0,0,0,0,0,0,0,0,0,
0,0,0,0,0,0,0,2785,0,0,0,0,0,0,0,2785,
0,0,0,0,0,0,0,0,0,0,0,0,0,0,0,0,
0,0,0,0,0,0,0,0,0,0,0,0,0,0,0,0,
0,0,0,0,0,0,0,0,0,0,0,0,0,0,0,0,
0,0,0,0,0,0,0,0,2787,0,0,0,0,0,0,0,
0,0,0,0,0,0,0,0,0,0,0,0,0,0,0,0,
0,0,0,0,0,0,0,0,0,0,0,0,0,0,0,0,
0,2786,0,0,0,0,0,0,0,0,0,0,0,0,0,0
</chunk>
   <chunk x="-32" y="0" width="16" height="16">
0,0,0,0,0,0,0,0,0,0,0,0,0,0,0,0,
0,0,0,0,0,0,0,0,0,0,0,0,0,0,0,0,
0,0,0,0,0,0,0,0,0,0,0,0,0,0,0,0,
0,0,0,0,0,0,0,0,0,0,0,0,0,2787,0,0,
0,0,0,0,0,0,0,0,0,0,0,0,0,0,0,0,
0,0,0,0,0,0,0,0,0,0,0,0,0,0,0,0,
0,0,0,0,0,0,0,0,0,0,0,0,0,0,0,0,
0,0,0,0,0,0,0,0,0,0,0,0,0,0,0,0,
0,0,0,0,0,0,0,0,0,0,0,0,0,0,0,0,
0,0,0,0,0,0,0,0,0,0,0,0,0,0,0,0,
0,0,0,0,0,0,0,0,0,0,0,0,0,0,0,0,
0,0,0,0,0,0,0,0,0,0,0,0,0,0,0,0,
0,0,0,0,0,0,0,0,0,0,0,0,0,0,0,0,
0,0,0,0,0,0,0,0,0,0,0,0,0,0,0,0,
0,0,0,0,0,0,0,0,0,0,0,0,0,0,0,0,
0,0,0,0,0,0,0,0,0,0,0,0,0,0,0,0
</chunk>
   <chunk x="-16" y="0" width="16" height="16">
0,0,0,0,0,0,0,0,0,0,0,0,0,0,0,0,
0,0,0,0,0,0,0,0,0,0,0,0,0,0,0,0,
0,0,0,0,0,0,0,0,0,0,0,0,0,0,0,0,
0,0,0,0,0,2787,0,0,0,0,0,0,0,0,0,0,
2785,0,0,0,0,0,0,0,2785,0,0,0,0,0,0,0,
0,0,0,0,0,0,0,0,0,0,0,0,0,0,0,0,
0,2787,0,0,0,0,0,0,0,2787,0,0,0,0,2786,0,
0,0,0,0,2785,0,0,0,0,0,0,0,2785,0,0,0,
0,0,0,0,0,0,0,0,0,0,0,0,0,0,0,0,
0,0,0,0,0,0,0,0,0,0,0,0,0,0,0,0,
0,0,0,0,0,0,0,0,0,0,0,0,0,0,0,0,
0,0,0,0,0,0,0,0,0,0,0,0,0,0,0,0,
0,0,0,0,0,0,0,0,0,0,0,0,0,0,0,0,
0,0,0,0,0,0,0,0,0,0,0,0,0,0,0,0,
0,0,0,0,0,0,0,0,0,0,0,0,0,0,0,0,
0,0,0,0,0,0,0,0,0,2786,0,0,2787,0,0,0
</chunk>
   <chunk x="0" y="0" width="16" height="16">
0,0,0,0,0,0,0,0,0,0,0,0,0,0,0,2785,
0,0,0,0,0,0,0,0,0,0,0,0,0,0,0,0,
0,0,0,0,0,0,0,0,0,0,0,0,0,0,0,0,
0,0,0,0,0,0,0,0,0,0,0,0,0,0,0,0,
2785,0,0,0,0,0,0,0,2787,0,0,0,0,0,0,0,
0,0,0,0,0,0,0,0,0,0,0,0,0,0,0,0,
0,0,0,0,0,0,0,0,0,0,0,0,0,0,0,0,
0,0,0,0,0,0,0,0,0,0,0,0,0,0,0,0,
0,0,0,0,0,0,0,0,0,0,0,0,0,0,0,2785,
0,0,0,0,0,0,0,0,0,0,0,0,0,0,0,0,
0,0,0,0,0,0,0,0,0,0,0,0,0,0,0,0,
0,0,0,0,0,0,0,0,0,0,0,0,0,0,0,0,
0,0,0,0,0,0,0,0,0,0,0,0,0,0,0,0,
0,0,0,0,0,0,0,0,0,0,0,0,0,0,0,0,
0,0,0,0,0,0,0,0,0,0,0,0,0,0,0,0,
0,0,0,0,2787,0,0,0,0,0,0,0,2787,0,0,0
</chunk>
   <chunk x="16" y="0" width="16" height="16">
0,0,0,0,0,0,0,2785,0,0,0,0,0,0,0,0,
0,0,0,0,0,0,0,0,0,0,0,0,0,0,0,0,
0,0,0,0,0,0,0,0,0,0,0,0,0,0,0,0,
0,0,0,0,0,0,0,0,0,0,0,0,0,0,0,0,
0,0,0,0,0,0,0,0,0,0,0,0,0,0,0,0,
0,0,0,0,0,0,0,0,0,0,0,2785,0,0,0,0,
0,0,0,0,0,0,0,0,0,0,0,0,0,0,0,0,
0,0,0,0,2787,0,0,0,0,2786,0,0,0,0,0,0,
0,0,0,0,0,0,0,2785,0,0,0,0,0,0,0,0,
0,0,0,0,0,0,0,0,0,0,0,0,0,0,0,0,
0,0,0,0,0,0,0,0,0,0,0,0,0,0,0,0,
0,0,0,0,0,0,0,0,0,0,0,0,0,0,0,0,
0,0,0,0,0,0,0,0,0,0,0,0,0,0,0,0,
0,0,0,2785,0,0,0,0,0,0,0,0,0,0,0,0,
0,0,0,0,0,0,0,0,0,0,0,0,0,0,0,0,
0,2786,0,0,0,0,0,0,0,0,0,0,0,0,0,0
</chunk>
   <chunk x="32" y="0" width="16" height="16">
0,0,0,0,0,0,0,0,0,0,0,0,0,0,0,2785,
0,0,0,0,0,0,0,0,0,0,0,0,0,0,0,0,
0,0,0,0,0,0,0,0,0,0,0,0,0,0,0,0,
0,0,0,0,0,0,0,0,0,0,0,0,0,0,0,0,
0,0,0,0,0,0,0,0,2787,0,0,0,0,0,0,0,
0,0,0,0,0,0,0,0,0,0,0,0,0,0,0,0,
0,0,0,0,0,0,0,0,0,0,0,0,0,0,0,0,
0,0,0,0,0,0,0,0,0,0,0,0,0,0,0,0,
0,0,0,0,0,0,0,0,0,0,0,0,0,0,0,2785,
0,0,0,0,0,0,0,0,0,0,0,0,0,0,0,0,
0,0,0,0,0,0,0,0,0,0,0,0,0,0,0,0,
0,0,0,0,0,0,0,0,0,0,0,0,0,0,0,0,
0,0,0,0,0,0,0,0,2787,0,0,0,0,0,0,0,
0,0,0,0,0,0,0,0,0,0,0,2785,0,0,2787,0,
0,0,0,0,0,0,0,0,0,0,0,0,0,0,0,0,
0,0,0,0,0,0,0,0,0,0,0,0,0,0,0,0
</chunk>
   <chunk x="48" y="0" width="16" height="16">
0,0,0,0,0,0,0,2785,0,0,0,0,0,0,0,0,
0,0,0,0,0,0,0,0,0,0,0,0,0,0,0,0,
0,0,0,0,0,0,0,0,0,0,0,0,0,0,0,0,
0,0,0,0,0,0,0,0,0,0,0,0,0,0,0,0,
0,0,0,0,0,0,0,0,0,0,0,0,0,0,0,0,
0,0,0,0,0,0,0,0,0,0,0,2785,0,0,0,0,
0,0,0,0,0,0,0,0,0,0,0,0,0,0,0,0,
0,0,0,0,0,0,0,0,0,2786,0,0,0,0,0,0,
0,0,0,0,0,0,0,2785,0,0,0,0,0,0,0,0,
0,0,0,0,0,0,0,0,0,0,0,0,0,0,0,0,
0,0,0,0,0,0,0,0,0,0,0,0,0,0,0,0,
0,0,0,0,0,0,0,0,0,0,0,0,0,0,0,0,
2787,0,0,0,0,0,0,0,0,0,0,0,0,0,0,0,
0,0,0,2785,0,0,0,0,0,0,0,0,0,0,0,0,
0,0,0,0,0,0,0,0,0,0,0,0,0,0,0,0,
0,0,0,0,0,0,0,0,0,0,0,0,0,0,0,0
</chunk>
   <chunk x="-96" y="16" width="16" height="16">
0,0,0,0,0,0,0,0,0,0,0,0,0,0,0,2785,
0,0,0,0,0,0,0,0,0,0,0,0,0,0,0,0,
0,0,0,0,0,0,0,0,0,0,0,0,0,0,0,0,
0,0,0,0,0,0,0,0,0,0,0,0,0,0,0,0,
0,0,0,0,0,0,0,0,0,0,0,0,0,0,0,0,
0,0,0,0,0,0,0,0,0,0,0,0,0,0,0,0,
0,0,0,0,0,0,0,0,0,0,0,0,0,0,0,0,
0,0,0,0,0,0,0,0,0,0,0,0,0,0,0,0,
0,0,0,0,0,0,0,0,0,0,0,0,0,0,0,2785,
0,0,0,0,0,0,0,0,0,0,0,0,0,0,0,0,
0,0,0,0,0,0,0,0,0,0,0,0,0,0,0,0,
0,0,0,0,0,0,0,0,0,0,0,0,0,0,0,0,
0,0,0,0,0,0,0,0,0,0,0,0,0,0,0,0,
0,0,0,0,0,0,0,0,0,0,0,0,0,0,0,0,
0,0,0,0,0,0,0,0,0,0,0,0,0,0,0,0,
0,0,0,0,0,0,0,0,0,0,0,0,0,0,0,0
</chunk>
   <chunk x="-80" y="16" width="16" height="16">
0,0,0,0,0,0,0,2785,0,0,0,0,0,0,0,0,
0,0,0,0,0,0,0,0,0,0,0,0,0,0,0,0,
0,0,0,0,0,0,0,0,0,0,0,0,0,0,0,0,
0,0,0,0,0,0,0,0,0,0,0,0,0,0,0,0,
0,0,0,0,0,0,0,0,0,0,0,0,0,0,0,0,
0,0,0,0,0,0,0,0,0,0,0,0,0,0,0,0,
0,0,0,0,0,0,0,0,0,0,0,0,0,0,0,0,
0,0,0,0,0,0,0,0,0,0,0,0,0,0,0,0,
0,0,0,0,0,0,0,2785,0,0,0,0,0,0,0,0,
0,0,0,0,0,0,0,0,0,0,0,0,0,0,0,0,
0,0,0,0,0,0,0,0,0,0,0,0,0,0,0,0,
0,0,0,0,0,0,0,0,0,0,0,0,0,0,0,0,
0,0,0,0,0,0,0,0,0,0,0,0,0,0,0,0,
0,0,0,0,0,0,0,0,0,0,0,2785,0,0,0,0,
0,0,0,0,0,0,0,0,0,0,0,0,0,0,0,0,
0,0,0,0,0,0,0,0,0,2786,0,0,0,0,0,0
</chunk>
   <chunk x="-64" y="16" width="16" height="16">
0,0,0,0,0,0,0,0,0,0,0,0,0,0,0,2785,
0,0,0,0,0,0,0,0,0,0,0,0,0,0,0,0,
0,0,0,0,0,0,0,0,0,0,0,0,0,0,0,0,
0,0,0,0,0,0,0,0,0,0,0,0,0,0,0,0,
0,0,0,0,0,0,0,0,2787,0,0,0,0,0,0,0,
0,0,0,0,0,0,0,0,0,0,0,0,0,0,0,0,
0,0,0,0,0,0,0,0,0,0,0,0,0,0,0,0,
0,0,0,0,0,0,0,0,0,0,0,0,0,0,0,0,
0,0,0,0,0,0,0,0,0,0,0,0,0,0,0,2785,
0,0,0,0,0,0,0,0,0,0,0,0,0,0,0,0,
0,0,0,0,0,0,0,0,0,0,0,0,0,0,0,0,
0,0,0,0,0,0,0,0,0,0,0,0,0,0,0,0,
0,0,0,0,0,0,0,0,2787,0,0,0,0,0,0,0,
0,0,0,0,0,0,0,0,0,0,0,0,0,0,0,0,
0,0,0,0,0,0,0,0,0,0,0,0,0,0,0,0,
0,0,0,0,0,0,0,0,0,0,0,0,0,0,0,0
</chunk>
   <chunk x="-48" y="16" width="16" height="16">
0,0,0,0,0,0,0,0,0,0,0,0,0,0,0,2785,
0,0,0,0,0,0,0,0,0,0,0,0,0,0,0,0,
0,0,0,0,0,0,0,0,0,0,0,0,0,0,0,0,
0,0,0,0,0,0,0,0,0,0,0,0,0,0,0,0,
0,0,0,0,0,0,0,0,2787,0,0,0,0,0,0,0,
0,0,0,0,0,0,0,0,0,0,0,2785,0,0,0,0,
0,0,0,0,0,0,0,0,0,0,0,0,0,0,0,0,
0,0,0,0,0,0,0,0,0,0,0,0,2787,0,0,0,
0,0,0,0,0,0,0,0,0,0,0,0,0,0,0,2785,
0,0,0,0,0,0,0,0,0,0,0,0,0,0,0,0,
0,0,0,0,0,0,0,0,0,0,0,0,0,0,0,0,
0,0,0,0,0,0,0,0,0,0,0,0,0,0,0,0,
0,0,0,0,0,0,0,0,0,0,0,0,0,0,0,0,
0,0,0,0,0,0,0,0,0,0,0,0,0,0,0,0,
0,0,0,0,0,0,0,0,0,0,0,0,0,0,0,0,
0,0,0,0,0,0,0,0,0,0,0,0,0,0,0,0
</chunk>
   <chunk x="-32" y="16" width="16" height="16">
0,0,0,0,0,0,0,0,0,0,0,0,0,0,0,0,
0,0,0,0,0,0,0,0,0,0,0,0,0,0,0,0,
0,0,0,0,0,0,0,0,0,0,0,0,0,0,0,0,
0,0,0,0,0,0,0,0,0,0,0,0,0,0,0,0,
0,0,0,0,0,0,0,0,0,0,0,0,0,0,0,0,
0,0,0,2785,0,0,0,0,0,0,0,0,0,0,0,0,
0,0,0,0,0,0,0,0,0,0,0,0,0,0,0,0,
0,2786,0,0,0,0,0,0,0,0,0,0,0,0,0,0,
0,0,0,0,0,0,0,0,0,0,0,0,0,0,0,2785,
0,0,0,0,0,0,0,0,0,0,0,0,0,0,0,0,
0,0,0,0,0,0,0,0,0,0,0,0,0,0,0,0,
0,0,0,0,0,0,0,0,0,0,0,0,0,0,0,0,
0,0,0,0,0,0,0,0,0,0,0,0,0,0,0,0,
0,0,0,0,0,0,0,0,0,0,0,2785,0,0,0,0,
0,0,0,0,0,0,0,0,0,0,0,0,0,0,0,0,
0,0,0,0,0,0,0,0,0,0,0,0,2787,0,0,0
</chunk>
   <chunk x="-16" y="16" width="16" height="16">
0,0,0,0,0,0,0,0,0,0,0,0,0,0,0,2785,
0,0,0,0,0,0,0,0,0,0,0,0,0,0,0,0,
0,0,0,0,0,0,0,0,0,0,0,0,0,0,0,0,
0,0,0,0,0,0,0,0,0,0,0,0,0,0,0,0,
0,0,0,0,0,0,0,0,2787,0,0,0,0,0,0,0,
0,0,0,0,0,0,0,0,0,0,0,2785,0,0,0,0,
0,0,0,0,0,0,0,0,0,0,0,0,0,0,0,0,
0,2786,0,0,0,0,0,0,0,0,0,0,2787,0,0,0,
0,0,0,0,0,0,0,0,0,0,0,0,0,0,0,2785,
0,0,0,0,0,0,0,0,0,0,0,0,0,0,0,0,
0,0,0,0,0,0,0,0,0,0,0,0,0,0,0,0,
0,0,0,0,0,0,0,0,0,0,0,0,0,0,0,0,
0,0,0,0,0,0,0,0,0,0,0,0,0,0,0,0,
0,0,0,2785,0,0,0,0,0,0,0,0,0,0,0,0,
0,0,0,0,0,0,0,0,0,0,0,0,0,0,0,0,
0,2786,0,0,0,0,0,0,0,0,0,0,0,0,0,0
</chunk>
   <chunk x="0" y="16" width="16" height="16">
0,0,0,0,0,0,0,2785,0,0,0,0,0,0,0,2785,
0,0,0,0,0,0,0,0,0,0,0,0,0,0,0,0,
0,0,0,0,0,0,0,0,0,0,0,0,0,0,0,0,
0,0,0,0,0,0,0,0,0,0,0,0,0,0,0,0,
0,0,0,0,0,0,0,0,0,0,0,0,0,0,0,0,
0,0,0,2785,0,0,0,0,0,0,0,2785,0,0,0,0,
0,0,0,0,0,0,0,0,0,0,0,0,0,0,0,0,
0,0,0,0,2787,0,0,0,0,2786,0,0,0,0,0,0,
0,0,0,0,0,0,0,2785,0,0,0,0,0,0,0,0,
0,0,0,0,0,0,0,0,0,0,0,0,0,0,0,0,
0,0,0,0,0,0,0,0,0,0,0,0,0,0,0,0,
0,0,0,0,0,0,0,0,0,0,0,0,0,0,0,0,
0,0,0,0,0,0,0,0,0,0,0,0,0,0,0,0,
0,0,0,0,0,0,0,0,0,0,0,0,0,0,0,0,
0,0,0,0,0,0,0,0,0,0,0,0,0,0,0,0,
0,2786,0,0,2787,0,0,0,0,0,0,0,0,0,0,0
</chunk>
   <chunk x="16" y="16" width="16" height="16">
0,0,0,0,0,0,0,0,0,0,0,0,0,0,0,0,
0,0,0,0,0,0,0,0,0,0,0,0,0,0,0,0,
0,0,0,0,0,0,0,0,0,0,0,0,0,0,0,0,
0,0,0,0,0,0,0,0,0,0,0,0,0,0,0,0,
0,0,0,0,0,0,0,0,0,0,0,0,0,0,0,0,
0,0,0,0,0,0,0,0,0,0,0,0,0,0,0,0,
0,0,0,0,0,0,0,0,0,0,0,0,0,0,0,0,
0,0,0,0,0,0,0,0,0,2786,0,0,2787,0,0,0,
0,0,0,0,0,0,0,0,0,0,0,0,0,0,0,2785,
0,0,0,0,0,0,0,0,0,0,0,0,0,0,0,0,
0,0,0,0,0,0,0,0,0,0,0,0,0,0,0,0,
0,0,0,0,0,0,0,0,0,0,0,0,0,0,0,0,
0,0,0,0,0,0,0,0,0,0,0,0,0,0,0,0,
0,0,0,0,0,0,0,0,0,0,0,0,0,0,0,0,
0,0,0,0,0,0,0,0,0,0,0,0,0,0,0,0,
0,0,0,0,0,0,0,0,0,0,0,0,0,0,0,0
</chunk>
   <chunk x="32" y="16" width="16" height="16">
0,0,0,0,0,0,0,0,0,0,0,0,0,0,0,0,
0,0,0,0,0,0,0,0,0,0,0,0,0,0,0,0,
0,0,0,0,0,0,0,0,0,0,0,0,0,0,0,0,
0,0,0,0,0,0,0,0,0,0,0,0,0,0,0,0,
0,0,0,0,0,0,0,0,0,0,0,0,0,0,0,0,
0,0,0,0,0,0,0,0,0,0,0,0,0,0,0,0,
0,0,0,0,0,0,0,0,0,0,0,0,0,0,0,0,
0,0,0,0,2787,0,0,0,0,0,0,0,0,0,0,0,
0,0,0,0,0,0,0,2785,0,0,0,0,0,0,0,0,
0,0,0,0,0,0,0,0,0,0,0,0,0,0,0,0,
0,0,0,0,0,0,0,0,0,0,0,0,0,0,0,0,
0,0,0,0,0,0,0,0,0,0,0,0,0,0,0,0,
0,0,0,0,0,0,0,0,0,0,0,0,0,0,0,0,
0,0,0,0,0,0,0,0,0,0,0,0,0,0,0,0,
0,0,0,0,0,0,0,0,0,0,0,0,0,0,0,0,
0,0,0,0,0,0,0,0,0,0,0,0,0,0,0,0
</chunk>
   <chunk x="-96" y="32" width="16" height="16">
0,0,0,0,0,0,0,0,0,0,0,0,0,0,0,2785,
0,0,0,0,0,0,0,0,0,0,0,0,0,0,0,0,
0,0,0,0,0,0,0,0,0,0,0,0,0,0,0,0,
0,0,0,0,0,0,0,0,0,0,0,0,0,0,0,0,
0,0,0,0,0,0,0,0,0,0,0,0,0,0,0,0,
0,0,0,0,0,0,0,0,0,0,0,0,0,0,0,0,
0,0,0,0,0,0,0,0,0,0,0,0,0,0,0,0,
0,0,0,0,0,0,0,0,0,0,0,0,0,0,0,0,
0,0,0,0,0,0,0,0,0,0,0,0,0,0,0,2785,
0,0,0,0,0,0,0,0,0,0,0,0,0,0,0,0,
0,0,0,0,0,0,0,0,0,0,0,0,0,0,0,0,
0,0,0,0,0,0,0,0,0,0,0,0,0,0,0,0,
0,0,0,0,0,0,0,0,0,0,0,0,0,0,0,0,
0,0,0,0,0,0,0,0,0,0,0,0,0,0,0,0,
0,0,0,0,0,0,0,0,0,0,0,0,0,0,0,0,
0,0,0,0,0,0,0,0,0,0,0,0,0,0,0,0
</chunk>
   <chunk x="-80" y="32" width="16" height="16">
0,0,0,0,0,0,0,2785,0,0,0,0,0,0,0,0,
0,0,0,0,0,0,0,0,0,0,0,0,0,0,0,0,
0,0,0,0,0,0,0,0,0,0,0,0,0,0,0,0,
0,0,0,0,0,0,0,0,0,0,0,0,0,0,0,0,
0,0,0,0,0,0,0,0,0,0,0,0,0,0,0,0,
0,0,0,0,0,0,0,0,0,0,0,0,0,0,0,0,
0,0,0,0,0,0,0,0,0,0,0,0,0,0,0,0,
0,0,0,0,0,0,0,0,0,0,0,0,0,0,0,0,
0,0,0,0,0,0,0,0,0,0,0,0,0,0,0,0,
0,0,0,0,0,0,0,0,0,0,0,0,0,0,0,0,
0,0,0,0,0,0,0,0,0,0,0,0,0,0,0,0,
0,0,0,0,0,0,0,0,0,0,0,0,0,0,0,0,
0,0,0,0,0,0,0,0,0,0,0,0,0,0,0,0,
0,0,0,0,0,0,0,0,0,0,0,0,0,0,0,0,
0,0,0,0,0,0,0,0,0,0,0,0,0,0,0,0,
0,0,0,0,0,0,0,0,0,0,0,0,0,0,0,0
</chunk>
   <chunk x="-64" y="32" width="16" height="16">
0,0,0,0,0,0,0,0,0,0,0,0,0,0,0,2785,
0,0,0,0,0,0,0,0,0,0,0,0,0,0,0,0,
0,0,0,0,0,0,0,0,0,0,0,0,0,0,0,0,
0,0,0,0,0,0,0,0,0,0,0,0,0,0,0,0,
0,0,0,0,0,0,0,0,0,0,0,0,0,0,0,0,
0,0,0,0,0,0,0,0,0,0,0,0,0,0,0,0,
0,0,0,0,0,0,0,0,0,0,0,0,0,0,0,0,
0,2786,0,0,2787,0,0,0,0,0,0,0,0,0,0,0,
0,0,0,0,0,0,0,2785,0,0,0,0,0,0,0,2785,
0,0,0,0,0,0,0,0,0,0,0,0,0,0,0,0,
0,0,0,0,0,0,0,0,0,0,0,0,0,0,0,0,
0,0,0,0,0,0,0,0,0,0,0,0,0,0,0,0,
2787,0,0,0,0,0,0,0,0,0,0,0,0,0,0,0,
0,0,0,0,0,0,0,0,0,0,0,0,0,0,0,0,
0,0,0,0,0,0,0,0,0,0,0,0,0,0,0,0,
0,0,0,0,0,0,0,0,0,0,0,0,0,0,0,0
</chunk>
   <chunk x="-48" y="32" width="16" height="16">
0,0,0,0,0,0,0,0,0,0,0,0,0,0,0,0,
0,0,0,0,0,0,0,0,0,0,0,0,0,0,0,0,
0,0,0,0,0,0,0,0,0,0,0,0,0,0,0,0,
0,0,0,0,0,0,0,0,0,0,0,0,0,0,0,0,
0,0,0,0,0,0,0,0,0,0,0,0,0,0,0,0,
0,0,0,0,0,0,0,0,0,0,0,0,0,0,0,0,
0,0,0,0,0,0,0,0,0,0,0,0,0,0,0,0,
0,0,0,0,0,0,0,0,0,0,0,0,0,0,0,0,
0,0,0,0,0,0,0,0,0,0,0,0,0,0,0,0,
0,0,0,0,0,0,0,0,0,0,0,0,0,0,0,0,
0,0,0,0,0,0,0,0,0,0,0,0,0,0,0,0,
0,0,0,0,0,0,0,0,0,0,0,0,0,0,0,0,
0,0,0,0,0,0,0,0,0,0,0,0,0,0,0,0,
0,0,0,2785,0,0,0,0,0,0,0,0,0,0,0,0,
0,0,0,0,0,0,0,0,0,0,0,0,0,0,0,0,
0,2786,0,0,0,0,0,0,0,2786,0,0,2787,0,0,0
</chunk>
   <chunk x="-32" y="32" width="16" height="16">
0,0,0,0,0,0,0,0,0,0,0,0,0,0,0,2785,
0,0,0,0,0,0,0,0,0,0,0,0,0,0,0,0,
0,0,0,0,0,0,0,0,0,0,0,0,0,0,0,0,
0,0,0,0,0,0,0,0,0,0,0,0,0,0,0,0,
0,0,0,0,0,0,0,0,0,0,0,0,0,0,0,0,
0,0,0,0,0,0,0,0,0,0,0,0,0,0,0,0,
0,0,0,0,0,0,0,0,0,0,0,0,0,0,0,0,
0,0,0,0,0,0,0,0,0,0,0,0,0,0,0,0,
0,0,0,0,0,0,0,0,0,0,0,0,0,0,0,0,
0,0,0,0,0,0,0,0,0,0,0,0,0,0,0,0,
0,0,0,0,0,0,0,0,0,0,0,0,0,0,0,0,
0,0,0,0,0,0,0,0,0,0,0,0,0,0,0,0,
0,0,0,0,0,0,0,0,0,0,0,0,0,0,0,0,
0,0,0,0,0,0,0,0,0,0,0,0,0,0,0,0,
0,0,0,0,0,0,0,0,0,0,0,0,0,0,0,0,
0,2786,0,0,0,0,0,0,0,0,0,0,0,0,0,0
</chunk>
   <chunk x="-16" y="32" width="16" height="16">
0,0,0,0,0,0,0,0,0,0,0,0,0,0,0,0,
0,0,0,0,0,0,0,0,0,0,0,0,0,0,0,0,
0,0,0,0,0,0,0,0,0,0,0,0,0,0,0,0,
0,0,0,0,0,0,0,0,0,0,0,0,0,0,0,0,
0,0,0,0,0,0,0,0,0,0,0,0,0,0,0,0,
0,0,0,0,0,0,0,0,0,0,0,0,0,0,0,0,
0,0,0,0,0,0,0,0,0,0,0,0,0,0,0,0,
0,0,0,0,0,0,0,0,0,0,0,0,0,0,0,0,
0,0,0,0,0,0,0,0,0,0,0,0,0,0,0,0,
0,0,0,0,0,0,0,0,0,0,0,0,0,0,0,0,
0,0,0,0,0,0,0,0,0,0,0,0,0,0,0,0,
0,0,0,0,0,0,0,0,0,0,0,0,0,0,0,0,
0,0,0,0,0,0,0,0,0,0,0,0,0,0,0,0,
0,0,0,0,0,0,0,0,0,0,0,0,0,0,0,0,
0,0,0,0,0,0,0,0,0,0,0,0,0,0,0,0,
0,2786,0,0,2787,0,0,0,0,0,0,0,0,0,0,0
</chunk>
   <chunk x="0" y="32" width="16" height="16">
0,0,0,0,0,0,0,2785,0,0,0,0,0,0,0,2785,
0,0,0,0,0,0,0,0,0,0,0,0,0,0,0,0,
0,0,0,0,0,0,0,0,0,0,0,0,0,0,0,0,
0,0,0,0,0,0,0,0,0,0,0,0,0,0,0,0,
2787,0,0,0,0,0,0,0,0,0,0,0,0,0,0,0,
0,0,0,0,0,0,0,0,0,0,0,0,0,0,0,0,
0,0,0,0,0,0,0,0,0,0,0,0,0,0,0,0,
0,0,0,0,0,0,0,0,0,0,0,0,0,0,0,0,
0,0,0,0,0,0,0,2785,0,0,0,0,0,0,0,2785,
0,0,0,0,0,0,0,0,0,0,0,0,0,0,0,0,
0,0,0,0,0,0,0,0,0,0,0,0,0,0,0,0,
0,0,0,0,0,0,0,0,0,0,0,0,0,0,0,0,
0,0,0,0,0,0,0,0,0,0,0,0,0,0,0,0,
0,0,0,0,0,0,0,0,0,0,0,0,0,0,0,0,
0,0,0,0,0,0,0,0,0,0,0,0,0,0,0,0,
0,0,0,0,0,0,0,0,0,0,0,0,0,0,0,0
</chunk>
   <chunk x="16" y="32" width="16" height="16">
0,0,0,0,0,0,0,2785,0,0,0,0,0,0,0,2785,
0,0,0,0,0,0,0,0,0,0,0,0,0,0,0,0,
0,0,0,0,0,0,0,0,0,0,0,0,0,0,0,0,
0,0,0,0,0,0,0,0,0,0,0,0,0,0,0,0,
0,0,0,0,0,0,0,0,0,0,0,0,0,0,0,0,
0,0,0,0,0,0,0,0,0,0,0,0,0,0,0,0,
0,0,0,0,0,0,0,0,0,0,0,0,0,0,0,0,
0,0,0,0,0,0,0,0,0,0,0,0,0,0,0,0,
0,0,0,0,0,0,0,2785,0,0,0,0,0,0,0,2785,
0,0,0,0,0,0,0,0,0,0,0,0,0,0,0,0,
0,0,0,0,0,0,0,0,0,0,0,0,0,0,0,0,
0,0,0,0,0,0,0,0,0,0,0,0,0,0,0,0,
0,0,0,0,0,0,0,0,0,0,0,0,0,0,0,0,
0,0,0,0,0,0,0,0,0,0,0,0,0,0,0,0,
0,0,0,0,0,0,0,0,0,0,0,0,0,0,0,0,
0,0,0,0,0,0,0,0,0,0,0,0,0,0,0,0
</chunk>
   <chunk x="32" y="32" width="16" height="16">
0,0,0,0,0,0,0,2785,0,0,0,0,0,0,0,0,
0,0,0,0,0,0,0,0,0,0,0,0,0,0,0,0,
0,0,0,0,0,0,0,0,0,0,0,0,0,0,0,0,
0,0,0,0,0,0,0,0,0,0,0,0,0,0,0,0,
0,0,0,0,0,0,0,0,0,0,0,0,0,0,0,0,
0,0,0,0,0,0,0,0,0,0,0,0,0,0,0,0,
0,0,0,0,0,0,0,0,0,0,0,0,0,0,0,0,
0,0,0,0,0,0,0,0,0,0,0,0,0,0,0,0,
0,0,0,0,0,0,0,2785,0,0,0,0,0,0,0,2785,
0,0,0,0,0,0,0,0,0,0,0,0,0,0,0,0,
0,0,0,0,0,0,0,0,0,0,0,0,0,0,0,0,
0,0,0,0,0,0,0,0,0,0,0,0,0,0,0,0,
0,0,0,0,0,0,0,0,2787,0,0,0,0,0,0,0,
0,0,0,2785,0,0,0,0,0,0,0,0,0,0,0,0,
0,0,0,0,0,0,0,0,0,0,0,0,0,0,0,0,
0,2786,0,0,0,0,0,0,0,0,0,0,0,0,0,0
</chunk>
   <chunk x="48" y="32" width="16" height="16">
0,0,0,0,0,0,0,0,0,0,0,0,0,0,0,0,
0,0,0,0,0,0,0,0,0,0,0,0,0,0,0,0,
0,0,0,0,0,0,0,0,0,0,0,0,0,0,0,0,
0,0,0,0,0,0,0,0,0,0,0,0,0,0,0,0,
0,0,0,0,0,0,0,0,0,0,0,0,0,0,0,0,
0,0,0,0,0,0,0,0,0,0,0,0,0,0,0,0,
0,0,0,0,0,0,0,0,0,0,0,0,0,0,0,0,
0,0,0,0,0,0,0,0,0,0,0,0,0,0,0,0,
0,0,0,0,0,0,0,2785,0,0,0,0,0,0,0,0,
0,0,0,0,0,0,0,0,0,0,0,0,0,0,0,0,
0,0,0,0,0,0,0,0,0,0,0,0,0,0,0,0,
0,0,0,0,0,0,0,0,0,0,0,0,0,0,0,0,
0,0,0,0,0,0,0,0,0,0,0,0,0,0,0,0,
0,0,0,0,0,0,0,0,0,0,0,0,0,0,0,0,
0,0,0,0,0,0,0,0,0,0,0,0,0,0,0,0,
0,0,0,0,0,0,0,0,0,0,0,0,0,0,0,0
</chunk>
   <chunk x="64" y="32" width="16" height="16">
0,0,0,0,0,0,0,0,0,0,0,0,0,0,0,0,
0,0,0,0,0,0,0,0,0,0,0,0,0,0,0,0,
0,0,0,0,0,0,0,0,0,0,0,0,0,0,0,0,
0,0,0,0,0,0,0,0,0,0,0,0,0,0,0,0,
0,0,0,0,0,0,0,0,0,0,0,0,0,0,0,0,
0,0,0,0,0,0,0,0,0,0,0,0,0,0,0,0,
0,0,0,0,0,0,0,0,0,0,0,0,0,0,0,0,
0,0,0,0,0,0,0,0,0,0,0,0,0,0,0,0,
0,0,0,0,0,0,0,0,0,0,0,0,0,0,0,0,
0,0,0,0,0,0,0,0,0,0,0,0,0,0,0,0,
0,0,0,0,0,0,0,0,0,0,0,0,0,0,0,0,
0,0,0,0,0,0,0,0,0,0,0,0,0,0,0,0,
0,0,0,0,0,0,0,0,0,0,0,0,0,0,0,0,
0,0,0,0,0,0,0,0,0,0,0,0,0,0,0,0,
0,0,0,0,0,0,0,0,0,0,0,0,0,0,0,0,
0,2786,0,0,0,0,0,0,0,0,0,0,0,0,0,0
</chunk>
   <chunk x="-96" y="48" width="16" height="16">
0,0,0,0,0,0,0,0,0,0,0,0,0,0,0,2785,
0,0,0,0,0,0,0,0,0,0,0,0,0,0,0,0,
0,0,0,0,0,0,0,0,0,0,0,0,0,0,0,0,
0,0,0,0,0,0,0,0,0,0,0,0,0,0,0,0,
0,0,0,0,0,0,0,0,0,0,0,0,0,0,0,0,
0,0,0,0,0,0,0,0,0,0,0,0,0,0,0,0,
0,0,0,0,0,0,0,0,0,0,0,0,0,0,0,0,
0,0,0,0,0,0,0,0,0,0,0,0,0,0,0,0,
0,0,0,0,0,0,0,0,0,0,0,0,0,0,0,2785,
0,0,0,0,0,0,0,0,0,0,0,0,0,0,0,0,
0,0,0,0,0,0,0,0,0,0,0,0,0,0,0,0,
0,0,0,0,0,0,0,0,0,0,0,0,0,0,0,0,
0,0,0,0,0,0,0,0,2787,0,0,0,0,0,0,0,
0,0,0,0,0,0,0,0,0,0,0,0,0,0,0,0,
0,0,0,0,0,0,0,0,0,0,0,0,0,0,0,0,
0,0,0,0,0,0,0,0,0,0,0,0,0,0,0,0
</chunk>
   <chunk x="-80" y="48" width="16" height="16">
0,0,0,0,0,0,0,2785,0,0,0,0,0,0,0,0,
0,0,0,0,0,0,0,0,0,0,0,0,0,0,0,0,
0,0,0,0,0,0,0,0,0,0,0,0,0,0,0,0,
0,0,0,0,0,0,0,0,0,0,0,0,0,0,0,0,
0,0,0,0,0,0,0,0,0,0,0,0,0,0,0,0,
0,0,0,0,0,0,0,0,0,0,0,2785,0,0,0,0,
0,0,0,0,0,0,0,0,0,0,0,0,0,0,0,0,
0,0,0,0,0,0,0,0,0,2786,0,0,0,0,0,0,
0,0,0,0,0,0,0,2785,0,0,0,0,0,0,0,0,
0,0,0,0,0,0,0,0,0,0,0,0,0,0,0,0,
0,0,0,0,0,0,0,0,0,0,0,0,0,0,0,0,
0,0,0,0,0,0,0,0,0,0,0,0,0,0,0,0,
0,0,0,0,0,0,0,0,0,0,0,0,0,0,0,0,
0,0,0,0,0,0,0,0,0,0,0,0,0,0,0,0,
0,0,0,0,0,0,0,0,0,0,0,0,0,0,0,0,
0,0,0,0,0,0,0,0,0,0,0,0,0,0,0,0
</chunk>
   <chunk x="-64" y="48" width="16" height="16">
0,0,0,0,0,0,0,2785,0,0,0,0,0,0,0,2785,
0,0,0,0,0,0,0,0,0,0,0,0,0,0,0,0,
0,0,0,0,0,0,0,0,0,0,0,0,0,0,0,0,
0,0,0,0,0,0,0,0,0,0,0,0,0,0,0,0,
2787,0,0,0,0,0,0,0,0,0,0,0,0,0,0,0,
0,0,0,0,0,0,0,0,0,0,0,0,0,0,0,0,
0,0,0,0,0,0,0,0,0,0,0,0,0,0,0,0,
0,0,0,0,0,0,0,0,0,0,0,0,0,0,0,0,
0,0,0,0,0,0,0,2785,0,0,0,0,0,0,0,2785,
0,0,0,0,0,0,0,0,0,0,0,0,0,0,0,0,
0,0,0,0,0,0,0,0,0,0,0,0,0,0,0,0,
0,0,0,0,0,0,0,0,0,0,0,0,0,0,0,0,
2787,0,0,0,0,0,0,0,0,0,0,0,0,0,0,0,
0,0,0,2785,0,0,0,0,0,0,0,0,0,0,0,0,
0,0,0,0,0,0,0,0,0,0,0,0,0,0,0,0,
0,0,0,0,2787,0,0,0,0,0,0,0,0,0,0,0
</chunk>
   <chunk x="-48" y="48" width="16" height="16">
0,0,0,0,0,0,0,0,0,0,0,0,0,0,0,2785,
0,0,0,0,0,0,0,0,0,0,0,0,0,0,0,0,
0,0,0,0,0,0,0,0,0,0,0,0,0,0,0,0,
0,0,0,0,0,0,0,0,0,0,0,0,0,0,0,0,
0,0,0,0,0,0,0,0,0,0,0,0,0,0,0,0,
0,0,0,0,0,0,0,0,0,0,0,0,0,0,0,0,
0,0,0,0,0,0,0,0,0,0,0,0,0,0,0,0,
0,0,0,0,0,0,0,0,0,0,0,0,0,0,0,0,
0,0,0,0,0,0,0,2785,0,0,0,0,0,0,0,2785,
0,0,0,0,0,0,0,0,0,0,0,0,0,0,0,0,
0,0,0,0,0,0,0,0,0,0,0,0,0,0,0,0,
0,0,0,0,0,0,0,0,0,0,0,0,0,0,0,0,
0,0,0,0,0,0,0,0,0,0,0,0,0,0,0,0,
0,0,0,0,0,0,0,0,0,0,0,0,0,0,0,0,
0,0,0,0,0,0,0,0,0,0,0,0,0,0,0,0,
0,0,0,0,0,0,0,0,0,0,0,0,0,0,0,0
</chunk>
   <chunk x="-32" y="48" width="16" height="16">
0,0,0,0,0,0,0,0,0,0,0,0,0,0,0,0,
0,0,0,0,0,0,0,0,0,0,0,0,0,0,0,0,
0,0,0,0,0,0,0,0,0,0,0,0,0,0,0,0,
0,0,0,0,0,0,0,0,0,0,0,0,0,0,0,0,
0,0,0,0,0,0,0,0,0,0,0,0,0,0,0,0,
0,0,0,0,0,0,0,0,0,0,0,0,0,0,0,0,
0,0,0,0,0,0,0,0,0,0,0,0,0,0,0,0,
0,0,0,0,0,0,0,0,0,0,0,0,2787,0,0,0,
0,0,0,0,0,0,0,2785,0,0,0,0,0,0,0,2785,
0,0,0,0,0,0,0,0,0,0,0,0,0,0,0,0,
0,0,0,0,0,0,0,0,0,0,0,0,0,0,0,0,
0,0,0,0,0,0,0,0,0,0,0,0,0,0,0,0,
0,0,0,0,0,0,0,0,0,0,0,0,0,0,0,0,
0,0,0,0,0,0,0,0,0,0,0,0,0,0,0,0,
0,0,0,0,0,0,0,0,0,0,0,0,0,0,0,0,
0,0,0,0,2787,0,0,0,0,0,0,0,0,0,0,0
</chunk>
   <chunk x="-16" y="48" width="16" height="16">
0,0,0,0,0,0,0,2785,0,0,0,0,0,0,0,2785,
0,0,0,0,0,0,0,0,0,0,0,0,0,0,0,0,
0,0,0,0,0,0,0,0,0,0,0,0,0,0,0,0,
0,0,0,0,0,0,0,0,0,0,0,0,0,0,0,0,
0,0,0,0,0,0,0,0,0,0,0,0,0,0,0,0,
0,0,0,0,0,0,0,0,0,0,0,0,0,0,0,0,
0,0,0,0,0,0,0,0,0,0,0,0,0,0,0,0,
0,0,0,0,0,0,0,0,0,0,0,0,0,0,0,0,
0,0,0,0,0,0,0,2785,0,0,0,0,0,0,0,2785,
0,0,0,0,0,0,0,0,0,0,0,0,0,0,0,0,
0,0,0,0,0,0,0,0,0,0,0,0,0,0,0,0,
0,0,0,0,0,0,0,0,0,0,0,0,0,0,0,0,
0,0,0,0,0,0,0,0,0,0,0,0,0,0,0,0,
0,0,0,0,0,0,0,0,0,0,0,2785,0,0,0,0,
0,0,0,0,0,0,0,0,0,0,0,0,0,0,0,0,
0,0,0,0,0,0,0,0,0,0,0,0,2787,0,0,0
</chunk>
   <chunk x="0" y="48" width="16" height="16">
0,0,0,0,0,0,0,2785,0,0,0,0,0,0,0,2785,
0,0,0,0,0,0,0,0,0,0,0,0,0,0,0,0,
0,0,0,0,0,0,0,0,0,0,0,0,0,0,0,0,
0,0,0,0,0,0,0,0,0,0,0,0,0,0,0,0,
0,0,0,0,0,0,0,0,0,0,0,0,0,0,0,0,
0,0,0,0,0,0,0,0,0,0,0,2785,0,0,0,0,
0,0,0,0,0,0,0,0,0,0,0,0,0,0,0,0,
0,0,0,0,0,0,0,0,0,0,0,0,2787,0,0,0,
0,0,0,0,0,0,0,2785,0,0,0,0,0,0,0,2785,
0,0,0,0,0,0,0,0,0,0,0,0,0,0,0,0,
0,0,0,0,0,0,0,0,0,0,0,0,0,0,0,0,
0,0,0,0,0,0,0,0,0,0,0,0,0,0,0,0,
0,0,0,0,0,0,0,0,0,0,0,0,0,0,0,0,
0,0,0,2785,0,0,0,0,0,0,0,0,0,0,0,0,
0,0,0,0,0,0,0,0,0,0,0,0,0,0,0,0,
0,2786,0,0,0,0,0,0,0,0,0,0,0,0,0,0
</chunk>
   <chunk x="16" y="48" width="16" height="16">
0,0,0,0,0,0,0,2785,0,0,0,0,0,0,0,2785,
0,0,0,0,0,0,0,0,0,0,0,0,0,0,0,0,
0,0,0,0,0,0,0,0,0,0,0,0,0,0,0,0,
0,0,0,0,0,0,0,0,0,0,0,0,0,0,0,0,
0,0,0,0,0,0,0,0,0,0,0,0,0,0,0,0,
0,0,0,2785,0,0,0,0,0,0,0,2785,0,0,0,0,
0,0,0,0,0,0,0,0,0,0,0,0,0,0,0,0,
0,0,0,0,2787,0,0,0,0,2786,0,0,0,0,0,0,
0,0,0,0,0,0,0,2785,0,0,0,0,0,0,0,0,
0,0,0,0,0,0,0,0,0,0,0,0,0,0,0,0,
0,0,0,0,0,0,0,0,0,0,0,0,0,0,0,0,
0,0,0,0,0,0,0,0,0,0,0,0,0,0,0,0,
0,0,0,0,0,0,0,0,0,0,0,0,0,0,0,0,
0,0,0,0,0,0,0,0,0,0,0,0,0,0,0,0,
0,0,0,0,0,0,0,0,0,0,0,0,0,0,0,0,
0,0,0,0,0,0,0,0,0,2786,0,0,2787,0,0,0
</chunk>
   <chunk x="32" y="48" width="16" height="16">
0,0,0,0,0,0,0,0,0,0,0,0,0,0,0,2785,
0,0,0,0,0,0,0,0,0,0,0,0,0,0,0,0,
0,0,0,0,0,0,0,0,0,0,0,0,0,0,0,0,
0,0,0,0,0,0,0,0,0,0,0,0,0,0,0,0,
0,0,0,0,0,0,0,0,2787,0,0,0,0,0,0,0,
0,0,0,0,0,0,0,0,0,0,0,2785,0,0,0,0,
0,0,0,0,0,0,0,0,0,0,0,0,0,0,0,0,
0,0,0,0,0,0,0,0,0,0,0,0,2787,0,0,0,
0,0,0,0,0,0,0,0,0,0,0,0,0,0,0,2785,
0,0,0,0,0,0,0,0,0,0,0,0,0,0,0,0,
0,0,0,0,0,0,0,0,0,0,0,0,0,0,0,0,
0,0,0,0,0,0,0,0,0,0,0,0,0,0,0,0,
0,0,0,0,0,0,0,0,0,0,0,0,0,0,0,0,
0,0,0,0,0,0,0,0,0,0,0,0,0,0,0,0,
0,0,0,0,0,0,0,0,0,0,0,0,0,0,0,0,
0,0,0,0,0,0,0,0,0,0,0,0,0,0,0,0
</chunk>
   <chunk x="48" y="48" width="16" height="16">
0,0,0,0,0,0,0,2785,0,0,0,0,0,0,0,2785,
0,0,0,0,0,0,0,0,0,0,0,0,0,0,0,0,
0,0,0,0,0,0,0,0,0,0,0,0,0,0,0,0,
0,0,0,0,0,0,0,0,0,0,0,0,0,0,0,0,
0,0,0,0,0,0,0,0,0,0,0,0,0,0,0,0,
0,0,0,0,0,0,0,0,0,0,0,0,0,0,0,0,
0,0,0,0,0,0,0,0,0,0,0,0,0,0,0,0,
0,0,0,0,0,0,0,0,0,0,0,0,0,0,0,0,
0,0,0,0,0,0,0,0,0,0,0,0,0,0,0,0,
0,0,0,0,0,0,0,0,0,0,0,0,0,0,0,0,
0,0,0,0,0,0,0,0,0,0,0,0,0,0,0,0,
0,0,0,0,0,0,0,0,0,0,0,0,0,0,0,0,
2787,0,0,0,0,0,0,0,0,0,0,0,0,0,0,0,
0,0,0,2785,0,0,0,0,0,0,0,0,0,0,0,0,
0,0,0,0,0,0,0,0,0,0,0,0,0,0,0,0,
0,0,0,0,2787,0,0,0,0,0,0,0,0,0,0,0
</chunk>
   <chunk x="-96" y="64" width="16" height="16">
0,0,0,0,0,0,0,0,0,0,0,0,0,0,0,2785,
0,0,0,0,0,0,0,0,0,0,0,0,0,0,0,0,
0,0,0,0,0,0,0,0,0,0,0,0,0,0,0,0,
0,0,0,0,0,0,0,0,0,0,0,0,0,0,0,0,
0,0,0,0,0,0,0,0,2787,0,0,0,0,0,0,0,
0,0,0,0,0,0,0,0,0,0,0,0,0,0,0,0,
0,0,0,0,0,0,0,0,0,0,0,0,0,0,0,0,
0,0,0,0,0,0,0,0,0,0,0,0,0,0,0,0,
0,0,0,0,0,0,0,0,0,0,0,0,0,0,0,2785,
0,0,0,0,0,0,0,0,0,0,0,0,0,0,0,0,
0,0,0,0,0,0,0,0,0,0,0,0,0,0,0,0,
0,0,0,0,0,0,0,0,0,0,0,0,0,0,0,0,
0,0,0,0,0,0,0,0,2787,0,0,0,0,0,0,0,
0,0,0,0,0,0,0,0,0,0,0,0,0,0,0,0,
0,0,0,0,0,0,0,0,0,0,0,0,0,0,0,0,
0,0,0,0,0,0,0,0,0,0,0,0,0,0,0,0
</chunk>
   <chunk x="-64" y="64" width="16" height="16">
0,0,0,0,0,0,0,2785,0,0,0,0,0,0,0,2785,
0,0,0,0,0,0,0,0,0,0,0,0,0,0,0,0,
0,0,0,0,0,0,0,0,0,0,0,0,0,0,0,0,
0,0,0,0,0,0,0,0,0,0,0,0,0,0,0,0,
0,0,0,0,0,0,0,0,2787,0,0,0,0,0,0,0,
0,0,0,0,0,0,0,0,0,0,0,0,0,0,0,0,
0,0,0,0,0,0,0,0,0,0,0,0,0,0,0,0,
0,0,0,0,0,0,0,0,0,0,0,0,0,0,0,0,
0,0,0,0,0,0,0,0,0,0,0,0,0,0,0,2785,
0,0,0,0,0,0,0,0,0,0,0,0,0,0,0,0,
0,0,0,0,0,0,0,0,0,0,0,0,0,0,0,0,
0,0,0,0,0,0,0,0,0,0,0,0,0,0,0,0,
0,0,0,0,0,0,0,0,2787,0,0,0,0,0,0,0,
0,0,0,0,0,0,0,0,0,0,0,2785,0,0,2787,0,
0,0,0,0,0,0,0,0,0,0,0,0,0,0,0,0,
0,0,0,0,0,0,0,0,0,0,0,0,0,0,0,0
</chunk>
   <chunk x="-48" y="64" width="16" height="16">
0,0,0,0,0,0,0,0,0,0,0,0,0,0,0,2785,
0,0,0,0,0,0,0,0,0,0,0,0,0,0,0,0,
0,0,0,0,0,0,0,0,0,0,0,0,0,0,0,0,
0,0,0,0,0,0,0,0,0,0,0,0,0,0,0,0,
0,0,0,0,0,0,0,0,0,0,0,0,0,0,0,0,
0,0,0,0,0,0,0,0,0,0,0,2785,0,0,0,0,
0,0,0,0,0,0,0,0,0,0,0,0,0,0,0,0,
0,0,0,0,0,0,0,0,0,2786,0,0,0,0,0,0,
0,0,0,0,0,0,0,2785,0,0,0,0,0,0,0,0,
0,0,0,0,0,0,0,0,0,0,0,0,0,0,0,0,
0,0,0,0,0,0,0,0,0,0,0,0,0,0,0,0,
0,0,0,0,0,0,0,0,0,0,0,0,0,0,0,0,
2787,0,0,0,0,0,0,0,0,0,0,0,0,0,0,0,
0,0,0,2785,0,0,0,0,0,0,0,0,0,0,0,0,
0,0,0,0,0,0,0,0,0,0,0,0,0,0,0,0,
0,0,0,0,0,0,0,0,0,0,0,0,0,0,0,0
</chunk>
   <chunk x="-32" y="64" width="16" height="16">
0,0,0,0,0,0,0,2785,0,0,0,0,0,0,0,2785,
0,0,0,0,0,0,0,0,0,0,0,0,0,0,0,0,
0,0,0,0,0,0,0,0,0,0,0,0,0,0,0,0,
0,0,0,0,0,0,0,0,0,0,0,0,0,0,0,0,
0,0,0,0,0,0,0,0,2787,0,0,0,0,0,0,0,
0,0,0,0,0,0,0,0,0,0,0,2785,0,0,2787,0,
0,0,0,0,0,0,0,0,0,0,0,0,0,0,0,0,
0,0,0,0,0,0,0,0,0,0,0,0,0,0,0,0,
0,0,0,0,0,0,0,0,0,0,0,0,0,0,0,0,
0,0,0,0,0,0,0,0,0,0,0,0,0,0,0,0,
0,0,0,0,0,0,0,0,0,0,0,0,0,0,0,0,
0,0,0,0,0,0,0,0,0,0,0,0,0,0,0,0,
0,0,0,0,0,0,0,0,0,0,0,0,0,0,0,0,
0,0,0,0,0,0,0,0,0,0,0,0,0,0,0,0,
0,0,0,0,0,0,0,0,0,0,0,0,0,0,0,0,
0,2786,0,0,2787,0,0,0,0,0,0,0,0,0,0,0
</chunk>
   <chunk x="-16" y="64" width="16" height="16">
0,0,0,0,0,0,0,2785,0,0,0,0,0,0,0,2785,
0,0,0,0,0,0,0,0,0,0,0,0,0,0,0,0,
0,0,0,0,0,0,0,0,0,0,0,0,0,0,0,0,
0,0,0,0,0,0,0,0,0,0,0,0,0,0,0,0,
2787,0,0,0,0,0,0,0,0,0,0,0,0,0,0,0,
0,0,0,2785,0,0,0,0,0,0,0,0,0,0,0,0,
0,0,0,0,0,0,0,0,0,0,0,0,0,0,0,0,
0,0,0,0,0,0,0,0,0,0,0,0,0,0,0,0,
0,0,0,0,0,0,0,0,0,0,0,0,0,0,0,0,
0,0,0,0,0,0,0,0,0,0,0,0,0,0,0,0,
0,0,0,0,0,0,0,0,0,0,0,0,0,0,0,0,
0,0,0,0,0,0,0,0,0,0,0,0,0,0,0,0,
0,0,0,0,0,0,0,0,0,0,0,0,0,0,0,0,
0,0,0,0,0,0,0,0,0,0,0,0,0,0,0,0,
0,0,0,0,0,0,0,0,0,0,0,0,0,0,0,0,
0,0,0,0,0,0,0,0,0,0,0,0,0,0,0,0
</chunk>
   <chunk x="0" y="64" width="16" height="16">
0,0,0,0,0,0,0,0,0,0,0,0,0,0,0,0,
0,0,0,0,0,0,0,0,0,0,0,0,0,0,0,0,
0,0,0,0,0,0,0,0,0,0,0,0,0,0,0,0,
0,0,0,0,0,0,0,0,0,0,0,0,0,0,0,0,
0,0,0,0,0,0,0,0,0,0,0,0,0,0,0,0,
0,0,0,0,0,0,0,0,0,0,0,0,0,0,0,0,
0,0,0,0,0,0,0,0,0,0,0,0,0,0,0,0,
0,0,0,0,0,0,0,0,0,0,0,0,0,0,0,0,
0,0,0,0,0,0,0,0,0,0,0,0,0,0,0,0,
0,0,0,0,0,0,0,0,0,0,0,0,0,0,0,0,
0,0,0,0,0,0,0,0,0,0,0,0,0,0,0,0,
0,0,0,0,0,0,0,0,0,0,0,0,0,0,0,0,
0,0,0,0,0,0,0,0,0,0,0,0,0,0,0,0,
0,0,0,0,0,0,0,0,0,0,0,0,0,0,0,0,
0,0,0,0,0,0,0,0,0,0,0,0,0,0,0,0,
0,2786,0,0,2787,0,0,0,0,0,0,0,2787,0,0,0
</chunk>
   <chunk x="16" y="64" width="16" height="16">
0,0,0,0,0,0,0,0,0,0,0,0,0,0,0,2785,
0,0,0,0,0,0,0,0,0,0,0,0,0,0,0,0,
0,0,0,0,0,0,0,0,0,0,0,0,0,0,0,0,
0,0,0,0,0,0,0,0,0,0,0,0,0,0,0,0,
0,0,0,0,0,0,0,0,2787,0,0,0,0,0,0,0,
0,0,0,0,0,0,0,0,0,0,0,2785,0,0,0,0,
0,0,0,0,0,0,0,0,0,0,0,0,0,0,0,0,
0,0,0,0,0,0,0,0,0,0,0,0,0,0,0,0,
0,0,0,0,0,0,0,0,0,0,0,0,0,0,0,2785,
0,0,0,0,0,0,0,0,0,0,0,0,0,0,0,0,
0,0,0,0,0,0,0,0,0,0,0,0,0,0,0,0,
0,0,0,0,0,0,0,0,0,0,0,0,0,0,0,0,
0,0,0,0,0,0,0,0,0,0,0,0,0,0,0,0,
0,0,0,0,0,0,0,0,0,0,0,0,0,0,0,0,
0,0,0,0,0,0,0,0,0,0,0,0,0,0,0,0,
0,0,0,0,0,0,0,0,0,0,0,0,0,0,0,0
</chunk>
   <chunk x="32" y="64" width="16" height="16">
0,0,0,0,0,0,0,0,0,0,0,0,0,0,0,0,
0,0,0,0,0,0,0,0,0,0,0,0,0,0,0,0,
0,0,0,0,0,0,0,0,0,0,0,0,0,0,0,0,
0,0,0,0,0,0,0,0,0,0,0,0,0,0,0,0,
0,0,0,0,0,0,0,0,0,0,0,0,0,0,0,0,
0,0,0,2785,0,0,0,0,0,0,0,0,0,0,0,0,
0,0,0,0,0,0,0,0,0,0,0,0,0,0,0,0,
0,0,0,0,0,0,0,0,0,2786,0,0,0,0,0,0,
0,0,0,0,0,0,0,2785,0,0,0,0,0,0,0,0,
0,0,0,0,0,0,0,0,0,0,0,0,0,0,0,0,
0,0,0,0,0,0,0,0,0,0,0,0,0,0,0,0,
0,0,0,0,0,0,0,0,0,0,0,0,0,0,0,0,
0,0,0,0,0,0,0,0,0,0,0,0,0,0,0,0,
0,0,0,0,0,0,0,0,0,0,0,0,0,0,0,0,
0,0,0,0,0,0,0,0,0,0,0,0,0,0,0,0,
0,0,0,0,0,0,0,0,0,0,0,0,0,0,0,0
</chunk>
   <chunk x="48" y="64" width="16" height="16">
0,0,0,0,0,0,0,2785,0,0,0,0,0,0,0,2785,
0,0,0,0,0,0,0,0,0,0,0,0,0,0,0,0,
0,0,0,0,0,0,0,0,0,0,0,0,0,0,0,0,
0,0,0,0,0,0,0,0,0,0,0,0,0,0,0,0,
0,0,0,0,0,0,0,0,2787,0,0,0,0,0,0,0,
0,0,0,0,0,0,0,0,0,0,0,0,0,0,0,0,
0,0,0,0,0,0,0,0,0,0,0,0,0,0,0,0,
0,0,0,0,0,0,0,0,0,0,0,0,0,0,0,0,
0,0,0,0,0,0,0,0,0,0,0,0,0,0,0,2785,
0,0,0,0,0,0,0,0,0,0,0,0,0,0,0,0,
0,0,0,0,0,0,0,0,0,0,0,0,0,0,0,0,
0,0,0,0,0,0,0,0,0,0,0,0,0,0,0,0,
0,0,0,0,0,0,0,0,2787,0,0,0,0,0,0,0,
0,0,0,0,0,0,0,0,0,0,0,0,0,0,0,0,
0,0,0,0,0,0,0,0,0,0,0,0,0,0,0,0,
0,0,0,0,0,0,0,0,0,0,0,0,0,0,0,0
</chunk>
   <chunk x="-96" y="80" width="16" height="16">
0,0,0,0,0,0,0,0,0,0,0,0,0,0,0,2785,
0,0,0,0,0,0,0,0,0,0,0,0,0,0,0,0,
0,0,0,0,0,0,0,0,0,0,0,0,0,0,0,0,
0,0,0,0,0,0,0,0,0,0,0,0,0,0,0,0,
0,0,0,0,0,0,0,0,2787,0,0,0,0,0,0,0,
0,0,0,0,0,0,0,0,0,0,0,0,0,0,0,0,
0,0,0,0,0,0,0,0,0,0,0,0,0,0,0,0,
0,0,0,0,0,0,0,0,0,0,0,0,0,0,0,0,
0,0,0,0,0,0,0,0,0,0,0,0,0,0,0,2785,
0,0,0,0,0,0,0,0,0,0,0,0,0,0,0,0,
0,0,0,0,0,0,0,0,0,0,0,0,0,0,0,0,
0,0,0,0,0,0,0,0,0,0,0,0,0,0,0,0,
0,0,0,0,0,0,0,0,2787,0,0,0,0,0,0,0,
0,0,0,0,0,0,0,0,0,0,0,0,0,0,0,0,
0,0,0,0,0,0,0,0,0,0,0,0,0,0,0,0,
0,0,0,0,0,0,0,0,0,0,0,0,0,0,0,0
</chunk>
   <chunk x="-80" y="80" width="16" height="16">
0,0,0,0,0,0,0,0,0,0,0,0,0,0,0,0,
0,0,0,0,0,0,0,0,0,0,0,0,0,0,0,0,
0,0,0,0,0,0,0,0,0,0,0,0,0,0,0,0,
0,0,0,0,0,0,0,0,0,0,0,0,0,0,0,0,
0,0,0,0,0,0,0,0,0,0,0,0,0,0,0,0,
0,0,0,0,0,0,0,0,0,0,0,0,0,0,0,0,
0,0,0,0,0,0,0,0,0,0,0,0,0,0,0,0,
0,0,0,0,0,0,0,0,0,0,0,0,0,0,0,0,
0,0,0,0,0,0,0,2785,0,0,0,0,0,0,0,2785,
0,0,0,0,0,0,0,0,0,0,0,0,0,0,0,0,
0,0,0,0,0,0,0,0,0,0,0,0,0,0,0,0,
0,0,0,0,0,0,0,0,0,0,0,0,0,0,0,0,
0,0,0,0,0,0,0,0,0,0,0,0,0,0,0,0,
0,0,0,0,0,0,0,0,0,0,0,0,0,0,0,0,
0,0,0,0,0,0,0,0,0,0,0,0,0,0,0,0,
0,0,0,0,0,0,0,0,0,0,0,0,0,0,0,0
</chunk>
   <chunk x="-64" y="80" width="16" height="16">
0,0,0,0,0,0,0,0,0,0,0,0,0,0,0,0,
0,0,0,0,0,0,0,0,0,0,0,0,0,0,0,0,
0,0,0,0,0,0,0,0,0,0,0,0,0,0,0,0,
0,0,0,0,0,0,0,0,0,0,0,0,0,0,0,0,
0,0,0,0,0,0,0,0,0,0,0,0,0,0,0,0,
0,0,0,0,0,0,0,0,0,0,0,0,0,0,0,0,
0,0,0,0,0,0,0,0,0,0,0,0,0,0,0,0,
0,0,0,0,0,0,0,0,0,0,0,0,0,0,0,0,
0,0,0,0,0,0,0,2785,0,0,0,0,0,0,0,2785,
0,0,0,0,0,0,0,0,0,0,0,0,0,0,0,0,
0,0,0,0,0,0,0,0,0,0,0,0,0,0,0,0,
0,0,0,0,0,0,0,0,0,0,0,0,0,0,0,0,
0,0,0,0,0,0,0,0,0,0,0,0,0,0,0,0,
0,0,0,0,0,0,0,0,0,0,0,0,0,0,0,0,
0,0,0,0,0,0,0,0,0,0,0,0,0,0,0,0,
0,0,0,0,0,0,0,0,0,0,0,0,0,0,0,0
</chunk>
   <chunk x="-48" y="80" width="16" height="16">
0,0,0,0,0,0,0,0,0,0,0,0,0,0,0,0,
0,0,0,0,0,0,0,0,0,0,0,0,0,0,0,0,
0,0,0,0,0,0,0,0,0,0,0,0,0,0,0,0,
0,0,0,0,0,0,0,0,0,0,0,0,0,0,0,0,
0,0,0,0,0,0,0,0,0,0,0,0,0,0,0,0,
0,0,0,0,0,0,0,0,0,0,0,0,0,0,0,0,
0,0,0,0,0,0,0,0,0,0,0,0,0,0,0,0,
0,0,0,0,0,0,0,0,0,0,0,0,2787,0,0,0,
0,0,0,0,0,0,0,2785,0,0,0,0,0,0,0,2785,
0,0,0,0,0,0,0,0,0,0,0,0,0,0,0,0,
0,0,0,0,0,0,0,0,0,0,0,0,0,0,0,0,
0,0,0,0,0,0,0,0,0,0,0,0,0,0,0,0,
0,0,0,0,0,0,0,0,0,0,0,0,0,0,0,0,
0,0,0,0,0,0,0,0,0,0,0,0,0,0,0,0,
0,0,0,0,0,0,0,0,0,0,0,0,0,0,0,0,
0,0,0,0,0,0,0,0,0,0,0,0,0,0,0,0
</chunk>
   <chunk x="-32" y="80" width="16" height="16">
0,0,0,0,0,0,0,2785,0,0,0,0,0,0,0,2785,
0,0,0,0,0,0,0,0,0,0,0,0,0,0,0,0,
0,0,0,0,0,0,0,0,0,0,0,0,0,0,0,0,
0,0,0,0,0,0,0,0,0,0,0,0,0,0,0,0,
0,0,0,0,0,0,0,0,0,0,0,0,0,0,0,0,
0,0,0,0,0,0,0,0,0,0,0,0,0,0,0,0,
0,0,0,0,0,0,0,0,0,0,0,0,0,0,0,0,
0,0,0,0,0,0,0,0,0,0,0,0,0,0,0,0,
0,0,0,0,0,0,0,2785,0,0,0,0,0,0,0,2785,
0,0,0,0,0,0,0,0,0,0,0,0,0,0,0,0,
0,0,0,0,0,0,0,0,0,0,0,0,0,0,0,0,
0,0,0,0,0,0,0,0,0,0,0,0,0,0,0,0,
0,0,0,0,0,0,0,0,0,0,0,0,0,0,0,0,
0,0,0,0,0,0,0,0,0,0,0,0,0,0,0,0,
0,0,0,0,0,0,0,0,0,0,0,0,0,0,0,0,
0,0,0,0,0,0,0,0,0,0,0,0,0,0,0,0
</chunk>
   <chunk x="-16" y="80" width="16" height="16">
0,0,0,0,0,0,0,0,0,0,0,0,0,0,0,0,
0,0,0,0,0,0,0,0,0,0,0,0,0,0,0,0,
0,0,0,0,0,0,0,0,0,0,0,0,0,0,0,0,
0,0,0,0,0,0,0,0,0,0,0,0,0,0,0,0,
0,0,0,0,0,0,0,0,0,0,0,0,0,0,0,0,
0,0,0,0,0,0,0,0,0,0,0,0,0,0,0,0,
0,0,0,0,0,0,0,0,0,0,0,0,0,0,0,0,
0,0,0,0,0,0,0,0,0,0,0,0,0,0,0,0,
0,0,0,0,0,0,0,2785,0,0,0,0,0,0,0,2785,
0,0,0,0,0,0,0,0,0,0,0,0,0,0,0,0,
0,0,0,0,0,0,0,0,0,0,0,0,0,0,0,0,
0,0,0,0,0,0,0,0,0,0,0,0,0,0,0,0,
0,0,0,0,0,0,0,0,0,0,0,0,0,0,0,0,
0,0,0,0,0,0,0,0,0,0,0,0,0,0,0,0,
0,0,0,0,0,0,0,0,0,0,0,0,0,0,0,0,
0,0,0,0,0,0,0,0,0,0,0,0,0,0,0,0
</chunk>
   <chunk x="0" y="80" width="16" height="16">
0,0,0,0,0,0,0,2785,0,0,0,0,0,0,0,2785,
0,0,0,0,0,0,0,0,0,0,0,0,0,0,0,0,
0,0,0,0,0,0,0,0,0,0,0,0,0,0,0,0,
0,0,0,0,0,0,0,0,0,0,0,0,0,0,0,0,
0,0,0,0,0,0,0,0,0,0,0,0,0,0,0,0,
0,0,0,0,0,0,0,0,0,0,0,0,0,0,0,0,
0,0,0,0,0,0,0,0,0,0,0,0,0,0,0,0,
0,0,0,0,0,0,0,0,0,0,0,0,0,0,0,0,
0,0,0,0,0,0,0,2785,0,0,0,0,0,0,0,2785,
0,0,0,0,0,0,0,0,0,0,0,0,0,0,0,0,
0,0,0,0,0,0,0,0,0,0,0,0,0,0,0,0,
0,0,0,0,0,0,0,0,0,0,0,0,0,0,0,0,
0,0,0,0,0,0,0,0,0,0,0,0,0,0,0,0,
0,0,0,0,0,0,0,0,0,0,0,0,0,0,0,0,
0,0,0,0,0,0,0,0,0,0,0,0,0,0,0,0,
0,0,0,0,0,0,0,0,0,0,0,0,0,0,0,0
</chunk>
   <chunk x="16" y="80" width="16" height="16">
0,0,0,0,0,0,0,2785,0,0,0,0,0,0,0,2785,
0,0,0,0,0,0,0,0,0,0,0,0,0,0,0,0,
0,0,0,0,0,0,0,0,0,0,0,0,0,0,0,0,
0,0,0,0,0,0,0,0,0,0,0,0,0,0,0,0,
0,0,0,0,0,0,0,0,0,0,0,0,0,0,0,0,
0,0,0,0,0,0,0,0,0,0,0,0,0,0,0,0,
0,0,0,0,0,0,0,0,0,0,0,0,0,0,0,0,
0,0,0,0,0,0,0,0,0,0,0,0,0,0,0,0,
0,0,0,0,0,0,0,2785,0,0,0,0,0,0,0,2785,
0,0,0,0,0,0,0,0,0,0,0,0,0,0,0,0,
0,0,0,0,0,0,0,0,0,0,0,0,0,0,0,0,
0,0,0,0,0,0,0,0,0,0,0,0,0,0,0,0,
0,0,0,0,0,0,0,0,0,0,0,0,0,0,0,0,
0,0,0,0,0,0,0,0,0,0,0,0,0,0,0,0,
0,0,0,0,0,0,0,0,0,0,0,0,0,0,0,0,
0,0,0,0,0,0,0,0,0,0,0,0,0,0,0,0
</chunk>
   <chunk x="32" y="80" width="16" height="16">
0,0,0,0,0,0,0,2785,0,0,0,0,0,0,0,0,
0,0,0,0,0,0,0,0,0,0,0,0,0,0,0,0,
0,0,0,0,0,0,0,0,0,0,0,0,0,0,0,0,
0,0,0,0,0,0,0,0,0,0,0,0,0,0,0,0,
0,0,0,0,0,0,0,0,0,0,0,0,0,0,0,0,
0,0,0,0,0,0,0,0,0,0,0,0,0,0,0,0,
0,0,0,0,0,0,0,0,0,0,0,0,0,0,0,0,
0,0,0,0,0,0,0,0,0,0,0,0,0,0,0,0,
0,0,0,0,0,0,0,2785,0,0,0,0,0,0,0,2785,
0,0,0,0,0,0,0,0,0,0,0,0,0,0,0,0,
0,0,0,0,0,0,0,0,0,0,0,0,0,0,0,0,
0,0,0,0,0,0,0,0,0,0,0,0,0,0,0,0,
0,0,0,0,0,0,0,0,0,0,0,0,0,0,0,0,
0,0,0,0,0,0,0,0,0,0,0,0,0,0,0,0,
0,0,0,0,0,0,0,0,0,0,0,0,0,0,0,0,
0,0,0,0,0,0,0,0,0,0,0,0,0,0,0,0
</chunk>
   <chunk x="48" y="80" width="16" height="16">
0,0,0,0,0,0,0,0,0,0,0,0,0,0,0,2785,
0,0,0,0,0,0,0,0,0,0,0,0,0,0,0,0,
0,0,0,0,0,0,0,0,0,0,0,0,0,0,0,0,
0,0,0,0,0,0,0,0,0,0,0,0,0,0,0,0,
0,0,0,0,0,0,0,0,0,0,0,0,0,0,0,0,
0,0,0,0,0,0,0,0,0,0,0,0,0,0,0,0,
0,0,0,0,0,0,0,0,0,0,0,0,0,0,0,0,
0,0,0,0,0,0,0,0,0,0,0,0,0,0,0,0,
0,0,0,0,0,0,0,2785,0,0,0,0,0,0,0,2785,
0,0,0,0,0,0,0,0,0,0,0,0,0,0,0,0,
0,0,0,0,0,0,0,0,0,0,0,0,0,0,0,0,
0,0,0,0,0,0,0,0,0,0,0,0,0,0,0,0,
0,0,0,0,0,0,0,0,0,0,0,0,0,0,0,0,
0,0,0,0,0,0,0,0,0,0,0,0,0,0,0,0,
0,0,0,0,0,0,0,0,0,0,0,0,0,0,0,0,
0,0,0,0,0,0,0,0,0,0,0,0,0,0,0,0
</chunk>
   <chunk x="64" y="80" width="16" height="16">
0,0,0,0,0,0,0,0,0,0,0,0,0,0,0,0,
0,0,0,0,0,0,0,0,0,0,0,0,0,0,0,0,
0,0,0,0,0,0,0,0,0,0,0,0,0,0,0,0,
0,0,0,0,0,0,0,0,0,0,0,0,0,0,0,0,
0,0,0,0,0,0,0,0,0,0,0,0,0,0,0,0,
0,0,0,0,0,0,0,0,0,0,0,0,0,0,0,0,
0,0,0,0,0,0,0,0,0,0,0,0,0,0,0,0,
0,0,0,0,0,0,0,0,0,0,0,0,0,0,0,0,
0,0,0,0,0,0,0,0,0,0,0,0,0,0,0,0,
0,0,0,0,0,0,0,0,0,0,0,0,0,0,0,0,
0,0,0,0,0,0,0,0,0,0,0,0,0,0,0,0,
0,0,0,0,0,0,0,0,0,0,0,0,0,0,0,0,
0,0,0,0,0,0,0,0,0,0,0,0,0,0,0,0,
0,0,0,0,0,0,0,0,0,0,0,0,0,0,0,0,
0,0,0,0,0,0,0,0,0,0,0,0,0,0,0,0,
0,2786,0,0,0,0,0,0,0,0,0,0,0,0,0,0
</chunk>
   <chunk x="32" y="96" width="16" height="16">
0,0,0,0,0,0,0,0,0,0,0,0,0,0,0,2785,
0,0,0,0,0,0,0,0,0,0,0,0,0,0,0,0,
0,0,0,0,0,0,0,0,0,0,0,0,0,0,0,0,
0,0,0,0,0,0,0,0,0,0,0,0,0,0,0,0,
0,0,0,0,0,0,0,0,0,0,0,0,0,0,0,0,
0,0,0,0,0,0,0,0,0,0,0,0,0,0,0,0,
0,0,0,0,0,0,0,0,0,0,0,0,0,0,0,0,
0,0,0,0,0,0,0,0,0,0,0,0,0,0,0,0,
0,0,0,0,0,0,0,0,0,0,0,0,0,0,0,0,
0,0,0,0,0,0,0,0,0,0,0,0,0,0,0,0,
0,0,0,0,0,0,0,0,0,0,0,0,0,0,0,0,
0,0,0,0,0,0,0,0,0,0,0,0,0,0,0,0,
0,0,0,0,0,0,0,0,0,0,0,0,0,0,0,0,
0,0,0,0,0,0,0,0,0,0,0,0,0,0,0,0,
0,0,0,0,0,0,0,0,0,0,0,0,0,0,0,0,
0,0,0,0,0,0,0,0,0,0,0,0,0,0,0,0
</chunk>
   <chunk x="48" y="96" width="16" height="16">
0,0,0,0,0,0,0,2785,0,0,0,0,0,0,0,0,
0,0,0,0,0,0,0,0,0,0,0,0,0,0,0,0,
0,0,0,0,0,0,0,0,0,0,0,0,0,0,0,0,
0,0,0,0,0,0,0,0,0,0,0,0,0,0,0,0,
0,0,0,0,0,0,0,0,0,0,0,0,0,0,0,0,
0,0,0,0,0,0,0,0,0,0,0,0,0,0,0,0,
0,0,0,0,0,0,0,0,0,0,0,0,0,0,0,0,
0,0,0,0,0,0,0,0,0,0,0,0,0,0,0,0,
0,0,0,0,0,0,0,0,0,0,0,0,0,0,0,0,
0,0,0,0,0,0,0,0,0,0,0,0,0,0,0,0,
0,0,0,0,0,0,0,0,0,0,0,0,0,0,0,0,
0,0,0,0,0,0,0,0,0,0,0,0,0,0,0,0,
0,0,0,0,0,0,0,0,0,0,0,0,0,0,0,0,
0,0,0,0,0,0,0,0,0,0,0,0,0,0,0,0,
0,0,0,0,0,0,0,0,0,0,0,0,0,0,0,0,
0,0,0,0,0,0,0,0,0,0,0,0,0,0,0,0
</chunk>
  </data>
 </layer>
 <layer id="9" name="Above1" width="30" height="20">
  <data encoding="csv">
   <chunk x="-32" y="-48" width="16" height="16">
0,0,0,0,0,0,0,0,0,0,0,0,0,0,0,0,
0,0,0,0,0,0,0,0,0,2171,2171,2139,0,0,0,0,
0,0,0,0,0,0,0,0,0,2203,2203,2203,0,0,0,0,
0,0,0,0,0,0,0,0,0,2235,2235,2235,0,0,0,2171,
0,0,0,0,0,0,0,0,0,2203,2203,2203,0,0,0,2203,
0,0,0,0,0,0,0,0,2267,2235,2235,2235,2147485915,0,0,2235,
0,0,0,0,0,0,0,0,2299,0,0,0,2147485947,0,0,2203,
0,0,0,0,0,0,0,0,0,0,0,0,0,0,2267,2235,
0,0,0,0,0,0,0,0,0,0,0,0,0,0,2299,0,
0,0,0,0,0,0,0,0,0,0,0,0,0,0,0,0,
0,0,0,0,0,0,0,0,0,0,0,0,0,0,0,0,
0,0,0,0,0,0,0,0,0,0,0,0,0,0,0,0,
0,0,0,0,0,0,0,0,0,0,0,0,0,0,0,0,
0,0,0,0,0,0,0,0,0,0,0,0,0,0,0,0,
0,0,0,0,0,0,0,0,0,0,0,0,0,0,0,0,
0,0,0,0,0,0,0,0,0,0,0,0,0,0,0,0
</chunk>
   <chunk x="-16" y="-48" width="16" height="16">
0,0,0,0,0,0,0,0,0,0,0,0,0,0,0,0,
0,0,0,0,0,0,0,0,0,0,0,0,0,0,0,0,
0,0,0,0,0,0,0,0,0,0,0,0,0,0,0,0,
2171,0,0,0,0,0,0,0,0,0,0,0,0,0,0,0,
2203,0,0,0,0,0,0,0,0,0,0,0,0,0,0,0,
2235,0,0,0,0,0,0,0,0,0,0,0,0,0,0,0,
2203,0,0,0,0,0,0,0,0,0,0,0,0,0,0,0,
2235,2147485915,0,0,0,0,0,0,0,0,0,0,0,0,0,0,
0,2147485947,0,0,0,0,0,0,0,0,0,0,0,0,0,0,
0,0,0,0,0,0,0,0,0,0,0,0,0,0,0,0,
0,0,0,0,0,0,0,0,0,0,0,0,0,0,0,0,
0,0,0,0,0,0,0,0,0,0,0,0,0,0,0,0,
0,0,0,0,0,0,0,0,0,0,0,0,0,0,0,0,
0,0,0,0,0,0,0,0,0,0,0,0,0,0,0,0,
0,0,0,0,0,0,0,0,0,0,0,0,0,0,0,0,
0,0,0,0,0,0,0,0,0,0,0,0,0,0,0,0
</chunk>
   <chunk x="0" y="-48" width="16" height="16">
0,0,0,0,0,0,0,0,0,0,0,0,0,0,0,0,
0,0,0,0,0,0,0,0,0,0,0,0,0,0,0,0,
0,0,0,0,0,0,0,0,0,0,0,0,0,0,0,0,
0,0,0,0,0,0,0,0,0,0,0,0,0,0,0,0,
0,0,0,0,0,0,0,0,0,0,0,0,0,0,0,0,
0,0,0,0,0,0,0,0,0,0,0,0,0,0,0,0,
0,0,0,0,0,0,0,0,0,0,0,0,0,0,0,0,
0,0,0,0,0,0,0,0,0,0,0,0,0,0,0,0,
0,0,0,0,0,0,0,0,0,0,0,0,0,0,0,0,
0,0,0,0,0,0,0,0,0,0,0,0,0,0,0,0,
0,0,0,0,0,0,0,0,0,0,0,0,0,0,0,0,
0,0,0,0,0,0,0,0,0,0,0,0,0,0,0,0,
0,0,0,0,0,0,0,0,0,0,0,0,0,0,0,0,
0,0,0,0,0,0,0,0,0,0,0,0,0,0,0,0,
0,0,0,0,0,0,0,0,0,0,0,0,0,0,0,0,
0,0,0,0,2317,2318,0,0,0,0,0,0,0,0,0,0
</chunk>
   <chunk x="-32" y="-32" width="16" height="16">
0,0,0,0,0,0,0,0,0,0,0,0,0,0,0,0,
0,0,0,0,0,0,0,0,0,0,0,0,0,0,0,0,
0,0,0,0,0,0,0,0,0,0,0,0,0,0,0,0,
0,0,0,0,0,0,0,0,0,0,0,0,0,0,0,0,
0,0,0,0,0,0,0,0,0,0,0,0,0,0,0,0,
0,0,0,0,0,0,0,0,0,0,0,0,0,0,0,0,
0,0,0,0,0,0,0,0,0,0,0,0,0,0,0,0,
0,0,0,0,0,0,0,0,0,0,0,0,0,0,0,0,
0,0,0,0,0,0,0,0,0,0,0,0,0,0,0,0,
0,0,0,0,0,0,0,0,0,0,0,0,0,0,0,0,
0,0,0,0,0,0,0,0,0,0,0,0,0,0,0,0,
0,0,0,0,0,0,0,0,0,0,0,0,0,0,0,0,
0,0,0,0,0,0,0,0,0,0,0,0,0,0,0,0,
0,0,0,0,0,0,0,0,0,0,0,0,0,0,0,0,
0,0,0,0,0,0,0,0,0,0,2354,2357,2359,0,0,0,
0,0,0,0,0,0,0,0,0,0,0,0,2390,2135,0,0
</chunk>
   <chunk x="-16" y="-32" width="16" height="16">
0,0,0,0,0,0,0,0,0,0,0,0,0,0,0,0,
0,0,0,0,0,0,0,0,0,0,0,0,0,0,0,0,
0,0,0,0,0,0,0,0,0,0,0,0,0,0,0,0,
0,0,0,0,0,0,0,0,0,0,0,0,0,0,0,0,
0,0,0,0,0,0,0,0,0,0,0,0,0,0,0,0,
0,0,0,0,0,0,0,0,0,0,0,0,0,0,0,0,
0,0,0,0,0,0,0,0,0,0,0,0,0,0,0,0,
0,0,0,0,0,0,0,0,0,0,0,0,0,0,0,0,
0,0,0,0,0,0,0,0,0,0,0,0,0,0,0,0,
0,0,0,0,0,0,0,0,0,0,0,0,0,0,0,0,
0,0,0,0,0,0,0,0,0,0,0,0,0,0,0,0,
0,0,0,0,0,0,0,0,0,0,0,0,0,0,0,0,
0,0,0,0,0,0,0,0,0,0,0,0,0,0,0,0,
0,0,0,0,0,0,0,0,0,0,0,0,0,0,0,0,
0,0,0,0,0,0,0,0,0,0,0,0,0,0,0,0,
0,0,0,2356,2359,0,0,0,0,0,0,0,0,0,0,0
</chunk>
   <chunk x="0" y="-32" width="16" height="16">
0,0,0,0,2381,2382,0,0,0,0,0,0,0,0,0,0,
0,0,0,0,0,0,0,0,0,0,0,0,0,0,0,0,
0,0,0,0,0,0,0,0,0,0,0,0,0,0,0,0,
0,0,0,0,0,0,0,0,0,0,0,0,0,0,0,0,
0,0,0,0,0,0,0,0,0,0,0,0,0,0,0,0,
0,0,0,0,0,0,0,0,0,0,0,0,0,0,0,0,
0,0,0,0,0,0,0,0,0,0,0,0,0,0,0,0,
0,0,0,0,0,0,0,0,0,0,0,0,0,0,0,0,
0,0,0,0,0,0,0,0,0,0,0,0,0,0,0,0,
0,0,0,0,0,0,0,0,0,0,0,0,0,0,0,0,
0,0,0,0,0,0,0,0,0,0,0,0,0,0,0,0,
0,0,0,0,0,0,0,0,0,0,0,0,0,0,0,0,
0,0,0,0,0,0,0,0,0,0,0,0,0,0,0,0,
0,0,0,0,0,0,0,0,0,0,0,0,0,0,0,0,
0,0,0,0,0,0,0,0,0,0,0,0,0,0,0,0,
0,0,0,0,0,0,0,0,0,0,0,0,0,0,0,0
</chunk>
   <chunk x="-64" y="-16" width="16" height="16">
0,0,0,0,0,0,0,0,0,0,0,0,0,0,0,0,
0,0,0,0,0,0,0,0,0,0,0,0,0,0,0,0,
0,0,0,0,0,0,0,0,0,0,0,0,0,0,0,0,
0,0,0,0,0,0,0,0,0,0,0,0,0,0,0,0,
0,0,0,0,0,0,0,0,0,0,0,0,0,0,0,0,
0,0,0,0,0,0,0,0,0,0,0,0,0,0,0,0,
0,0,0,0,0,0,0,0,0,0,0,0,0,0,0,0,
0,0,0,0,0,0,0,0,0,0,0,0,0,0,0,0,
0,0,0,0,0,0,0,0,0,0,0,0,0,0,0,0,
0,0,0,0,0,0,0,0,0,0,0,0,0,0,0,0,
0,0,0,0,0,0,0,0,0,0,0,0,0,0,0,0,
0,0,0,0,0,0,0,0,0,0,0,0,0,0,0,0,
0,0,0,0,0,0,0,0,0,0,0,0,0,0,0,0,
0,0,0,0,0,0,0,0,0,0,0,0,0,0,0,0,
0,0,0,0,0,0,0,0,0,0,0,0,0,0,0,0,
0,0,0,0,0,0,0,0,0,2337,0,0,0,0,0,2306
</chunk>
   <chunk x="-48" y="-16" width="16" height="16">
0,0,0,0,0,0,0,0,0,0,0,0,0,0,0,0,
0,0,0,0,0,0,0,0,0,0,0,0,0,0,0,0,
0,0,0,0,0,0,0,0,0,0,0,0,0,0,0,0,
0,0,0,0,0,0,0,0,0,0,0,0,0,0,0,0,
0,0,0,0,0,0,0,0,0,0,0,0,0,0,0,0,
0,0,0,0,0,0,0,0,0,0,0,0,0,0,0,2371,
0,0,0,0,0,0,0,0,0,0,0,0,0,0,0,0,
0,0,0,0,0,0,0,0,0,0,0,0,0,0,0,2305,
0,0,0,0,0,0,0,0,0,0,0,0,0,0,0,0,
0,0,0,0,0,0,0,0,0,0,0,0,0,0,0,0,
0,0,0,0,0,0,0,0,0,0,0,0,0,0,0,0,
0,0,0,0,0,0,0,0,0,0,0,0,0,0,0,0,
0,0,0,0,0,0,0,0,0,0,0,0,0,0,0,0,
0,0,0,0,0,0,0,0,0,0,0,0,0,0,0,0,
0,0,0,0,0,0,0,0,0,0,0,0,0,0,0,0,
0,0,0,0,0,0,0,0,0,0,0,0,0,0,0,0
</chunk>
   <chunk x="-32" y="-16" width="16" height="16">
0,0,0,0,0,0,0,0,0,0,0,0,0,2167,0,0,
0,0,0,0,0,0,0,0,0,0,0,0,0,0,0,0,
0,0,0,0,0,0,0,0,0,0,0,0,0,0,0,0,
0,0,0,0,0,0,0,0,0,0,0,0,0,0,0,0,
2340,2341,0,2338,0,0,0,0,0,0,0,0,0,0,0,0,
2372,2373,0,0,0,0,0,2337,0,0,0,0,0,0,0,0,
0,0,0,0,0,0,0,0,0,0,0,0,0,0,0,0,
0,0,2378,0,0,0,0,0,0,0,0,0,0,0,0,0,
0,2375,0,0,0,0,0,0,0,0,2369,0,0,0,2764,0,
0,2407,0,0,0,0,0,0,0,0,0,2315,0,0,0,0,
0,0,0,0,0,0,0,0,0,0,0,0,0,0,0,0,
0,0,0,0,0,0,0,0,0,0,0,0,0,0,0,0,
0,0,0,0,0,0,0,0,0,0,0,0,0,0,0,0,
0,0,0,0,0,0,2376,2377,0,0,0,0,2379,0,0,0,
0,0,0,0,0,0,2408,2409,0,0,0,0,0,0,0,0,
0,0,0,0,0,0,0,0,0,0,0,0,0,0,0,0
</chunk>
   <chunk x="-16" y="-16" width="16" height="16">
0,0,0,0,0,0,0,0,0,0,0,0,0,0,0,0,
0,0,0,0,0,0,0,0,0,0,0,0,0,0,0,0,
0,0,0,0,0,2370,0,0,0,0,0,0,0,0,0,0,
0,0,0,0,2765,2317,2318,0,0,0,0,0,0,0,0,0,
0,0,0,0,0,2349,2350,0,0,0,0,0,0,0,0,0,
0,0,0,0,0,0,0,0,0,0,0,0,0,0,0,0,
0,2306,0,0,2410,0,0,0,0,0,0,0,0,0,0,0,
0,0,0,0,0,0,0,0,0,0,0,0,0,0,0,0,
0,0,0,0,0,0,0,0,0,0,0,0,0,0,0,0,
0,0,0,0,0,0,0,0,0,0,0,0,0,0,0,0,
0,0,0,0,0,0,0,0,0,0,0,0,0,0,0,0,
0,0,0,0,0,0,0,0,0,0,0,0,0,0,0,0,
0,0,0,0,0,0,0,0,0,0,0,0,0,0,0,0,
0,0,0,0,0,0,0,0,0,0,0,0,0,0,0,0,
0,0,0,0,0,0,0,0,0,0,0,0,0,0,0,0,
0,0,0,0,0,0,0,0,0,0,0,0,0,0,0,0
</chunk>
   <chunk x="-64" y="0" width="16" height="16">
0,0,0,0,0,0,0,0,0,0,0,0,2634,0,0,0,
0,0,0,0,0,0,0,0,0,0,2406,0,0,0,0,0,
0,0,0,0,0,0,0,0,0,0,0,0,0,0,0,2339,
0,0,0,0,0,0,0,2634,0,0,0,0,0,0,0,2371,
0,0,0,0,0,0,0,0,0,0,0,0,0,2312,0,0,
0,0,0,0,0,0,0,2369,2310,0,0,0,0,2342,0,0,
0,0,0,0,0,0,2306,0,0,0,0,0,0,0,0,0,
0,0,0,0,0,0,0,0,2311,0,0,0,0,0,0,0,
0,0,0,0,0,0,0,0,0,0,0,0,2345,0,0,0,
2306,0,0,0,0,0,0,0,0,0,0,2313,0,0,0,0,
0,0,0,0,0,0,0,0,0,0,0,0,0,0,0,0,
2634,0,0,0,0,0,0,0,0,0,0,0,0,0,0,0,
0,0,0,0,0,0,0,0,0,0,0,0,0,0,0,0,
0,0,0,0,0,0,0,0,0,0,0,0,0,0,0,0,
0,0,0,0,0,0,0,0,2666,0,0,0,0,0,0,0,
0,0,0,0,0,0,0,0,0,0,0,0,0,0,0,0
</chunk>
   <chunk x="-48" y="0" width="16" height="16">
0,0,0,0,0,0,0,0,0,0,0,0,0,0,0,0,
0,0,0,0,0,0,0,0,0,0,0,0,0,0,0,0,
2126,0,0,0,0,0,0,0,0,0,0,0,0,0,0,0,
2340,0,0,0,0,0,0,0,0,0,0,0,0,0,0,0,
2372,2341,0,2369,0,0,0,0,0,0,0,0,0,0,0,0,
0,2373,0,0,0,0,0,0,0,0,0,0,0,0,0,0,
0,0,0,0,0,0,0,0,0,0,0,0,0,0,0,0,
0,0,0,0,0,0,0,0,0,0,0,0,0,0,0,0,
0,0,0,0,0,0,0,0,0,0,0,0,0,0,0,0,
0,0,0,0,0,0,0,0,2369,0,0,0,0,0,0,0,
0,0,0,0,0,0,0,0,0,0,0,0,0,0,0,0,
0,0,0,0,0,0,0,0,0,0,0,0,0,0,0,0,
0,0,0,0,0,0,0,0,0,0,0,2306,0,0,0,0,
0,0,0,0,0,0,0,0,0,0,0,0,0,0,0,0,
0,0,0,0,0,0,0,0,0,0,0,0,0,0,0,0,
0,0,0,0,0,0,0,0,0,0,0,0,0,0,0,0
</chunk>
   <chunk x="-32" y="0" width="16" height="16">
0,0,0,0,0,0,0,0,0,0,0,0,0,0,0,0,
0,0,0,0,0,0,0,0,2351,0,0,0,0,0,0,0,
0,0,0,0,0,0,0,0,0,0,0,0,0,0,0,0,
0,0,0,0,0,0,0,0,0,0,0,0,0,0,0,0,
0,0,0,0,0,0,0,0,0,0,0,0,0,0,0,0,
0,0,0,0,0,0,0,0,0,0,0,0,0,0,0,0,
0,0,0,0,0,0,0,0,0,0,0,0,0,0,0,0,
0,0,0,0,0,0,0,0,0,0,0,0,0,0,0,0,
0,0,0,0,0,0,0,0,0,0,0,0,0,0,0,0,
0,0,0,0,0,0,0,0,0,0,0,0,0,0,0,0,
0,0,0,0,0,0,0,0,0,0,0,0,0,0,0,0,
0,0,0,0,0,0,0,0,0,0,0,0,0,0,0,0,
0,0,0,0,0,0,0,0,0,0,0,0,0,0,0,0,
0,0,0,0,0,0,0,0,0,0,0,0,0,0,0,0,
0,0,0,0,0,0,0,0,0,0,0,0,0,0,0,0,
0,0,0,0,0,0,0,0,0,0,0,0,0,0,0,0
</chunk>
   <chunk x="-80" y="16" width="16" height="16">
0,0,0,0,0,0,0,0,0,0,0,0,0,0,0,2406,
0,0,0,0,0,0,0,0,0,0,0,0,0,0,0,0,
0,0,0,0,0,0,0,0,0,0,0,0,0,0,0,0,
0,0,0,0,0,0,0,0,0,0,0,0,0,0,0,0,
0,0,0,0,0,0,0,0,0,0,0,0,0,0,2369,0,
0,0,0,0,0,0,0,0,0,0,0,0,0,0,0,0,
0,0,0,0,0,0,0,0,0,0,0,0,0,0,2306,0,
0,0,0,0,0,0,0,0,0,0,0,0,0,0,0,0,
0,0,0,0,0,0,0,0,0,0,0,0,0,0,0,0,
0,0,0,0,0,0,0,0,0,0,0,0,0,0,0,0,
0,0,0,0,0,0,0,0,0,0,0,0,0,0,0,0,
0,0,0,0,0,0,0,0,0,0,0,0,0,0,0,0,
0,0,0,0,0,0,0,0,0,0,0,0,0,0,0,0,
0,0,0,0,0,0,0,0,0,0,0,0,0,0,0,0,
0,0,0,0,0,0,0,0,0,0,0,0,0,0,0,0,
0,0,0,0,0,0,0,0,0,0,0,0,2306,0,0,0
</chunk>
   <chunk x="-64" y="16" width="16" height="16">
0,0,0,0,0,0,0,0,0,0,0,0,0,0,0,0,
0,0,0,0,0,0,0,0,0,0,0,0,0,0,0,0,
0,0,0,0,0,0,0,0,0,0,0,0,0,0,0,0,
2666,0,0,0,0,0,0,0,0,0,0,0,0,0,0,0,
0,0,0,0,0,0,0,0,0,0,0,2369,0,0,0,0,
0,0,0,0,0,0,0,0,0,0,2306,0,0,0,0,0,
0,0,0,0,0,0,0,0,0,0,0,0,0,0,0,0,
0,0,0,0,0,0,0,0,0,0,0,0,0,0,0,0,
0,0,0,0,0,0,0,0,0,0,0,0,0,0,0,0,
0,0,0,0,0,0,0,0,0,0,0,0,0,0,0,0,
0,0,0,0,0,0,0,0,0,0,0,0,0,0,0,0,
0,0,0,0,0,0,0,0,0,0,0,0,0,0,0,0,
0,0,0,0,0,0,0,0,0,0,0,0,0,0,0,0,
0,0,0,0,0,0,0,0,0,0,2406,0,0,0,0,0,
0,0,0,0,0,0,0,0,0,0,2338,0,0,0,0,0,
0,0,0,0,0,0,0,0,0,0,0,0,0,0,0,0
</chunk>
   <chunk x="-48" y="16" width="16" height="16">
0,0,0,0,0,0,0,0,0,0,0,0,0,0,0,0,
0,0,0,0,0,0,0,0,0,0,0,0,0,0,0,0,
0,0,0,0,0,0,0,0,0,0,0,0,0,0,0,0,
0,0,0,0,0,0,0,0,0,0,0,0,0,0,0,0,
0,0,0,0,0,0,0,0,0,0,0,2306,0,0,0,0,
0,0,0,0,0,0,0,0,0,0,0,2634,0,0,0,0,
0,0,0,0,0,0,0,0,0,0,0,0,2637,0,0,0,
0,0,0,0,0,0,0,0,0,0,0,0,0,0,0,2369,
0,0,0,0,0,0,0,0,0,0,0,0,0,0,0,2634,
0,0,0,0,0,0,0,0,0,0,0,0,0,0,0,0,
0,0,0,0,0,0,0,0,0,0,0,0,0,0,0,0,
0,0,0,0,0,0,0,0,0,0,0,0,0,0,0,0,
0,0,0,0,0,0,2306,0,0,0,0,0,0,0,0,0,
0,0,0,0,0,0,0,0,0,0,0,0,0,0,0,0,
0,0,0,0,0,0,0,0,0,0,0,2376,2377,0,0,0,
0,0,0,0,0,0,0,0,0,0,0,2408,2409,2376,2377,0
</chunk>
   <chunk x="-32" y="16" width="16" height="16">
0,0,0,0,0,0,0,0,0,0,0,0,0,0,0,0,
0,0,0,0,0,0,0,0,0,2317,2318,0,0,0,0,0,
0,0,0,0,0,0,0,0,0,2349,2350,0,0,2523,0,0,
0,0,0,0,0,0,0,2130,2132,2135,0,0,0,0,0,0,
0,0,0,0,0,0,2130,2131,0,2167,0,0,0,0,0,0,
0,0,0,0,0,0,2162,0,0,2167,0,0,0,0,0,0,
0,0,0,0,0,0,0,2228,2229,2464,0,0,0,0,0,0,
0,0,0,0,0,0,0,2525,2526,2496,0,0,0,0,0,0,
0,0,0,2306,0,0,2555,0,2617,2618,1073744620,0,0,0,0,0,
0,0,2666,0,0,0,0,0,0,2619,2792,0,0,0,0,0,
0,0,0,0,0,0,0,2375,0,0,2796,0,0,0,0,0,
0,0,0,0,0,0,0,2407,0,0,0,0,0,0,0,0,
0,0,0,0,0,0,0,0,0,0,0,0,0,0,0,0,
0,0,0,0,0,0,0,0,2666,0,0,0,0,0,0,0,
0,0,0,0,0,0,0,0,0,0,0,0,2637,0,0,0,
0,0,0,0,0,0,0,0,0,0,0,0,0,0,0,0
</chunk>
   <chunk x="-16" y="16" width="16" height="16">
0,0,0,0,0,0,0,0,0,0,0,0,0,0,0,0,
0,0,0,0,0,0,0,0,0,0,0,0,0,0,0,0,
0,0,0,0,0,0,0,0,0,0,0,0,0,0,0,0,
0,0,0,0,0,0,0,0,0,0,0,0,0,0,0,0,
0,0,0,0,0,0,0,0,0,0,0,0,0,0,0,0,
0,0,0,0,0,0,0,0,0,0,0,0,0,0,0,0,
0,0,0,0,0,0,0,0,0,0,0,0,0,0,0,0,
0,0,0,0,0,0,0,0,0,0,0,0,0,0,2317,2318,
0,0,0,0,0,0,0,0,0,0,0,0,0,0,2349,2350,
0,0,0,0,0,0,0,0,0,0,0,0,0,0,0,0,
0,0,0,0,0,0,0,0,0,0,0,0,0,0,0,0,
0,0,0,0,0,0,0,0,0,0,0,0,0,0,0,0,
0,0,0,0,0,0,0,0,0,0,0,0,0,0,0,0,
0,0,0,0,0,0,0,0,0,0,0,0,0,0,0,0,
0,0,0,0,0,0,0,0,0,0,0,0,0,0,0,0,
0,0,0,0,0,0,0,0,0,0,0,0,0,0,0,0
</chunk>
   <chunk x="-80" y="32" width="16" height="16">
0,0,0,0,0,0,0,0,0,0,0,0,2406,0,0,0,
0,0,0,0,0,0,0,0,0,0,0,0,0,0,0,0,
0,0,0,0,0,0,0,0,2305,0,0,0,0,0,0,0,
0,0,0,0,0,0,0,0,0,0,0,0,0,0,0,0,
0,0,0,0,0,0,0,0,0,0,0,0,0,0,0,0,
0,0,0,0,0,0,0,0,0,0,0,0,0,0,0,0,
0,0,0,0,0,0,0,0,0,0,0,0,0,0,0,0,
0,0,0,0,0,0,0,0,0,0,0,0,0,0,0,0,
0,0,0,0,0,0,0,0,2306,0,0,0,0,0,0,0,
0,0,0,0,0,0,0,0,0,0,0,0,0,0,0,0,
0,0,0,0,0,0,0,0,0,0,0,0,0,0,0,0,
0,0,0,0,0,0,0,0,0,0,0,0,0,0,0,0,
0,0,0,0,0,0,0,0,0,0,0,0,0,0,0,0,
0,0,0,0,0,0,0,0,0,0,0,0,0,0,0,0,
0,0,0,0,0,0,0,0,0,0,0,0,0,0,0,0,
0,0,0,0,0,0,0,0,0,0,0,0,0,0,0,0
</chunk>
   <chunk x="-64" y="32" width="16" height="16">
0,0,0,0,0,2666,0,0,0,0,0,0,0,0,0,0,
0,0,0,0,0,0,0,0,0,0,0,0,0,0,0,0,
0,0,0,0,0,0,0,0,0,0,0,0,0,0,0,0,
0,0,0,0,0,0,0,0,0,0,0,0,0,0,0,0,
0,0,0,0,0,0,0,0,0,0,0,0,0,0,0,0,
0,0,0,0,0,0,0,0,0,0,0,0,0,0,0,0,
0,0,0,0,0,0,0,0,0,0,0,0,0,0,0,0,
0,0,0,0,0,0,0,0,0,0,0,0,0,0,0,0,
0,0,0,0,0,0,0,0,0,0,0,0,0,0,0,0,
0,0,0,0,0,0,0,0,0,0,0,0,0,0,0,0,
0,2406,0,0,0,0,0,0,0,0,0,0,0,0,0,0,
0,0,0,0,0,0,0,0,0,0,0,0,0,0,0,0,
0,0,0,0,0,0,0,0,0,0,0,0,0,0,0,0,
0,0,0,0,0,0,0,0,0,0,0,0,0,0,0,0,
0,0,0,0,0,0,0,0,0,0,0,0,0,0,0,0,
0,0,0,0,0,0,0,0,0,0,0,0,0,0,0,0
</chunk>
   <chunk x="-48" y="32" width="16" height="16">
0,0,0,0,0,0,0,0,0,0,0,0,0,2408,2409,0,
0,0,0,0,0,0,0,0,0,0,0,0,0,0,0,0,
0,0,0,0,0,0,0,0,0,0,0,0,0,0,0,0,
0,0,0,0,0,0,0,0,2340,2339,2340,2341,0,0,0,0,
0,0,0,0,0,0,0,0,2339,2340,2339,2340,2341,0,0,0,
0,0,0,0,0,0,0,0,0,2339,2340,2339,2340,2341,0,0,
0,0,0,0,0,0,2306,0,0,0,2339,2340,2339,0,0,0,
0,0,0,0,0,0,0,0,2666,0,0,0,0,0,0,0,
0,0,0,0,0,0,0,0,0,0,0,0,0,0,0,0,
0,0,0,0,0,0,0,0,0,0,0,0,0,0,0,0,
0,0,0,0,0,0,0,0,0,0,0,0,0,0,0,0,
0,0,0,0,0,0,0,0,0,0,0,0,0,0,0,0,
0,0,0,0,0,0,0,0,0,0,0,0,0,0,0,0,
0,0,0,0,0,0,0,0,0,0,0,0,0,0,0,0,
0,0,0,0,0,0,0,0,0,0,0,0,0,0,0,0,
0,0,0,0,0,0,0,0,0,0,0,0,0,0,0,0
</chunk>
   <chunk x="-32" y="32" width="16" height="16">
0,0,0,0,0,0,0,0,0,0,0,0,0,0,0,0,
0,0,0,0,0,0,0,0,0,0,0,0,0,0,0,0,
0,0,0,0,0,0,0,0,0,0,0,0,0,0,0,0,
0,0,2317,2318,0,0,0,0,0,0,0,0,2669,0,0,0,
0,0,2349,2350,0,0,0,0,0,0,0,0,0,0,0,0,
0,0,0,0,0,0,0,0,0,0,0,0,0,0,0,0,
0,0,0,0,0,0,0,0,0,0,0,0,0,0,0,0,
0,0,0,0,0,0,0,0,0,0,0,0,0,0,0,0,
0,0,0,0,0,0,0,0,0,0,0,0,0,0,0,0,
0,0,0,0,2317,2318,0,0,0,0,0,0,0,0,0,0,
0,0,0,0,2349,2350,0,0,0,0,0,0,0,0,0,0,
0,0,0,0,0,0,0,0,0,0,0,0,0,0,0,0,
0,0,0,0,0,0,0,0,0,0,0,0,0,0,0,0,
0,0,0,0,0,0,0,0,0,0,0,0,0,0,0,0,
0,0,0,0,0,0,0,0,0,0,0,0,0,0,0,0,
0,0,0,0,0,0,0,0,0,0,0,0,0,0,0,0
</chunk>
   <chunk x="32" y="32" width="16" height="16">
0,0,0,0,0,0,0,0,0,0,0,0,0,0,0,0,
0,0,0,0,0,0,0,0,0,0,0,0,0,0,0,0,
0,0,0,0,0,0,0,0,0,0,0,0,0,0,0,0,
0,0,0,0,0,0,0,0,0,0,0,0,0,0,0,0,
0,0,0,0,0,0,0,0,0,0,0,0,0,0,0,0,
0,0,0,0,0,0,0,0,0,0,0,0,0,0,0,0,
0,0,0,0,0,0,0,0,0,0,0,0,0,0,0,0,
0,0,0,0,0,0,0,0,0,0,0,0,0,0,0,0,
0,0,0,0,0,0,0,0,0,0,0,0,0,0,0,0,
0,0,0,0,0,0,0,0,0,0,0,0,0,0,0,0,
0,0,0,0,0,0,0,0,0,0,0,0,0,0,0,0,
0,0,0,0,0,0,0,0,0,0,0,0,0,0,0,0,
0,0,0,0,0,0,0,0,0,0,0,0,0,0,0,0,
0,0,0,0,0,0,2130,0,0,0,0,0,0,0,0,0,
0,0,0,0,0,2130,2131,2209,2273,0,0,0,0,0,0,0,
2130,2132,2133,2132,2133,2131,2273,2241,0,0,0,0,0,0,0,0
</chunk>
   <chunk x="-64" y="48" width="16" height="16">
0,0,0,0,0,0,0,0,0,0,0,0,0,0,0,0,
0,0,0,0,0,0,0,0,0,0,0,0,0,0,0,0,
0,0,0,0,0,0,0,0,0,0,0,0,0,0,0,0,
0,0,0,0,0,0,0,0,0,0,0,0,0,0,0,0,
0,0,0,0,0,0,0,0,0,0,0,0,0,0,0,0,
0,0,2669,0,0,0,0,0,0,0,0,0,0,0,0,0,
0,0,0,0,0,0,0,0,0,0,0,0,0,0,0,0,
0,0,0,0,0,0,0,0,0,0,0,0,0,0,0,0,
0,0,0,0,0,0,0,0,0,0,0,0,0,0,0,0,
0,0,0,0,0,0,0,0,0,0,0,0,0,0,0,0,
0,0,0,0,0,0,0,0,0,0,0,0,0,0,0,0,
0,0,0,0,0,0,0,0,0,0,0,0,0,0,0,0,
0,0,0,0,0,0,0,0,0,0,0,0,0,0,0,0,
0,0,0,0,0,0,0,0,0,0,0,0,0,0,0,0,
0,0,0,0,0,0,0,0,0,0,0,0,0,0,0,0,
0,0,0,0,0,0,0,0,0,0,0,0,0,0,0,0
</chunk>
   <chunk x="-16" y="48" width="16" height="16">
0,0,0,0,0,0,0,0,0,0,0,0,0,0,0,0,
0,0,0,0,0,0,0,0,0,0,0,0,0,0,0,0,
0,0,0,0,0,0,0,0,0,0,0,0,0,0,0,0,
0,0,0,0,0,0,0,0,0,0,0,0,0,0,0,0,
0,0,0,0,0,0,0,0,0,0,0,0,0,0,0,0,
0,0,0,0,0,0,0,0,0,0,0,0,0,0,0,0,
0,0,0,0,0,0,0,0,0,0,0,0,0,0,0,0,
0,0,0,0,0,0,0,0,0,0,0,0,0,0,0,0,
0,0,0,0,0,0,0,0,0,0,0,0,0,0,0,0,
0,0,0,0,0,0,0,0,0,0,0,0,0,0,0,0,
0,0,0,0,0,0,0,0,0,0,0,0,0,0,0,0,
0,0,0,0,0,0,0,0,0,0,0,0,0,0,0,0,
0,0,0,0,0,0,0,0,0,0,0,0,0,0,0,0,
0,0,0,0,0,0,0,0,0,0,0,0,0,0,0,0,
0,0,0,0,0,0,0,0,0,0,0,0,2406,0,0,0,
0,0,0,0,0,0,0,0,0,0,0,0,0,0,0,0
</chunk>
   <chunk x="0" y="48" width="16" height="16">
0,0,0,0,0,0,0,0,0,0,0,0,0,0,0,0,
0,0,0,0,0,0,0,0,0,0,0,0,0,0,0,0,
0,0,0,0,0,0,0,0,0,0,0,0,0,0,0,0,
0,0,0,0,0,0,0,0,0,0,0,0,0,0,0,0,
0,0,0,0,0,0,0,0,0,0,0,0,0,0,0,0,
0,0,0,0,0,0,0,0,0,0,0,0,0,0,0,0,
0,0,0,0,0,0,0,0,0,0,0,0,2374,0,0,0,
0,0,0,0,0,0,0,0,0,2337,0,0,0,0,0,0,
0,0,0,0,0,0,0,0,0,0,0,0,0,0,0,0,
0,0,0,0,0,0,0,0,0,0,0,0,0,0,0,0,
0,0,0,0,0,0,0,0,0,0,0,0,0,0,0,0,
0,0,0,0,0,0,0,0,0,2406,0,0,0,0,0,0,
0,0,0,0,0,0,0,0,0,0,0,0,0,0,0,0,
0,0,0,0,0,0,0,2374,0,0,0,0,0,0,0,0,
0,0,0,0,0,0,0,0,0,0,0,0,0,0,0,0,
0,0,0,0,0,0,0,0,0,0,0,0,0,0,0,0
</chunk>
   <chunk x="16" y="48" width="16" height="16">
0,0,0,0,0,0,0,0,0,0,0,0,0,0,0,0,
0,0,0,0,0,0,0,0,0,0,0,0,0,0,0,0,
0,0,0,0,0,0,0,0,0,0,0,0,0,0,0,0,
0,0,0,0,0,0,0,0,0,0,0,0,0,0,0,0,
0,0,0,0,0,0,0,0,0,0,0,0,0,0,0,0,
0,0,0,0,0,0,0,0,0,0,0,0,0,0,0,0,
0,0,0,0,0,2374,0,0,0,0,0,0,0,0,0,0,
0,0,0,0,0,0,0,2406,0,0,0,0,0,0,0,0,
0,0,0,0,0,0,0,0,0,0,0,0,0,0,0,0,
0,0,0,0,0,0,0,0,0,0,0,0,0,0,2406,0,
0,0,0,0,0,0,0,0,0,0,0,0,0,0,0,0,
0,0,0,0,0,0,0,0,0,0,0,0,0,0,0,0,
0,0,0,0,0,0,0,0,0,0,0,0,0,0,0,0,
0,0,0,0,0,0,0,0,0,0,0,0,0,0,0,0,
0,0,0,0,0,0,0,0,0,0,0,0,0,0,0,0,
0,0,0,0,0,0,0,0,0,0,0,0,0,0,0,0
</chunk>
   <chunk x="32" y="48" width="16" height="16">
2162,2273,2177,2241,2177,2145,2273,2177,0,0,0,0,0,0,0,0,
0,0,2209,2177,2209,2273,2145,2273,0,0,0,0,0,0,0,0,
0,0,0,0,2273,2241,2209,0,0,0,0,0,0,0,0,0,
0,0,0,0,0,0,0,0,0,0,0,0,0,0,0,0,
2145,0,0,0,0,0,0,0,0,0,0,0,0,0,0,0,
0,0,0,0,0,0,0,0,0,0,2406,0,0,0,0,0,
0,0,0,0,0,0,0,0,0,0,0,0,0,0,0,0,
0,0,0,0,2145,0,0,0,0,0,0,0,0,2374,0,2406,
0,0,0,0,0,0,0,0,0,0,0,0,0,0,0,0,
0,0,0,0,0,0,0,0,0,0,0,0,0,0,0,0,
0,0,0,0,0,0,0,0,0,0,0,0,0,0,0,0,
0,0,0,0,0,0,0,0,0,0,0,0,0,0,0,0,
0,0,0,0,0,0,0,0,0,0,0,0,0,0,0,0,
0,0,0,0,0,0,0,0,0,0,0,0,0,0,0,0,
0,0,0,0,0,2406,0,0,0,0,0,0,0,0,0,0,
0,0,0,0,0,0,0,0,0,0,0,0,0,0,0,0
</chunk>
   <chunk x="48" y="48" width="16" height="16">
0,0,0,0,0,0,0,0,0,0,0,0,0,0,0,0,
0,0,0,0,0,0,0,0,0,0,0,0,0,0,0,0,
0,0,0,0,0,0,0,0,0,0,0,0,0,0,0,0,
0,0,0,0,0,0,0,0,0,0,0,0,0,0,0,0,
0,0,0,0,0,0,0,0,0,0,0,0,0,0,0,0,
0,0,0,0,0,0,0,0,0,0,0,0,0,0,0,0,
0,0,0,0,0,0,0,0,0,0,0,0,0,0,0,0,
0,0,0,0,0,0,0,0,0,0,0,0,0,0,0,0,
0,0,0,0,0,0,0,0,0,0,0,0,0,0,0,0,
0,0,0,0,0,0,0,0,0,0,0,0,0,0,0,0,
0,0,0,0,0,0,0,0,0,0,0,0,0,0,0,0,
0,0,0,0,0,0,0,0,0,0,0,0,0,0,0,0,
0,0,0,0,0,0,0,0,0,0,0,0,0,0,0,0,
0,0,0,0,0,0,0,0,0,0,0,0,0,0,0,0,
0,0,0,0,2406,0,0,0,0,0,0,0,0,0,0,0,
0,0,0,0,0,0,0,0,0,0,0,0,0,0,0,0
</chunk>
   <chunk x="-80" y="64" width="16" height="16">
0,0,0,0,0,0,0,0,0,0,0,0,0,0,0,0,
0,0,0,0,0,0,0,0,0,0,0,0,0,0,0,0,
0,0,0,0,0,0,0,0,0,0,0,0,0,0,0,0,
0,0,0,0,0,0,0,0,0,0,0,0,0,0,0,0,
0,0,0,0,0,0,0,0,0,0,0,0,0,0,0,0,
0,0,0,0,0,0,0,0,0,0,0,0,0,0,0,0,
0,0,0,0,0,0,0,0,0,0,0,0,0,0,0,0,
0,0,0,0,0,0,0,0,0,0,0,0,0,0,0,0,
0,0,0,0,0,0,0,0,0,0,0,0,0,0,0,0,
0,0,0,0,0,0,0,0,0,0,0,0,0,0,0,0,
0,0,0,0,0,0,0,0,0,0,0,0,0,0,0,0,
0,0,0,0,0,0,0,0,2555,0,0,0,2619,0,2523,0,
0,0,0,0,0,0,0,0,0,0,0,2617,2618,0,0,0,
0,0,0,0,0,0,0,0,0,0,0,2587,1073744620,0,0,0,
0,0,0,0,0,0,0,0,0,3221228268,2585,2555,2788,0,0,0,
0,0,0,0,0,0,0,0,0,2788,2792,0,0,0,0,0
</chunk>
   <chunk x="-16" y="64" width="16" height="16">
0,0,0,0,0,0,0,0,0,0,0,0,0,0,0,0,
0,0,0,0,0,0,0,0,2406,0,0,0,0,0,0,0,
0,0,0,0,0,0,0,0,0,0,0,0,0,0,0,0,
0,0,0,0,0,0,0,0,0,0,0,0,0,0,0,0,
0,0,0,2406,0,0,0,0,0,0,0,0,0,0,0,0,
0,0,0,0,0,0,0,0,0,0,0,0,0,0,0,0,
0,0,0,0,0,0,0,0,0,0,0,0,0,0,0,0,
0,0,0,0,0,0,0,0,0,0,0,0,0,0,0,0,
0,0,0,0,0,0,0,0,0,0,0,0,0,0,0,0,
0,0,0,0,0,0,0,0,0,0,0,2406,0,0,0,0,
0,0,0,0,0,0,0,0,0,0,0,0,0,0,0,0,
0,0,0,0,0,0,5056,5057,5057,5057,5057,5057,4941,4942,5057,5064,
0,0,0,0,0,0,5088,5089,5089,5089,5089,5089,4973,4974,5089,5096,
0,0,0,0,0,0,5120,5121,5121,5121,5121,5121,5005,5006,5121,5128,
0,0,0,0,0,0,5152,5153,5153,5153,5153,5153,5037,5038,5153,5160,
0,0,0,0,0,0,5184,5185,5185,5185,5185,5185,5185,5185,5185,5192
</chunk>
   <chunk x="0" y="64" width="16" height="16">
0,0,0,0,0,0,0,0,0,0,0,0,0,0,0,0,
0,0,0,0,0,0,0,0,0,0,0,0,0,0,0,0,
0,0,0,0,0,0,0,0,0,0,0,0,0,0,0,0,
0,0,0,0,0,0,0,0,0,0,0,0,2406,0,0,0,
0,0,0,0,0,0,0,0,0,0,0,0,0,0,0,2126,
0,0,0,0,0,0,0,0,0,0,0,0,0,0,0,2158,
0,0,0,0,0,0,0,0,0,0,0,0,0,2374,0,2158,
0,0,0,0,0,0,0,0,0,0,0,0,0,0,0,2158,
0,0,0,0,0,0,0,0,0,0,0,0,0,0,0,2190,
0,0,0,0,0,0,0,0,0,0,0,0,0,0,0,0,
0,0,0,0,0,2374,0,0,0,0,0,0,0,0,0,0,
0,0,0,0,0,0,0,0,0,0,0,0,0,0,0,0,
0,0,0,0,0,0,0,0,0,0,0,0,0,0,0,0,
0,0,0,0,0,0,0,0,0,0,0,0,0,0,0,0,
0,0,0,0,0,0,0,0,0,0,0,0,0,0,0,0,
0,0,0,0,0,0,0,0,0,0,0,0,0,0,0,0
</chunk>
   <chunk x="16" y="64" width="16" height="16">
0,0,0,0,0,0,0,0,0,0,0,0,0,0,0,0,
0,0,0,0,0,0,0,0,0,0,0,0,0,0,0,0,
0,0,0,0,0,0,0,0,0,0,0,0,0,0,0,0,
0,0,0,2306,0,0,0,0,0,0,0,0,0,0,0,0,
2128,0,0,0,0,0,0,0,0,0,0,0,0,0,0,0,
2160,0,0,0,0,0,0,0,0,0,2374,0,0,0,0,0,
2254,2128,0,0,0,0,0,0,0,0,0,0,0,0,0,0,
2159,2160,0,0,0,0,0,0,0,0,0,0,0,0,0,0,
2191,2192,0,0,0,0,0,0,0,0,0,0,0,0,0,0,
0,0,0,0,0,2369,0,0,0,0,0,0,0,0,0,0,
0,0,0,0,0,0,0,0,0,0,0,0,0,0,0,0,
0,0,0,0,0,0,0,0,0,0,0,0,0,0,0,0,
0,0,0,0,0,0,0,0,0,0,0,0,0,0,0,0,
0,0,0,0,0,0,0,0,0,0,0,0,0,0,0,0,
0,0,0,0,0,0,0,0,0,0,0,0,0,0,0,0,
0,0,0,0,0,0,0,0,0,0,0,0,0,0,0,0
</chunk>
   <chunk x="32" y="64" width="16" height="16">
0,0,0,0,0,0,0,0,0,0,0,0,0,0,0,0,
0,0,0,0,0,0,0,0,0,0,0,0,0,0,0,0,
0,0,0,0,0,0,0,0,0,0,0,0,0,0,0,0,
0,0,0,0,0,0,0,0,0,0,0,0,0,0,0,0,
0,0,0,0,0,0,0,0,0,0,0,0,0,2406,0,0,
0,0,0,0,0,0,0,0,0,0,0,0,0,0,0,0,
0,0,0,0,0,0,0,0,0,0,0,0,0,0,2374,0,
0,0,0,0,0,0,0,0,0,0,0,0,0,0,0,0,
0,0,0,0,0,0,0,0,0,0,0,0,0,0,0,0,
0,0,0,0,0,0,0,0,0,0,0,0,0,0,0,0,
0,0,0,0,0,0,0,0,0,0,0,0,0,0,0,0,
0,0,0,0,0,0,0,0,0,0,0,0,0,0,0,0,
0,0,0,0,0,0,0,0,0,0,0,0,0,0,0,0,
0,0,0,0,0,0,0,0,0,0,0,0,0,0,0,0,
0,0,0,0,0,0,0,0,0,0,0,0,0,0,0,0,
0,0,0,0,0,0,0,0,0,0,0,0,0,0,0,2406
</chunk>
   <chunk x="48" y="64" width="16" height="16">
0,0,0,0,0,0,0,0,0,0,0,0,0,0,0,0,
0,0,0,0,0,0,0,0,0,0,0,0,0,0,0,0,
0,0,0,0,0,0,0,0,0,0,0,0,0,0,0,0,
0,0,0,0,0,0,0,0,0,0,0,0,0,0,0,0,
0,0,0,0,0,0,0,0,0,0,0,0,0,0,0,0,
0,0,0,0,0,0,0,0,0,0,0,0,0,0,0,0,
0,0,0,0,0,0,0,0,0,0,2406,0,0,0,0,0,
0,0,0,0,0,0,0,0,0,0,0,0,0,0,0,0,
0,0,0,0,0,0,0,0,0,0,0,0,0,0,0,0,
0,0,0,0,0,0,0,0,0,0,0,0,0,0,0,0,
0,0,0,0,0,0,0,0,0,2374,0,0,0,0,0,0,
0,0,0,0,0,0,0,0,0,0,0,0,0,0,0,0,
0,0,0,0,0,0,0,0,0,0,0,0,0,0,0,0,
0,0,0,0,0,0,0,0,0,0,0,0,0,0,0,0,
0,0,0,0,0,0,0,0,0,0,0,0,0,0,0,0,
0,0,0,0,0,0,0,0,0,0,0,0,0,0,0,0
</chunk>
  </data>
 </layer>
 <layer id="8" name="Canpoy" width="30" height="20">
  <data encoding="csv">
   <chunk x="0" y="-80" width="16" height="16">
0,0,0,0,0,0,0,0,0,0,0,0,0,0,0,0,
0,0,0,0,0,0,0,0,0,0,0,0,0,0,0,0,
0,0,0,0,0,0,0,0,0,0,0,0,0,0,0,0,
0,0,0,0,0,0,0,0,0,0,0,0,0,0,0,0,
0,0,0,0,0,0,0,0,0,0,0,0,0,0,0,0,
0,0,0,0,0,0,0,0,0,0,0,0,0,0,0,0,
0,0,0,0,0,0,0,0,0,0,0,0,0,0,0,0,
0,0,0,0,0,0,0,0,0,0,0,0,0,0,0,0,
0,0,0,0,0,0,0,0,0,2078,0,0,0,0,0,0,
0,0,0,0,0,0,0,0,0,0,0,0,0,0,0,0,
0,0,0,0,0,0,0,0,0,0,0,0,0,0,0,0,
0,0,0,0,0,0,0,0,0,0,0,0,0,0,0,0,
0,0,0,0,0,0,0,0,0,0,0,0,0,0,0,0,
0,0,0,0,0,0,0,0,0,0,0,0,0,0,0,0,
0,0,0,0,0,0,0,0,0,0,0,0,0,0,0,0,
0,0,0,0,0,0,0,0,0,0,0,0,0,0,0,0
</chunk>
   <chunk x="16" y="-80" width="16" height="16">
0,0,0,0,0,0,0,0,0,0,0,0,0,0,0,0,
0,0,0,0,0,0,0,0,0,0,0,0,0,0,0,0,
0,0,0,0,0,0,0,0,0,0,0,0,0,0,0,0,
0,0,0,0,0,0,0,0,0,0,0,0,0,0,0,0,
0,0,0,0,0,0,0,0,0,0,0,0,0,0,0,0,
0,0,0,0,0,0,0,0,0,0,0,0,0,0,0,0,
0,0,0,0,0,0,0,0,0,0,0,0,0,0,0,0,
0,0,0,0,0,0,0,0,0,0,0,0,0,0,0,0,
0,2081,0,0,0,0,0,0,0,2081,0,0,0,0,0,0,
0,0,0,0,0,0,0,0,0,0,0,0,0,0,0,0,
0,0,0,0,0,0,0,0,0,0,0,0,0,0,0,0,
0,0,0,0,0,0,0,0,0,0,0,0,0,0,0,0,
0,0,0,0,0,0,0,0,0,0,0,0,0,0,0,0,
0,0,0,0,0,0,0,0,0,0,0,0,0,0,0,0,
0,0,0,0,0,0,0,0,0,0,0,0,0,0,0,0,
0,0,0,0,0,0,0,0,0,0,0,0,0,0,0,0
</chunk>
   <chunk x="32" y="-80" width="16" height="16">
0,0,0,0,0,0,0,0,0,0,0,0,0,0,0,0,
0,0,0,0,0,0,0,0,0,0,0,0,0,0,0,0,
0,0,0,0,0,0,0,0,0,0,0,0,0,0,0,0,
0,0,0,0,0,0,0,0,0,0,0,0,0,0,0,0,
0,0,0,0,0,0,0,0,0,0,0,0,0,0,0,0,
0,0,0,0,0,0,0,0,0,0,0,0,0,0,0,0,
0,0,0,0,0,0,0,0,0,0,0,0,0,0,0,0,
0,0,0,0,0,0,0,0,0,0,0,0,0,0,0,0,
0,2081,0,0,0,0,0,0,0,2081,0,0,0,0,0,0,
0,0,0,0,0,0,0,0,0,0,0,0,0,0,0,0,
0,0,0,0,0,0,0,0,0,0,0,0,0,0,0,0,
0,0,0,0,0,0,0,0,0,0,0,0,0,0,0,0,
0,0,0,0,0,0,0,0,0,0,0,0,0,0,0,0,
0,0,0,0,0,0,0,0,0,0,0,0,0,0,0,0,
0,0,0,0,0,0,0,0,0,0,0,0,0,0,0,0,
0,0,0,0,0,0,0,0,0,0,0,0,0,0,0,0
</chunk>
   <chunk x="48" y="-80" width="16" height="16">
0,0,0,0,0,0,0,0,0,0,0,0,0,0,0,0,
0,0,0,0,0,0,0,0,0,0,0,0,0,0,0,0,
0,0,0,0,0,0,0,0,0,0,0,0,0,0,0,0,
0,0,0,0,0,0,0,0,0,0,0,0,0,0,0,0,
0,0,0,0,0,0,0,0,0,0,0,0,0,0,0,0,
0,0,0,0,0,0,0,0,0,0,0,0,0,0,0,0,
0,0,0,0,0,0,0,0,0,0,0,0,0,0,0,0,
0,0,0,0,0,0,0,0,0,0,0,0,0,0,0,0,
0,2081,0,0,0,0,0,0,0,2079,0,0,0,0,0,0,
0,0,0,0,0,0,0,0,0,0,0,0,0,0,0,0,
0,0,0,0,0,0,0,0,0,0,0,0,0,0,0,0,
0,0,0,0,0,0,0,0,0,0,0,0,0,0,0,0,
0,0,0,0,0,0,0,0,0,0,0,0,0,0,0,0,
0,0,0,0,0,0,0,0,0,0,0,0,0,0,0,0,
0,0,0,0,0,0,0,0,0,0,0,0,0,0,0,0,
0,0,0,0,0,0,0,0,0,0,0,0,0,0,0,0
</chunk>
   <chunk x="0" y="-64" width="16" height="16">
0,0,0,0,0,0,0,0,0,2076,0,0,0,0,0,0,
0,0,0,0,0,0,0,0,0,0,0,0,0,0,0,0,
0,0,0,0,0,0,0,0,0,0,0,0,0,0,0,0,
0,0,0,0,0,0,0,0,0,0,0,0,0,0,0,0,
0,0,0,0,0,0,0,0,0,0,0,0,0,0,0,0,
0,0,0,0,0,0,0,0,0,0,0,0,0,0,0,0,
0,0,0,0,0,0,0,0,0,0,0,0,0,0,0,0,
0,0,0,0,0,0,0,0,0,0,0,0,0,0,0,0,
0,0,0,0,0,0,0,0,0,2076,0,0,0,0,0,0,
0,0,0,0,0,0,0,0,0,0,0,0,0,0,0,0,
0,0,0,0,0,0,0,0,0,0,0,0,0,0,0,0,
0,0,0,0,0,0,0,0,0,0,0,0,0,0,0,0,
0,0,0,0,0,0,0,0,0,0,0,0,0,0,0,0,
0,0,0,0,0,0,0,0,0,0,0,0,0,0,0,0,
0,0,0,0,0,0,0,0,0,0,0,0,0,0,0,0,
0,0,0,0,0,0,0,0,0,0,0,0,0,0,0,0
</chunk>
   <chunk x="16" y="-64" width="16" height="16">
0,2065,0,0,0,0,0,0,0,2065,0,0,0,0,0,0,
0,0,0,0,0,0,0,0,0,0,0,0,0,0,0,0,
0,0,0,0,0,0,0,0,0,0,0,0,0,0,0,0,
0,0,0,0,0,0,0,0,0,0,0,0,0,0,0,0,
0,0,0,0,0,0,0,0,0,0,0,0,0,0,0,0,
0,0,0,0,0,0,0,0,0,0,0,0,0,0,0,0,
0,0,0,0,0,0,0,0,0,0,0,0,0,0,0,0,
0,0,0,0,0,0,0,0,0,0,0,0,0,0,0,0,
0,2065,0,0,0,0,0,0,0,2065,0,0,0,0,0,0,
0,0,0,0,0,0,0,0,0,0,0,0,0,0,0,0,
0,0,0,0,0,0,0,0,0,0,0,0,0,0,0,0,
0,0,0,0,0,0,0,0,0,0,0,0,0,0,0,0,
0,0,0,0,0,0,0,0,0,0,0,0,0,0,0,0,
0,0,0,0,0,0,0,0,0,0,0,0,0,0,0,0,
0,0,0,0,0,0,0,0,0,0,0,0,0,0,0,0,
0,0,0,0,0,0,0,0,0,0,0,0,0,0,0,0
</chunk>
   <chunk x="32" y="-64" width="16" height="16">
0,2065,0,0,0,0,0,0,0,2065,0,0,0,0,0,0,
0,0,0,0,0,0,0,0,0,0,0,0,0,0,0,0,
0,0,0,0,0,0,0,0,0,0,0,0,0,0,0,0,
0,0,0,0,0,0,0,0,0,0,0,0,0,0,0,0,
0,0,0,0,0,0,0,0,0,0,0,0,0,0,0,0,
0,0,0,0,0,0,0,0,0,0,0,0,0,0,0,0,
0,0,0,0,0,0,0,0,0,0,0,0,0,0,0,0,
0,0,0,0,0,0,0,0,0,0,0,0,0,0,0,0,
0,2065,0,0,0,0,0,0,0,2065,0,0,0,0,0,0,
0,0,0,0,0,0,0,0,0,0,0,0,0,0,0,0,
0,0,0,0,0,0,0,0,0,0,0,0,0,0,0,0,
0,0,0,0,0,0,0,0,0,0,0,0,0,0,0,0,
0,0,0,0,0,0,0,0,0,0,0,0,0,0,0,0,
0,0,0,0,0,0,0,0,0,0,0,0,0,0,0,0,
0,0,0,0,0,0,0,0,0,0,0,0,0,0,0,0,
0,0,0,0,0,0,0,0,0,0,0,0,0,0,0,0
</chunk>
   <chunk x="48" y="-64" width="16" height="16">
0,2065,0,0,0,0,0,0,0,2074,0,0,0,0,0,0,
0,0,0,0,0,0,0,0,0,0,0,0,0,0,0,0,
0,0,0,0,0,0,0,0,0,0,0,0,0,0,0,0,
0,0,0,0,0,0,0,0,0,0,0,0,0,0,0,0,
0,0,0,0,0,0,0,0,0,0,0,0,0,0,0,0,
0,0,0,0,0,0,0,0,0,0,0,0,0,0,0,0,
0,0,0,0,0,0,0,0,0,0,0,0,0,0,0,0,
0,0,0,0,0,0,0,0,0,0,0,0,0,0,0,0,
0,2065,0,0,0,0,0,0,0,2074,0,0,0,0,0,0,
0,0,0,0,0,0,0,0,0,0,0,0,0,0,0,0,
0,0,0,0,0,0,0,0,0,0,0,0,0,0,0,0,
0,0,0,0,0,0,0,0,0,0,0,0,0,0,0,0,
0,0,0,0,0,0,0,0,0,0,0,0,0,0,0,0,
0,0,0,0,0,0,0,0,0,0,0,0,0,0,0,0,
0,0,0,0,0,0,0,0,0,0,0,0,0,0,0,0,
0,0,0,0,0,0,0,0,0,0,0,0,0,0,0,0
</chunk>
   <chunk x="-16" y="-48" width="16" height="16">
0,0,0,0,0,0,0,0,0,0,0,0,0,0,0,0,
0,0,0,0,0,0,0,0,0,0,0,0,0,0,0,0,
0,0,0,0,0,0,0,0,0,0,0,0,0,0,0,0,
0,0,0,0,0,0,0,0,0,0,0,0,0,0,0,0,
0,0,0,0,0,0,0,0,0,0,0,0,0,0,0,0,
0,0,0,0,0,0,0,0,0,0,0,0,0,0,0,0,
0,0,0,0,0,0,0,0,0,0,0,0,0,0,0,0,
0,0,0,0,0,0,0,0,0,0,0,0,0,0,0,0,
0,0,0,0,0,0,0,0,0,2078,0,0,0,0,0,0,
0,0,0,0,0,0,0,0,0,0,0,0,0,0,0,0,
0,0,0,0,0,0,0,0,0,0,0,0,0,0,0,0,
0,0,0,0,0,0,0,0,0,0,0,0,0,0,0,0,
0,0,0,0,0,0,0,0,0,0,0,0,0,0,0,0,
0,0,0,0,0,0,0,0,0,0,0,0,0,0,0,0,
0,0,0,0,0,0,0,0,0,0,0,0,0,0,0,0,
0,0,0,0,0,0,0,0,0,0,0,0,0,0,0,0
</chunk>
   <chunk x="0" y="-48" width="16" height="16">
0,0,0,0,0,0,0,0,0,2076,0,0,0,0,0,0,
0,0,0,0,0,0,0,0,0,0,0,0,0,0,0,0,
0,0,0,0,0,0,0,0,0,0,0,0,0,0,0,0,
0,0,0,0,0,0,0,0,0,0,0,0,0,0,0,0,
0,0,0,0,0,0,0,0,0,0,0,0,0,0,0,0,
0,0,0,0,0,0,0,0,0,0,0,0,0,0,0,0,
0,0,0,0,0,0,0,0,0,0,0,0,0,0,0,0,
0,0,0,0,0,0,0,0,0,0,0,0,0,0,0,0,
0,2081,0,0,0,0,0,0,0,2082,0,0,0,0,0,0,
0,0,0,0,0,0,0,0,0,0,0,0,0,0,0,0,
0,0,0,0,0,0,0,0,0,0,0,0,0,0,0,0,
0,0,0,0,0,0,0,0,0,0,0,0,0,0,0,0,
0,0,0,0,0,0,0,0,0,0,0,0,0,0,0,0,
0,0,0,0,0,0,0,0,0,0,0,0,0,0,0,0,
0,0,0,0,0,0,0,0,0,0,0,0,0,0,0,0,
0,0,0,0,0,0,0,0,0,0,0,0,0,0,0,0
</chunk>
   <chunk x="16" y="-48" width="16" height="16">
0,2068,0,0,0,0,0,0,0,2069,0,0,0,0,0,0,
0,0,0,0,0,0,0,0,0,0,0,0,0,0,0,0,
0,0,0,0,0,0,0,0,0,0,0,0,0,0,0,0,
0,0,0,0,0,0,0,0,0,0,0,0,0,0,0,0,
0,0,0,0,0,0,0,0,0,0,0,0,0,0,0,0,
0,0,0,0,0,0,0,0,0,0,0,0,0,0,0,0,
0,0,0,0,0,0,0,0,0,0,0,0,0,0,0,0,
0,0,0,0,0,0,0,0,0,0,0,0,0,0,0,0,
0,2074,0,0,0,0,0,0,0,0,0,0,0,0,0,0,
0,0,0,0,0,0,0,0,0,0,0,0,0,0,0,0,
0,0,0,0,0,0,0,0,0,0,0,0,0,0,0,0,
0,0,0,0,0,0,0,0,0,0,0,0,0,0,0,0,
0,0,0,0,0,0,0,0,0,0,0,0,0,0,0,0,
0,0,0,0,0,0,0,0,0,0,0,0,0,0,0,0,
0,0,0,0,0,0,0,0,0,0,0,0,0,0,0,0,
0,0,0,0,0,0,0,0,0,0,0,0,0,0,0,0
</chunk>
   <chunk x="32" y="-48" width="16" height="16">
0,2069,0,0,0,0,0,0,0,2070,0,0,0,0,0,0,
0,0,0,0,0,0,0,0,0,0,0,0,0,0,0,0,
0,0,0,0,0,0,0,0,0,0,0,0,0,0,0,0,
0,0,0,0,0,0,0,0,0,0,0,0,0,0,0,0,
0,0,0,0,0,0,0,0,0,0,0,0,0,0,0,0,
0,0,0,0,0,0,0,0,0,0,0,0,0,0,0,0,
0,0,0,0,0,0,0,0,0,0,0,0,0,0,0,0,
0,0,0,0,0,0,0,0,0,0,0,0,0,0,0,0,
0,0,0,0,0,0,0,0,0,2076,0,0,0,0,0,0,
0,0,0,0,0,0,0,0,0,0,0,0,0,0,0,0,
0,0,0,0,0,0,0,0,0,0,0,0,0,0,0,0,
0,0,0,0,0,0,0,0,0,0,0,0,0,0,0,0,
0,0,0,0,0,0,0,0,0,0,0,0,0,0,0,0,
0,0,0,0,0,0,0,0,0,0,0,0,0,0,0,0,
0,0,0,0,0,0,0,0,0,0,0,0,0,0,0,0,
0,0,0,0,0,0,0,0,0,0,0,0,0,0,0,0
</chunk>
   <chunk x="48" y="-48" width="16" height="16">
0,2065,0,0,0,0,0,0,0,2074,0,0,0,0,0,0,
0,0,0,0,0,0,0,0,0,0,0,0,0,0,0,0,
0,0,0,0,0,0,0,0,0,0,0,0,0,0,0,0,
0,0,0,0,0,0,0,0,0,0,0,0,0,0,0,0,
0,0,0,0,0,0,0,0,0,0,0,0,0,0,0,0,
0,0,0,0,0,0,0,0,0,0,0,0,0,0,0,0,
0,0,0,0,0,0,0,0,0,0,0,0,0,0,0,0,
0,0,0,0,0,0,0,0,0,0,0,0,0,0,0,0,
0,2065,0,0,0,0,0,0,0,2074,0,0,0,0,0,0,
0,0,0,0,0,0,0,0,0,0,0,0,0,0,0,0,
0,0,0,0,0,0,0,0,0,0,0,0,0,0,0,0,
0,0,0,0,0,0,0,0,0,0,0,0,0,0,0,0,
0,0,0,0,0,0,0,0,0,0,0,0,0,0,0,0,
0,0,0,0,0,0,0,0,0,0,0,0,0,0,0,0,
0,0,0,0,0,0,0,0,0,0,0,0,0,0,0,0,
0,0,0,0,0,0,0,0,0,0,0,0,0,0,0,0
</chunk>
   <chunk x="-16" y="-32" width="16" height="16">
0,0,0,0,0,0,0,0,0,2084,0,0,0,0,0,0,
0,0,0,0,0,0,0,0,0,0,0,0,0,0,0,0,
0,0,0,0,0,0,0,0,0,0,0,0,0,0,0,0,
0,0,0,0,0,0,0,0,0,0,0,0,0,0,0,0,
0,0,0,0,0,0,0,0,0,0,0,0,0,0,0,0,
0,0,0,0,0,0,0,0,0,0,0,0,0,0,0,0,
0,0,0,0,0,0,0,0,0,0,0,0,0,0,0,0,
0,0,0,0,0,0,0,0,0,0,0,0,0,0,0,0,
0,0,0,0,0,0,0,0,0,0,0,0,0,0,0,0,
0,0,0,0,0,0,0,0,0,0,0,0,0,0,0,0,
0,0,0,0,0,0,0,0,0,0,0,0,0,0,0,0,
0,0,0,0,0,0,0,0,0,0,0,0,0,0,0,0,
0,0,0,0,0,0,0,0,0,0,0,0,0,0,0,0,
0,0,0,0,0,0,0,0,0,0,0,0,0,0,0,0,
0,0,0,0,0,0,0,0,0,0,0,0,0,0,0,0,
0,0,0,0,0,0,2078,0,0,0,0,0,0,0,2079,0
</chunk>
   <chunk x="0" y="-32" width="16" height="16">
0,2069,0,0,0,0,0,0,0,2070,0,0,0,0,0,0,
0,0,0,0,0,0,0,0,0,0,0,0,0,0,0,0,
0,0,0,0,0,0,0,0,0,0,0,0,0,0,0,0,
0,0,0,0,0,0,0,0,0,0,0,0,0,0,0,0,
0,0,0,0,0,0,0,0,0,0,0,0,0,0,0,0,
0,0,0,0,0,0,0,0,0,0,0,0,0,0,0,0,
0,0,0,0,0,0,0,0,0,0,0,0,0,0,0,0,
0,0,0,0,0,0,0,0,0,0,0,0,0,0,0,0,
0,0,0,0,0,0,0,0,0,2084,0,0,0,0,0,0,
0,0,0,0,0,0,0,0,0,0,0,0,0,0,0,0,
0,0,0,0,0,0,0,0,0,0,0,0,0,0,0,0,
0,0,0,0,0,0,0,0,0,0,0,0,0,0,0,0,
0,0,0,0,0,0,0,0,0,0,0,0,0,0,0,0,
0,0,0,0,0,0,0,0,0,0,0,0,0,0,0,0,
0,0,0,0,0,0,0,0,0,0,0,0,0,0,0,0,
0,0,0,0,0,0,0,0,0,0,0,0,0,0,0,0
</chunk>
   <chunk x="16" y="-32" width="16" height="16">
0,2080,0,0,0,0,0,0,0,2079,0,0,0,0,0,0,
0,0,0,0,0,0,0,0,0,0,0,0,0,0,0,0,
0,0,0,0,0,0,0,0,0,0,0,0,0,0,0,0,
0,0,0,0,0,0,0,0,0,0,0,0,0,0,0,0,
0,0,0,0,0,0,0,0,0,0,0,0,0,0,0,0,
0,0,0,0,0,0,0,0,0,0,0,0,0,0,0,0,
0,0,0,0,0,0,0,0,0,0,0,0,0,0,0,0,
0,0,0,0,0,0,0,0,0,0,0,0,0,0,0,0,
0,2070,0,0,0,0,0,0,0,2074,0,0,0,0,0,0,
0,0,0,0,0,0,0,0,0,0,0,0,0,0,0,0,
0,0,0,0,0,0,0,0,0,0,0,0,0,0,0,0,
0,0,0,0,0,0,0,0,0,0,0,0,0,0,0,0,
0,0,0,0,0,0,0,0,0,0,0,0,0,0,0,0,
0,0,0,0,0,0,0,0,0,0,0,0,0,0,0,0,
0,0,0,0,0,0,0,0,0,0,0,0,0,0,0,0,
0,0,0,0,0,0,0,0,0,0,0,0,0,0,0,0
</chunk>
   <chunk x="32" y="-32" width="16" height="16">
0,0,0,0,0,0,0,0,0,2084,0,0,0,0,0,0,
0,0,0,0,0,0,0,0,0,0,0,0,0,0,0,0,
0,0,0,0,0,0,0,0,0,0,0,0,0,0,0,0,
0,0,0,0,0,0,0,0,0,0,0,0,0,0,0,0,
0,0,0,0,0,0,0,0,0,0,0,0,0,0,0,0,
0,0,0,0,0,0,0,0,0,0,0,0,0,0,0,0,
0,0,0,0,0,0,0,0,0,0,0,0,0,0,0,0,
0,0,0,0,0,0,0,0,0,0,0,0,0,0,0,0,
0,0,0,0,0,0,0,0,0,0,0,0,0,0,0,0,
0,0,0,0,0,0,0,0,0,0,0,0,0,0,0,0,
0,0,0,0,0,0,0,0,0,0,0,0,0,0,0,0,
0,0,0,0,0,0,0,0,0,0,0,0,0,0,0,0,
0,0,0,0,0,0,0,0,0,0,0,0,0,0,0,0,
0,0,0,0,0,0,0,0,0,0,0,0,0,0,0,0,
0,0,0,0,0,0,0,0,0,0,0,0,0,0,0,0,
0,0,0,0,0,0,0,0,0,0,0,0,0,0,0,0
</chunk>
   <chunk x="48" y="-32" width="16" height="16">
0,2070,0,0,0,0,0,0,0,2074,0,0,0,0,0,0,
0,0,0,0,0,0,0,0,0,0,0,0,0,0,0,0,
0,0,0,0,0,0,0,0,0,0,0,0,0,0,0,0,
0,0,0,0,0,0,0,0,0,0,0,0,0,0,0,0,
0,0,0,0,0,0,0,0,0,0,0,0,0,0,0,0,
0,0,0,0,0,0,0,0,0,0,0,0,0,0,0,0,
0,0,0,0,0,0,0,0,0,0,0,0,0,0,0,0,
0,0,0,0,0,0,0,0,0,0,0,0,0,0,0,0,
0,2076,0,0,0,0,0,0,0,2074,0,0,0,0,0,0,
0,0,0,0,0,0,0,0,0,0,0,0,0,0,0,0,
0,0,0,0,0,0,0,0,0,0,0,0,0,0,0,0,
0,0,0,0,0,0,0,0,0,0,0,0,0,0,0,0,
0,0,0,0,0,0,0,0,0,0,0,0,0,0,0,0,
0,0,0,0,0,0,0,0,0,0,0,0,0,0,0,0,
0,0,0,0,0,0,0,0,0,0,0,0,0,0,0,0,
0,0,0,0,0,0,0,0,0,0,0,0,0,0,0,0
</chunk>
   <chunk x="-80" y="-16" width="16" height="16">
0,0,0,0,0,0,0,0,0,2078,0,0,0,0,0,0,
0,0,0,0,0,0,0,0,0,0,0,0,0,0,0,0,
0,0,0,0,0,0,0,0,0,0,0,0,0,0,0,0,
0,0,0,0,0,0,0,0,0,0,0,0,0,0,0,0,
0,0,0,0,0,0,0,0,0,0,0,0,0,0,0,0,
0,0,0,0,0,0,0,0,0,0,0,0,0,0,0,0,
0,0,0,0,0,0,0,0,0,0,0,0,0,0,0,0,
0,0,0,0,0,0,0,0,0,0,0,0,0,0,0,0,
0,0,0,0,0,0,0,0,0,2076,0,0,0,0,0,0,
0,0,0,0,0,0,0,0,0,0,0,0,0,0,0,0,
0,0,0,0,0,0,0,0,0,0,0,0,0,0,0,0,
0,0,0,0,0,0,0,0,0,0,0,0,0,0,0,0,
0,0,0,0,0,0,0,0,0,0,0,0,0,0,0,0,
0,0,0,0,0,0,0,0,0,0,0,0,0,0,0,0,
0,0,0,0,0,0,0,0,0,0,0,0,0,0,0,0,
0,0,0,0,0,0,0,0,0,0,0,0,0,0,0,0
</chunk>
   <chunk x="-64" y="-16" width="16" height="16">
0,2081,0,0,0,0,0,0,0,2081,0,0,0,0,0,0,
0,0,0,0,0,0,0,0,0,0,0,0,0,0,0,0,
0,0,0,0,0,0,0,0,0,0,0,0,0,0,0,0,
0,0,0,0,0,0,0,0,0,0,0,0,0,0,0,0,
0,0,0,0,0,0,0,0,0,0,0,0,0,0,0,0,
0,0,0,0,0,0,0,0,0,0,0,0,0,0,0,0,
0,0,0,0,0,0,0,0,0,0,0,0,0,0,0,0,
0,0,0,0,0,0,0,0,0,0,0,0,0,0,0,0,
0,2065,0,0,0,0,0,0,0,2065,0,0,0,0,0,0,
0,0,0,0,0,0,0,0,0,0,0,0,0,0,0,0,
0,0,0,0,0,0,0,0,0,0,0,0,0,0,0,0,
0,0,0,0,0,0,0,0,0,0,0,0,0,0,0,0,
0,0,0,0,0,0,0,0,0,0,0,0,0,0,0,0,
0,0,0,0,0,0,0,0,0,0,0,0,0,0,0,0,
0,0,0,0,0,0,0,0,0,0,0,0,0,0,0,0,
0,0,0,0,0,0,0,0,0,0,0,0,0,0,0,0
</chunk>
   <chunk x="-48" y="-16" width="16" height="16">
0,2079,0,0,0,0,0,0,0,0,0,0,0,0,0,0,
0,0,0,0,0,0,0,0,0,0,0,0,0,0,0,0,
0,0,0,0,0,0,0,0,0,0,0,0,0,0,0,0,
0,0,0,0,0,0,0,0,0,0,0,0,0,0,0,0,
0,0,0,0,0,0,0,0,0,0,0,0,0,0,0,0,
0,0,0,0,0,0,0,0,0,0,0,0,0,0,0,0,
0,0,0,0,0,0,0,0,0,0,0,0,0,0,0,0,
0,0,0,0,0,0,0,0,0,0,0,0,0,0,0,0,
0,2080,0,0,0,0,0,0,0,2079,0,0,0,0,0,0,
0,0,0,0,0,0,0,0,0,0,0,0,0,0,0,0,
0,0,0,0,0,0,0,0,0,0,0,0,0,0,0,0,
0,0,0,0,0,0,0,0,0,0,0,0,0,0,0,0,
0,0,0,0,0,0,0,0,0,0,0,0,0,0,0,0,
0,0,0,0,0,0,0,0,0,0,0,0,0,0,0,0,
0,0,0,0,0,0,0,0,0,0,0,0,0,0,0,0,
0,0,0,0,0,0,0,0,0,0,0,0,0,0,0,0
</chunk>
   <chunk x="-32" y="-16" width="16" height="16">
0,0,0,0,0,0,0,0,0,0,0,0,0,0,0,0,
0,0,0,0,0,0,0,0,0,0,0,0,0,0,0,0,
0,0,0,0,0,0,0,0,0,0,0,0,0,0,0,0,
0,0,0,0,0,0,0,0,0,0,0,0,0,0,0,0,
0,0,0,0,0,0,0,0,0,0,0,0,0,0,0,0,
0,0,0,0,0,0,0,0,0,0,0,0,0,0,0,0,
0,0,0,0,0,0,0,0,0,0,0,0,0,0,0,0,
0,0,0,0,0,0,0,0,0,0,0,0,0,0,0,0,
0,0,0,0,0,0,0,0,0,0,0,0,0,0,0,0,
0,0,0,0,0,0,0,0,0,0,0,0,0,0,0,0,
0,0,0,0,0,0,0,0,0,0,0,0,0,0,0,0,
0,0,0,0,0,0,0,0,0,0,0,0,0,0,0,0,
0,0,0,0,0,0,0,0,0,0,0,0,0,0,0,0,
0,0,0,0,0,0,0,0,0,0,0,0,0,0,0,0,
0,0,0,0,0,0,0,0,0,0,0,0,0,0,0,0,
0,0,0,0,0,0,0,0,0,0,0,0,0,0,2078,0
</chunk>
   <chunk x="-16" y="-16" width="16" height="16">
0,0,0,0,0,0,0,0,0,0,0,0,0,0,0,0,
0,0,0,0,0,0,0,0,0,0,0,0,0,0,0,0,
0,0,0,0,0,0,0,0,0,0,0,0,0,0,0,0,
0,0,0,0,0,0,0,0,0,0,0,0,0,0,0,0,
0,0,0,0,0,0,0,0,0,0,0,0,0,0,0,0,
0,0,0,0,0,0,0,0,0,0,0,0,0,0,0,0,
0,0,0,0,0,0,0,0,0,0,0,0,0,0,0,0,
0,0,0,0,0,0,2076,0,0,0,0,0,0,0,2074,0,
0,0,0,0,0,0,0,0,0,0,0,0,0,0,0,0,
0,0,0,0,0,0,0,0,0,0,0,0,0,0,0,0,
0,0,0,0,0,0,0,0,0,0,0,0,0,0,0,0,
0,0,0,0,0,0,0,0,0,0,0,0,0,0,0,0,
0,0,0,0,0,0,0,0,0,0,0,0,0,0,0,0,
0,0,0,0,0,0,0,0,0,0,0,0,0,0,0,0,
0,0,0,0,0,0,0,0,0,0,0,0,0,0,0,0,
0,0,0,0,0,0,2082,0,0,0,0,0,0,0,2074,0
</chunk>
   <chunk x="16" y="-16" width="16" height="16">
0,2076,0,0,0,0,0,0,0,2080,0,0,0,0,0,0,
0,0,0,0,0,0,0,0,0,0,0,0,0,0,0,0,
0,0,0,0,0,0,0,0,0,0,0,0,0,0,0,0,
0,0,0,0,0,0,0,0,0,0,0,0,0,0,0,0,
0,0,0,0,0,0,0,0,0,0,0,0,0,0,0,0,
0,0,0,0,0,0,0,0,0,0,0,0,0,0,0,0,
0,0,0,0,0,0,0,0,0,0,0,0,0,0,0,0,
0,0,0,0,0,0,0,0,0,0,0,0,0,0,0,0,
0,2076,0,0,0,0,0,0,0,2068,0,0,0,0,0,0,
0,0,0,0,0,0,0,0,0,0,0,0,0,0,0,0,
0,0,0,0,0,0,0,0,0,0,0,0,0,0,0,0,
0,0,0,0,0,0,0,0,0,0,0,0,0,0,0,0,
0,0,0,0,0,0,0,0,0,0,0,0,0,0,0,0,
0,0,0,0,0,0,0,0,0,0,0,0,0,0,0,0,
0,0,0,0,0,0,0,0,0,0,0,0,0,0,0,0,
0,0,0,0,0,0,0,0,0,0,0,0,0,0,0,0
</chunk>
   <chunk x="32" y="-16" width="16" height="16">
0,2067,0,0,0,0,0,0,0,2081,0,0,0,0,0,0,
0,0,0,0,0,0,0,0,0,0,0,0,0,0,0,0,
0,0,0,0,0,0,0,0,0,0,0,0,0,0,0,0,
0,0,0,0,0,0,0,0,0,0,0,0,0,0,0,0,
0,0,0,0,0,0,0,0,0,0,0,0,0,0,0,0,
0,0,0,0,0,0,0,0,0,0,0,0,0,0,0,0,
0,0,0,0,0,0,0,0,0,0,0,0,0,0,0,0,
0,0,0,0,0,0,0,0,0,0,0,0,0,0,0,0,
0,2073,0,0,0,0,0,0,0,2070,0,0,0,0,0,0,
0,0,0,0,0,0,0,0,0,0,0,0,0,0,0,0,
0,0,0,0,0,0,0,0,0,0,0,0,0,0,0,0,
0,0,0,0,0,0,0,0,0,0,0,0,0,0,0,0,
0,0,0,0,0,0,0,0,0,0,0,0,0,0,0,0,
0,0,0,0,0,0,0,0,0,0,0,0,0,0,0,0,
0,0,0,0,0,0,0,0,0,0,0,0,0,0,0,0,
0,0,0,0,0,0,0,0,0,0,0,0,0,0,0,0
</chunk>
   <chunk x="48" y="-16" width="16" height="16">
0,2082,0,0,0,0,0,0,0,2074,0,0,0,0,0,0,
0,0,0,0,0,0,0,0,0,0,0,0,0,0,0,0,
0,0,0,0,0,0,0,0,0,0,0,0,0,0,0,0,
0,0,0,0,0,0,0,0,0,0,0,0,0,0,0,0,
0,0,0,0,0,0,0,0,0,0,0,0,0,0,0,0,
0,0,0,0,0,0,0,0,0,0,0,0,0,0,0,0,
0,0,0,0,0,0,0,0,0,0,0,0,0,0,0,0,
0,0,0,0,0,0,0,0,0,0,0,0,0,0,0,0,
0,2065,0,0,0,0,0,0,0,2074,0,0,0,0,0,0,
0,0,0,0,0,0,0,0,0,0,0,0,0,0,0,0,
0,0,0,0,0,0,0,0,0,0,0,0,0,0,0,0,
0,0,0,0,0,0,0,0,0,0,0,0,0,0,0,0,
0,0,0,0,0,0,0,0,0,0,0,0,0,0,0,0,
0,0,0,0,0,0,0,0,0,0,0,0,0,0,0,0,
0,0,0,0,0,0,0,0,0,0,0,0,0,0,0,0,
0,0,0,0,0,0,0,0,0,0,0,0,0,0,0,0
</chunk>
   <chunk x="-80" y="0" width="16" height="16">
0,2078,0,0,0,0,0,0,0,2082,0,0,0,0,0,0,
0,0,0,0,0,0,0,0,0,0,0,0,0,0,0,0,
0,0,0,0,0,0,0,0,0,0,0,0,0,0,0,0,
0,0,0,0,0,0,0,0,0,0,0,0,0,0,0,0,
0,0,0,0,0,0,0,0,0,0,0,0,0,0,0,0,
0,0,0,0,0,0,0,0,0,0,0,0,0,0,0,0,
0,0,0,0,0,0,0,0,0,0,0,0,0,0,0,0,
0,0,0,0,0,0,0,0,0,0,0,0,0,0,0,0,
0,2076,0,0,0,0,0,0,0,2068,0,0,0,0,0,0,
0,0,0,0,0,0,0,0,0,0,0,0,0,0,0,0,
0,0,0,0,0,0,0,0,0,0,0,0,0,0,0,0,
0,0,0,0,0,0,0,0,0,0,0,0,0,0,0,0,
0,0,0,0,0,0,0,0,0,0,0,0,0,0,0,0,
0,0,0,0,0,0,0,0,0,0,0,0,0,0,0,0,
0,0,0,0,0,0,0,0,0,0,0,0,0,0,0,0,
0,0,0,0,0,0,0,0,0,0,0,0,0,0,0,0
</chunk>
   <chunk x="-64" y="0" width="16" height="16">
0,2068,0,0,0,0,0,0,0,2069,0,0,0,0,0,0,
0,0,0,0,0,0,0,0,0,0,0,0,0,0,0,0,
0,0,0,0,0,0,0,0,0,0,0,0,0,0,0,0,
0,0,0,0,0,0,0,0,0,0,0,0,0,0,0,0,
0,0,0,0,0,0,0,0,0,0,0,0,0,0,0,0,
0,0,0,0,0,0,0,0,0,0,0,0,0,0,0,0,
0,0,0,0,0,0,0,0,0,0,0,0,0,0,0,0,
0,0,0,0,0,0,0,0,0,0,0,0,0,0,0,0,
0,2085,0,0,0,0,0,0,0,0,0,0,0,0,0,0,
0,0,0,0,0,0,0,0,0,0,0,0,0,0,0,0,
0,0,0,0,0,0,0,0,0,0,0,0,0,0,0,0,
0,0,0,0,0,0,0,0,0,0,0,0,0,0,0,0,
0,0,0,0,0,0,0,0,0,0,0,0,0,0,0,0,
0,0,0,0,0,0,0,0,0,0,0,0,0,0,0,0,
0,0,0,0,0,0,0,0,0,0,0,0,0,0,0,0,
0,0,0,0,0,0,0,0,0,0,0,0,0,0,0,0
</chunk>
   <chunk x="-48" y="0" width="16" height="16">
0,2070,0,0,0,0,0,0,0,2080,0,0,0,0,0,0,
0,0,0,0,0,0,0,0,0,0,0,0,0,0,0,0,
0,0,0,0,0,0,0,0,0,0,0,0,0,0,0,0,
0,0,0,0,0,0,0,0,0,0,0,0,0,0,0,0,
0,0,0,0,0,0,0,0,0,0,0,0,0,0,0,0,
0,0,0,0,0,0,0,0,0,0,0,0,0,0,0,0,
0,0,0,0,0,0,0,0,0,0,0,0,0,0,0,0,
0,0,0,0,0,0,0,0,0,0,0,0,0,0,0,0,
0,2084,0,0,0,0,0,0,0,2070,0,0,0,0,0,0,
0,0,0,0,0,0,0,0,0,0,0,0,0,0,0,0,
0,0,0,0,0,0,0,0,0,0,0,0,0,0,0,0,
0,0,0,0,0,0,0,0,0,0,0,0,0,0,0,0,
0,0,0,0,0,0,0,0,0,0,0,0,0,0,0,0,
0,0,0,0,0,0,0,0,0,0,0,0,0,0,0,0,
0,0,0,0,0,0,0,0,0,0,0,0,0,0,0,0,
0,0,0,0,0,0,0,0,0,0,0,0,0,0,0,0
</chunk>
   <chunk x="-32" y="0" width="16" height="16">
0,2079,0,0,0,0,0,0,0,0,0,0,0,0,0,0,
0,0,0,0,0,0,0,0,0,0,0,0,0,0,0,0,
0,0,0,0,0,0,0,0,0,0,0,0,0,0,0,0,
0,0,0,0,0,0,0,0,0,0,0,0,0,0,0,0,
0,0,0,0,0,0,0,0,0,0,0,0,0,0,0,0,
0,0,0,0,0,0,0,0,0,0,0,0,0,0,0,0,
0,0,0,0,0,0,0,0,0,0,0,0,0,0,0,0,
0,0,0,0,0,0,0,0,0,0,0,0,0,0,2084,0,
0,2074,0,0,0,0,0,0,0,0,0,0,0,0,0,0,
0,0,0,0,0,0,0,0,0,0,0,0,0,0,0,0,
0,0,0,0,0,0,0,0,0,0,0,0,0,0,0,0,
0,0,0,0,0,0,0,0,0,0,0,0,0,0,0,0,
0,0,0,0,0,0,0,0,0,0,0,0,0,0,0,0,
0,0,0,0,0,0,0,0,0,0,0,0,0,0,0,0,
0,0,0,0,0,0,0,0,0,0,0,0,0,0,0,0,
0,0,0,0,0,0,0,0,0,0,0,0,0,0,0,0
</chunk>
   <chunk x="-16" y="0" width="16" height="16">
0,0,0,0,0,0,0,0,0,0,0,0,0,0,0,0,
0,0,0,0,0,0,0,0,0,0,0,0,0,0,0,0,
0,0,0,0,0,0,0,0,0,0,0,0,0,0,0,0,
0,0,0,0,0,0,0,0,0,0,0,0,0,0,0,0,
0,0,0,0,0,0,0,0,0,0,0,0,0,0,0,0,
0,0,0,0,0,0,0,0,0,0,0,0,0,0,0,0,
0,0,0,0,0,0,0,0,0,0,0,0,0,0,0,0,
0,0,0,0,0,0,2069,0,0,0,0,0,0,0,2085,0,
0,0,0,0,0,0,0,0,0,0,0,0,0,0,0,0,
0,0,0,0,0,0,0,0,0,0,0,0,0,0,0,0,
0,0,0,0,0,0,0,0,0,0,0,0,0,0,0,0,
0,0,0,0,0,0,0,0,0,0,0,0,0,0,0,0,
0,0,0,0,0,0,0,0,0,0,0,0,0,0,0,0,
0,0,0,0,0,0,0,0,0,0,0,0,0,0,0,0,
0,0,0,0,0,0,0,0,0,0,0,0,0,0,0,0,
0,0,0,0,0,0,0,0,0,0,0,0,0,0,0,0
</chunk>
   <chunk x="0" y="0" width="16" height="16">
0,0,0,0,0,0,0,0,0,2078,0,0,0,0,0,0,
0,0,0,0,0,0,0,0,0,0,0,0,0,0,0,0,
0,0,0,0,0,0,0,0,0,0,0,0,0,0,0,0,
0,0,0,0,0,0,0,0,0,0,0,0,0,0,0,0,
0,0,0,0,0,0,0,0,0,0,0,0,0,0,0,0,
0,0,0,0,0,0,0,0,0,0,0,0,0,0,0,0,
0,0,0,0,0,0,0,0,0,0,0,0,0,0,0,0,
0,0,0,0,0,0,0,0,0,0,0,0,0,0,0,0,
0,0,0,0,0,0,0,0,0,2076,0,0,0,0,0,0,
0,0,0,0,0,0,0,0,0,0,0,0,0,0,0,0,
0,0,0,0,0,0,0,0,0,0,0,0,0,0,0,0,
0,0,0,0,0,0,0,0,0,0,0,0,0,0,0,0,
0,0,0,0,0,0,0,0,0,0,0,0,0,0,0,0,
0,0,0,0,0,0,0,0,0,0,0,0,0,0,0,0,
0,0,0,0,0,0,0,0,0,0,0,0,0,0,0,0,
0,0,0,0,0,0,0,0,0,0,0,0,0,0,0,0
</chunk>
   <chunk x="16" y="0" width="16" height="16">
0,2082,0,0,0,0,0,0,0,2074,0,0,0,0,0,0,
0,0,0,0,0,0,0,0,0,0,0,0,0,0,0,0,
0,0,0,0,0,0,0,0,0,0,0,0,0,0,0,0,
0,0,0,0,0,0,0,0,0,0,0,0,0,0,0,0,
0,0,0,0,0,0,0,0,0,0,0,0,0,0,0,0,
0,0,0,0,0,0,0,0,0,0,0,0,0,0,0,0,
0,0,0,0,0,0,0,0,0,0,0,0,0,0,0,0,
0,0,0,0,0,0,0,0,0,0,0,0,0,0,0,0,
0,2068,0,0,0,0,0,0,0,2085,0,0,0,0,0,0,
0,0,0,0,0,0,0,0,0,0,0,0,0,0,0,0,
0,0,0,0,0,0,0,0,0,0,0,0,0,0,0,0,
0,0,0,0,0,0,0,0,0,0,0,0,0,0,0,0,
0,0,0,0,0,0,0,0,0,0,0,0,0,0,0,0,
0,0,0,0,0,0,0,0,0,0,0,0,0,0,0,0,
0,0,0,0,0,0,0,0,0,0,0,0,0,0,0,0,
0,0,0,0,0,0,0,0,0,0,0,0,0,0,0,0
</chunk>
   <chunk x="32" y="0" width="16" height="16">
0,0,0,0,0,0,0,0,0,2076,0,0,0,0,0,0,
0,0,0,0,0,0,0,0,0,0,0,0,0,0,0,0,
0,0,0,0,0,0,0,0,0,0,0,0,0,0,0,0,
0,0,0,0,0,0,0,0,0,0,0,0,0,0,0,0,
0,0,0,0,0,0,0,0,0,0,0,0,0,0,0,0,
0,0,0,0,0,0,0,0,0,0,0,0,0,0,0,0,
0,0,0,0,0,0,0,0,0,0,0,0,0,0,0,0,
0,0,0,0,0,0,0,0,0,0,0,0,0,0,0,0,
0,0,0,0,0,0,0,0,0,2076,0,0,0,0,0,0,
0,0,0,0,0,0,0,0,0,0,0,0,0,0,0,0,
0,0,0,0,0,0,0,0,0,0,0,0,0,0,0,0,
0,0,0,0,0,0,0,0,0,0,0,0,0,0,0,0,
0,0,0,0,0,0,0,0,0,0,0,0,0,0,0,0,
0,0,0,0,0,0,0,0,0,0,0,0,0,0,0,0,
0,0,0,0,0,0,0,0,0,0,0,0,0,0,0,0,
0,0,0,0,0,0,0,0,0,0,0,0,0,0,0,0
</chunk>
   <chunk x="48" y="0" width="16" height="16">
0,2065,0,0,0,0,0,0,0,2074,0,0,0,0,0,0,
0,0,0,0,0,0,0,0,0,0,0,0,0,0,0,0,
0,0,0,0,0,0,0,0,0,0,0,0,0,0,0,0,
0,0,0,0,0,0,0,0,0,0,0,0,0,0,0,0,
0,0,0,0,0,0,0,0,0,0,0,0,0,0,0,0,
0,0,0,0,0,0,0,0,0,0,0,0,0,0,0,0,
0,0,0,0,0,0,0,0,0,0,0,0,0,0,0,0,
0,0,0,0,0,0,0,0,0,0,0,0,0,0,0,0,
0,2068,0,0,0,0,0,0,0,2085,0,0,0,0,0,0,
0,0,0,0,0,0,0,0,0,0,0,0,0,0,0,0,
0,0,0,0,0,0,0,0,0,0,0,0,0,0,0,0,
0,0,0,0,0,0,0,0,0,0,0,0,0,0,0,0,
0,0,0,0,0,0,0,0,0,0,0,0,0,0,0,0,
0,0,0,0,0,0,0,0,0,0,0,0,0,0,0,0,
0,0,0,0,0,0,0,0,0,0,0,0,0,0,0,0,
0,0,0,0,0,0,0,0,0,0,0,0,0,0,0,0
</chunk>
   <chunk x="-96" y="16" width="16" height="16">
0,0,0,0,0,0,0,0,0,2078,0,0,0,0,0,0,
0,0,0,0,0,0,0,0,0,0,0,0,0,0,0,0,
0,0,0,0,0,0,0,0,0,0,0,0,0,0,0,0,
0,0,0,0,0,0,0,0,0,0,0,0,0,0,0,0,
0,0,0,0,0,0,0,0,0,0,0,0,0,0,0,0,
0,0,0,0,0,0,0,0,0,0,0,0,0,0,0,0,
0,0,0,0,0,0,0,0,0,0,0,0,0,0,0,0,
0,0,0,0,0,0,0,0,0,0,0,0,0,0,0,0,
0,0,0,0,0,0,0,0,0,2076,0,0,0,0,0,0,
0,0,0,0,0,0,0,0,0,0,0,0,0,0,0,0,
0,0,0,0,0,0,0,0,0,0,0,0,0,0,0,0,
0,0,0,0,0,0,0,0,0,0,0,0,0,0,0,0,
0,0,0,0,0,0,0,0,0,0,0,0,0,0,0,0,
0,0,0,0,0,0,0,0,0,0,0,0,0,0,0,0,
0,0,0,0,0,0,0,0,0,0,0,0,0,0,0,0,
0,0,0,0,0,0,0,0,0,0,0,0,0,0,0,0
</chunk>
   <chunk x="-80" y="16" width="16" height="16">
0,2082,0,0,0,0,0,0,0,2074,0,0,0,0,0,0,
0,0,0,0,0,0,0,0,0,0,0,0,0,0,0,0,
0,0,0,0,0,0,0,0,0,0,0,0,0,0,0,0,
0,0,0,0,0,0,0,0,0,0,0,0,0,0,0,0,
0,0,0,0,0,0,0,0,0,0,0,0,0,0,0,0,
0,0,0,0,0,0,0,0,0,0,0,0,0,0,0,0,
0,0,0,0,0,0,0,0,0,0,0,0,0,0,0,0,
0,0,0,0,0,0,0,0,0,0,0,0,0,0,0,0,
0,2065,0,0,0,0,0,0,0,2074,0,0,0,0,0,0,
0,0,0,0,0,0,0,0,0,0,0,0,0,0,0,0,
0,0,0,0,0,0,0,0,0,0,0,0,0,0,0,0,
0,0,0,0,0,0,0,0,0,0,0,0,0,0,0,0,
0,0,0,0,0,0,0,0,0,0,0,0,0,0,0,0,
0,0,0,0,0,0,0,0,0,0,0,0,0,0,0,0,
0,0,0,0,0,0,0,0,0,0,0,0,0,0,0,0,
0,0,0,0,0,0,0,0,0,0,0,0,0,0,0,0
</chunk>
   <chunk x="-64" y="16" width="16" height="16">
0,0,0,0,0,0,0,0,0,2078,0,0,0,0,0,0,
0,0,0,0,0,0,0,0,0,0,0,0,0,0,0,0,
0,0,0,0,0,0,0,0,0,0,0,0,0,0,0,0,
0,0,0,0,0,0,0,0,0,0,0,0,0,0,0,0,
0,0,0,0,0,0,0,0,0,0,0,0,0,0,0,0,
0,0,0,0,0,0,0,0,0,0,0,0,0,0,0,0,
0,0,0,0,0,0,0,0,0,0,0,0,0,0,0,0,
0,0,0,0,0,0,0,0,0,0,0,0,0,0,0,0,
0,0,0,0,0,0,0,0,0,2076,0,0,0,0,0,0,
0,0,0,0,0,0,0,0,0,0,0,0,0,0,0,0,
0,0,0,0,0,0,0,0,0,0,0,0,0,0,0,0,
0,0,0,0,0,0,0,0,0,0,0,0,0,0,0,0,
0,0,0,0,0,0,0,0,0,0,0,0,0,0,0,0,
0,0,0,0,0,0,0,0,0,0,0,0,0,0,0,0,
0,0,0,0,0,0,0,0,0,0,0,0,0,0,0,0,
0,0,0,0,0,0,0,0,0,0,0,0,0,0,0,0
</chunk>
   <chunk x="-48" y="16" width="16" height="16">
0,2079,0,0,0,0,0,0,0,2076,0,0,0,0,0,0,
0,0,0,0,0,0,0,0,0,0,0,0,0,0,0,0,
0,0,0,0,0,0,0,0,0,0,0,0,0,0,0,0,
0,0,0,0,0,0,0,0,0,0,0,0,0,0,0,0,
0,0,0,0,0,0,0,0,0,0,0,0,0,0,0,0,
0,0,0,0,0,0,0,0,0,0,0,0,0,0,0,0,
0,0,0,0,0,0,0,0,0,0,0,0,0,0,0,0,
0,0,0,0,0,0,0,0,0,0,0,0,0,0,0,0,
0,2074,0,0,0,0,0,0,0,2084,0,0,0,0,0,0,
0,0,0,0,0,0,0,0,0,0,0,0,0,0,0,0,
0,0,0,0,0,0,0,0,0,0,0,0,0,0,0,0,
0,0,0,0,0,0,0,0,0,0,0,0,0,0,0,0,
0,0,0,0,0,0,0,0,0,0,0,0,0,0,0,0,
0,0,0,0,0,0,0,0,0,0,0,0,0,0,0,0,
0,0,0,0,0,0,0,0,0,0,0,0,0,0,0,0,
0,0,0,0,0,0,0,0,0,0,0,0,0,0,0,0
</chunk>
   <chunk x="-32" y="16" width="16" height="16">
0,2074,0,0,0,0,0,0,0,0,0,0,0,0,0,0,
0,0,0,0,0,0,0,0,0,0,0,0,0,0,0,0,
0,0,0,0,0,0,0,0,0,0,0,0,0,0,0,0,
0,0,0,0,0,0,0,0,0,0,0,0,0,0,0,0,
0,0,0,0,0,0,0,0,0,0,0,0,0,0,0,0,
0,0,0,0,0,0,0,0,0,0,0,0,0,0,0,0,
0,0,0,0,0,0,0,0,0,0,0,0,0,0,0,0,
0,0,0,0,0,0,0,0,0,0,0,0,0,0,0,0,
0,2085,0,0,0,0,0,0,0,0,0,0,0,0,0,0,
0,0,0,0,0,0,0,0,0,0,0,0,0,0,0,0,
0,0,0,0,0,0,0,0,0,0,0,0,0,0,0,0,
0,0,0,0,0,0,0,0,0,0,0,0,0,0,0,0,
0,0,0,0,0,0,0,0,0,0,0,0,0,0,0,0,
0,0,0,0,0,0,0,0,0,0,0,0,0,0,0,0,
0,0,0,0,0,0,0,0,0,0,0,0,0,0,0,0,
0,0,0,0,0,0,0,0,0,0,0,0,0,0,0,0
</chunk>
   <chunk x="-16" y="16" width="16" height="16">
0,0,0,0,0,0,0,0,0,2078,0,0,0,0,0,0,
0,0,0,0,0,0,0,0,0,0,0,0,0,0,0,0,
0,0,0,0,0,0,0,0,0,0,0,0,0,0,0,0,
0,0,0,0,0,0,0,0,0,0,0,0,0,0,0,0,
0,0,0,0,0,0,0,0,0,0,0,0,0,0,0,0,
0,0,0,0,0,0,0,0,0,0,0,0,0,0,0,0,
0,0,0,0,0,0,0,0,0,0,0,0,0,0,0,0,
0,0,0,0,0,0,0,0,0,0,0,0,0,0,0,0,
0,2079,0,0,0,0,0,0,0,2084,0,0,0,0,0,0,
0,0,0,0,0,0,0,0,0,0,0,0,0,0,0,0,
0,0,0,0,0,0,0,0,0,0,0,0,0,0,0,0,
0,0,0,0,0,0,0,0,0,0,0,0,0,0,0,0,
0,0,0,0,0,0,0,0,0,0,0,0,0,0,0,0,
0,0,0,0,0,0,0,0,0,0,0,0,0,0,0,0,
0,0,0,0,0,0,0,0,0,0,0,0,0,0,0,0,
0,0,0,0,0,0,0,0,0,0,0,0,0,0,0,0
</chunk>
   <chunk x="0" y="16" width="16" height="16">
0,2081,0,0,0,0,0,0,0,2077,0,0,0,0,0,0,
0,0,0,0,0,0,0,0,0,0,0,0,0,0,0,0,
0,0,0,0,0,0,0,0,0,0,0,0,0,0,0,0,
0,0,0,0,0,0,0,0,0,0,0,0,0,0,0,0,
0,0,0,0,0,0,0,0,0,0,0,0,0,0,0,0,
0,0,0,0,0,0,0,0,0,0,0,0,0,0,0,0,
0,0,0,0,0,0,0,0,0,0,0,0,0,0,0,0,
0,0,0,0,0,0,0,0,0,0,0,0,0,0,0,0,
0,2069,0,0,0,0,0,0,0,2085,0,0,0,0,0,0,
0,0,0,0,0,0,0,0,0,0,0,0,0,0,0,0,
0,0,0,0,0,0,0,0,0,0,0,0,0,0,0,0,
0,0,0,0,0,0,0,0,0,0,0,0,0,0,0,0,
0,0,0,0,0,0,0,0,0,0,0,0,0,0,0,0,
0,0,0,0,0,0,0,0,0,0,0,0,0,0,0,0,
0,0,0,0,0,0,0,0,0,0,0,0,0,0,0,0,
0,0,0,0,0,0,0,0,0,0,0,0,0,0,0,0
</chunk>
   <chunk x="16" y="16" width="16" height="16">
0,2085,0,0,0,0,0,0,0,0,0,0,0,0,0,0,
0,0,0,0,0,0,0,0,0,0,0,0,0,0,0,0,
0,0,0,0,0,0,0,0,0,0,0,0,0,0,0,0,
0,0,0,0,0,0,0,0,0,0,0,0,0,0,0,0,
0,0,0,0,0,0,0,0,0,0,0,0,0,0,0,0,
0,0,0,0,0,0,0,0,0,0,0,0,0,0,0,0,
0,0,0,0,0,0,0,0,0,0,0,0,0,0,0,0,
0,0,0,0,0,0,0,0,0,0,0,0,0,0,0,0,
0,0,0,0,0,0,0,0,0,2078,0,0,0,0,0,0,
0,0,0,0,0,0,0,0,0,0,0,0,0,0,0,0,
0,0,0,0,0,0,0,0,0,0,0,0,0,0,0,0,
0,0,0,0,0,0,0,0,0,0,0,0,0,0,0,0,
0,0,0,0,0,0,0,0,0,0,0,0,0,0,0,0,
0,0,0,0,0,0,0,0,0,0,0,0,0,0,0,0,
0,0,0,0,0,0,0,0,0,0,0,0,0,0,0,0,
0,0,0,0,0,0,0,0,0,0,0,0,0,0,0,0
</chunk>
   <chunk x="32" y="16" width="16" height="16">
0,0,0,0,0,0,0,0,0,2071,0,0,0,0,0,0,
0,0,0,0,0,0,0,0,0,0,0,0,0,0,0,0,
0,0,0,0,0,0,0,0,0,0,0,0,0,0,0,0,
0,0,0,0,0,0,0,0,0,0,0,0,0,0,0,0,
0,0,0,0,0,0,0,0,0,0,0,0,0,0,0,0,
0,0,0,0,0,0,0,0,0,0,0,0,0,0,0,0,
0,0,0,0,0,0,0,0,0,0,0,0,0,0,0,0,
0,0,0,0,0,0,0,0,0,0,0,0,0,0,0,0,
0,2081,0,0,0,0,0,0,0,2082,0,0,0,0,0,0,
0,0,0,0,0,0,0,0,0,0,0,0,0,0,0,0,
0,0,0,0,0,0,0,0,0,0,0,0,0,0,0,0,
0,0,0,0,0,0,0,0,0,0,0,0,0,0,0,0,
0,0,0,0,0,0,0,0,0,0,0,0,0,0,0,0,
0,0,0,0,0,0,0,0,0,0,0,0,0,0,0,0,
0,0,0,0,0,0,0,0,0,0,0,0,0,0,0,0,
0,0,0,0,0,0,0,0,0,0,0,0,0,0,0,0
</chunk>
   <chunk x="48" y="16" width="16" height="16">
0,2072,0,0,0,0,0,0,0,0,0,0,0,0,0,0,
0,0,0,0,0,0,0,0,0,0,0,0,0,0,0,0,
0,0,0,0,0,0,0,0,0,0,0,0,0,0,0,0,
0,0,0,0,0,0,0,0,0,0,0,0,0,0,0,0,
0,0,0,0,0,0,0,0,0,0,0,0,0,0,0,0,
0,0,0,0,0,0,0,0,0,0,0,0,0,0,0,0,
0,0,0,0,0,0,0,0,0,0,0,0,0,0,0,0,
0,0,0,0,0,0,0,0,0,0,0,0,0,0,0,0,
0,2080,0,0,0,0,0,0,0,2079,0,0,0,0,0,0,
0,0,0,0,0,0,0,0,0,0,0,0,0,0,0,0,
0,0,0,0,0,0,0,0,0,0,0,0,0,0,0,0,
0,0,0,0,0,0,0,0,0,0,0,0,0,0,0,0,
0,0,0,0,0,0,0,0,0,0,0,0,0,0,0,0,
0,0,0,0,0,0,0,0,0,0,0,0,0,0,0,0,
0,0,0,0,0,0,0,0,0,0,0,0,0,0,0,0,
0,0,0,0,0,0,0,0,0,0,0,0,0,0,0,0
</chunk>
   <chunk x="-96" y="32" width="16" height="16">
0,0,0,0,0,0,0,0,0,2076,0,0,0,0,0,0,
0,0,0,0,0,0,0,0,0,0,0,0,0,0,0,0,
0,0,0,0,0,0,0,0,0,0,0,0,0,0,0,0,
0,0,0,0,0,0,0,0,0,0,0,0,0,0,0,0,
0,0,0,0,0,0,0,0,0,0,0,0,0,0,0,0,
0,0,0,0,0,0,0,0,0,0,0,0,0,0,0,0,
0,0,0,0,0,0,0,0,0,0,0,0,0,0,0,0,
0,0,0,0,0,0,0,0,0,0,0,0,0,0,0,0,
0,0,0,0,0,0,0,0,0,2076,0,0,0,0,0,0,
0,0,0,0,0,0,0,0,0,0,0,0,0,0,0,0,
0,0,0,0,0,0,0,0,0,0,0,0,0,0,0,0,
0,0,0,0,0,0,0,0,0,0,0,0,0,0,0,0,
0,0,0,0,0,0,0,0,0,0,0,0,0,0,0,0,
0,0,0,0,0,0,0,0,0,0,0,0,0,0,0,0,
0,0,0,0,0,0,0,0,0,0,0,0,0,0,0,0,
0,0,0,0,0,0,0,0,0,0,0,0,0,0,0,0
</chunk>
   <chunk x="-80" y="32" width="16" height="16">
0,2068,0,0,0,0,0,0,0,2085,0,0,0,0,0,0,
0,0,0,0,0,0,0,0,0,0,0,0,0,0,0,0,
0,0,0,0,0,0,0,0,0,0,0,0,0,0,0,0,
0,0,0,0,0,0,0,0,0,0,0,0,0,0,0,0,
0,0,0,0,0,0,0,0,0,0,0,0,0,0,0,0,
0,0,0,0,0,0,0,0,0,0,0,0,0,0,0,0,
0,0,0,0,0,0,0,0,0,0,0,0,0,0,0,0,
0,0,0,0,0,0,0,0,0,0,0,0,0,0,0,0,
0,2074,0,0,0,0,0,0,0,0,0,0,0,0,0,0,
0,0,0,0,0,0,0,0,0,0,0,0,0,0,0,0,
0,0,0,0,0,0,0,0,0,0,0,0,0,0,0,0,
0,0,0,0,0,0,0,0,0,0,0,0,0,0,0,0,
0,0,0,0,0,0,0,0,0,0,0,0,0,0,0,0,
0,0,0,0,0,0,0,0,0,0,0,0,0,0,0,0,
0,0,0,0,0,0,0,0,0,0,0,0,0,0,0,0,
0,0,0,0,0,0,0,0,0,0,0,0,0,0,0,0
</chunk>
   <chunk x="-64" y="32" width="16" height="16">
0,0,0,0,0,0,0,0,0,2076,0,0,0,0,0,0,
0,0,0,0,0,0,0,0,0,0,0,0,0,0,0,0,
0,0,0,0,0,0,0,0,0,0,0,0,0,0,0,0,
0,0,0,0,0,0,0,0,0,0,0,0,0,0,0,0,
0,0,0,0,0,0,0,0,0,0,0,0,0,0,0,0,
0,0,0,0,0,0,0,0,0,0,0,0,0,0,0,0,
0,0,0,0,0,0,0,0,0,0,0,0,0,0,0,0,
0,0,0,0,0,0,0,0,0,0,0,0,0,0,0,0,
0,2078,0,0,0,0,0,0,0,2082,0,0,0,0,0,0,
0,0,0,0,0,0,0,0,0,0,0,0,0,0,0,0,
0,0,0,0,0,0,0,0,0,0,0,0,0,0,0,0,
0,0,0,0,0,0,0,0,0,0,0,0,0,0,0,0,
0,0,0,0,0,0,0,0,0,0,0,0,0,0,0,0,
0,0,0,0,0,0,0,0,0,0,0,0,0,0,0,0,
0,0,0,0,0,0,0,0,0,0,0,0,0,0,0,0,
0,0,0,0,0,0,0,0,0,0,0,0,0,0,0,0
</chunk>
   <chunk x="-48" y="32" width="16" height="16">
0,2074,0,0,0,0,0,0,0,0,0,0,0,0,0,0,
0,0,0,0,0,0,0,0,0,0,0,0,0,0,0,0,
0,0,0,0,0,0,0,0,0,0,0,0,0,0,0,0,
0,0,0,0,0,0,0,0,0,0,0,0,0,0,0,0,
0,0,0,0,0,0,0,0,0,0,0,0,0,0,0,0,
0,0,0,0,0,0,0,0,0,0,0,0,0,0,0,0,
0,0,0,0,0,0,0,0,0,0,0,0,0,0,0,0,
0,0,0,0,0,0,0,0,0,0,0,2086,0,0,0,0,
0,2074,0,0,0,0,0,0,0,0,0,0,0,0,0,0,
0,0,0,0,0,0,0,0,0,0,0,0,0,0,0,0,
0,0,0,0,0,0,0,0,0,0,0,0,0,0,0,0,
0,0,0,0,0,0,0,0,0,0,0,0,0,0,0,0,
0,0,0,0,0,0,0,0,0,0,0,0,0,0,0,0,
0,0,0,0,0,0,0,0,0,0,0,0,0,0,0,0,
0,0,0,0,0,0,0,0,0,0,0,0,0,0,0,0,
0,0,0,0,0,0,0,0,0,0,0,0,0,0,0,0
</chunk>
   <chunk x="-16" y="32" width="16" height="16">
0,2085,0,0,0,0,0,0,0,0,0,0,0,0,0,0,
0,0,0,0,0,0,0,0,0,0,0,0,0,0,0,0,
0,0,0,0,0,0,0,0,0,0,0,0,0,0,0,0,
0,0,0,0,0,0,0,0,0,0,0,0,0,0,0,0,
0,0,0,0,0,0,0,0,0,0,0,0,0,0,0,0,
0,0,0,0,0,0,0,0,0,0,0,0,0,0,0,0,
0,0,0,0,0,0,0,0,0,0,0,0,0,0,0,0,
0,0,0,0,0,0,0,0,0,0,0,0,0,0,0,0,
0,0,0,0,0,0,0,0,0,0,0,0,0,0,0,0,
0,0,0,0,0,0,0,0,0,0,0,0,0,0,0,0,
0,0,0,0,0,0,0,0,0,0,0,0,0,0,0,0,
0,0,0,0,0,0,0,0,0,0,0,0,0,0,0,0,
0,0,0,0,0,0,0,0,0,0,0,0,0,0,0,0,
0,0,0,0,0,0,0,0,0,0,0,0,0,0,0,0,
0,0,0,0,0,0,0,0,0,0,0,0,0,0,0,0,
0,0,0,0,0,0,0,0,0,0,0,0,0,0,0,0
</chunk>
   <chunk x="0" y="32" width="16" height="16">
0,2078,0,0,0,0,0,0,0,2081,0,0,0,0,0,0,
0,0,0,0,0,0,0,0,0,0,0,0,0,0,0,0,
0,0,0,0,0,0,0,0,0,0,0,0,0,0,0,0,
0,0,0,0,0,0,0,0,0,0,0,0,0,0,0,0,
0,0,0,0,0,0,0,0,0,0,0,0,0,0,0,0,
0,0,0,0,0,0,0,0,0,0,0,0,0,0,0,0,
0,0,0,0,0,0,0,0,0,0,0,0,0,0,0,0,
0,0,0,0,0,0,0,0,0,0,0,0,0,0,0,0,
0,2076,0,0,0,0,0,0,0,2065,0,0,0,0,0,0,
0,0,0,0,0,0,0,0,0,0,0,0,0,0,0,0,
0,0,0,0,0,0,0,0,0,0,0,0,0,0,0,0,
0,0,0,0,0,0,0,0,0,0,0,0,0,0,0,0,
0,0,0,0,0,0,0,0,0,0,0,0,0,0,0,0,
0,0,0,0,0,0,0,0,0,0,0,0,0,0,0,0,
0,0,0,0,0,0,0,0,0,0,0,0,0,0,0,0,
0,0,0,0,0,0,0,0,0,0,0,0,0,0,0,0
</chunk>
   <chunk x="16" y="32" width="16" height="16">
0,2081,0,0,0,0,0,0,0,2082,0,0,0,0,0,0,
0,0,0,0,0,0,0,0,0,0,0,0,0,0,0,0,
0,0,0,0,0,0,0,0,0,0,0,0,0,0,0,0,
0,0,0,0,0,0,0,0,0,0,0,0,0,0,0,0,
0,0,0,0,0,0,0,0,0,0,0,0,0,0,0,0,
0,0,0,0,0,0,0,0,0,0,0,0,0,0,0,0,
0,0,0,0,0,0,0,0,0,0,0,0,0,0,0,0,
0,0,0,0,0,0,0,0,0,0,0,0,0,0,0,0,
0,2065,0,0,0,0,0,0,0,2065,0,0,0,0,0,0,
0,0,0,0,0,0,0,0,0,0,0,0,0,0,0,0,
0,0,0,0,0,0,0,0,0,0,0,0,0,0,0,0,
0,0,0,0,0,0,0,0,0,0,0,0,0,0,0,0,
0,0,0,0,0,0,0,0,0,0,0,0,0,0,0,0,
0,0,0,0,0,0,0,0,0,0,0,0,0,0,0,0,
0,0,0,0,0,0,0,0,0,0,0,0,0,0,0,0,
0,0,0,0,0,0,0,0,0,0,0,0,0,0,0,0
</chunk>
   <chunk x="32" y="32" width="16" height="16">
0,2065,0,0,0,0,0,0,0,2065,0,0,0,0,0,0,
0,0,0,0,0,0,0,0,0,0,0,0,0,0,0,0,
0,0,0,0,0,0,0,0,0,0,0,0,0,0,0,0,
0,0,0,0,0,0,0,0,0,0,0,0,0,0,0,0,
0,0,0,0,0,0,0,0,0,0,0,0,0,0,0,0,
0,0,0,0,0,0,0,0,0,0,0,0,0,0,0,0,
0,0,0,0,0,0,0,0,0,0,0,0,0,0,0,0,
0,0,0,0,0,0,0,0,0,0,0,0,0,0,0,0,
0,2068,0,0,0,0,0,0,0,2070,0,0,0,0,0,0,
0,0,0,0,0,0,0,0,0,0,0,0,0,0,0,0,
0,0,0,0,0,0,0,0,0,0,0,0,0,0,0,0,
0,0,0,0,0,0,0,0,0,0,0,0,0,0,0,0,
0,0,0,0,0,0,0,0,0,0,0,0,0,0,0,0,
0,0,0,0,0,0,0,0,0,0,0,0,0,0,0,0,
0,0,0,0,0,0,0,0,0,0,0,0,0,0,0,0,
0,0,0,0,0,0,0,0,0,0,0,0,0,0,0,0
</chunk>
   <chunk x="48" y="32" width="16" height="16">
0,2065,0,0,0,0,0,0,0,2074,0,0,0,0,0,0,
0,0,0,0,0,0,0,0,0,0,0,0,0,0,0,0,
0,0,0,0,0,0,0,0,0,0,0,0,0,0,0,0,
0,0,0,0,0,0,0,0,0,0,0,0,0,0,0,0,
0,0,0,0,0,0,0,0,0,0,0,0,0,0,0,0,
0,0,0,0,0,0,0,0,0,0,0,0,0,0,0,0,
0,0,0,0,0,0,0,0,0,0,0,0,0,0,0,0,
0,0,0,0,0,0,0,0,0,0,0,0,0,0,0,0,
0,2065,0,0,0,0,0,0,0,2074,0,0,0,0,0,0,
0,0,0,0,0,0,0,0,0,0,0,0,0,0,0,0,
0,0,0,0,0,0,0,0,0,0,0,0,0,0,0,0,
0,0,0,0,0,0,0,0,0,0,0,0,0,0,0,0,
0,0,0,0,0,0,0,0,0,0,0,0,0,0,0,0,
0,0,0,0,0,0,0,0,0,0,0,0,0,0,0,0,
0,0,0,0,0,0,0,0,0,0,0,0,0,0,0,0,
0,0,0,0,0,0,0,0,0,0,0,0,0,0,0,0
</chunk>
   <chunk x="-96" y="48" width="16" height="16">
0,0,0,0,0,0,0,0,0,2076,0,0,0,0,0,0,
0,0,0,0,0,0,0,0,0,0,0,0,0,0,0,0,
0,0,0,0,0,0,0,0,0,0,0,0,0,0,0,0,
0,0,0,0,0,0,0,0,0,0,0,0,0,0,0,0,
0,0,0,0,0,0,0,0,0,0,0,0,0,0,0,0,
0,0,0,0,0,0,0,0,0,0,0,0,0,0,0,0,
0,0,0,0,0,0,0,0,0,0,0,0,0,0,0,0,
0,0,0,0,0,0,0,0,0,0,0,0,0,0,0,0,
0,0,0,0,0,0,0,0,0,2076,0,0,0,0,0,0,
0,0,0,0,0,0,0,0,0,0,0,0,0,0,0,0,
0,0,0,0,0,0,0,0,0,0,0,0,0,0,0,0,
0,0,0,0,0,0,0,0,0,0,0,0,0,0,0,0,
0,0,0,0,0,0,0,0,0,0,0,0,0,0,0,0,
0,0,0,0,0,0,0,0,0,0,0,0,0,0,0,0,
0,0,0,0,0,0,0,0,0,0,0,0,0,0,0,0,
0,0,0,0,0,0,0,0,0,0,0,0,0,0,0,0
</chunk>
   <chunk x="-80" y="48" width="16" height="16">
0,2080,0,0,0,0,0,0,0,2079,0,0,0,0,0,0,
0,0,0,0,0,0,0,0,0,0,0,0,0,0,0,0,
0,0,0,0,0,0,0,0,0,0,0,0,0,0,0,0,
0,0,0,0,0,0,0,0,0,0,0,0,0,0,0,0,
0,0,0,0,0,0,0,0,0,0,0,0,0,0,0,0,
0,0,0,0,0,0,0,0,0,0,0,0,0,0,0,0,
0,0,0,0,0,0,0,0,0,0,0,0,0,0,0,0,
0,0,0,0,0,0,0,0,0,0,0,0,0,0,0,0,
0,2068,0,0,0,0,0,0,0,2085,0,0,0,0,0,0,
0,0,0,0,0,0,0,0,0,0,0,0,0,0,0,0,
0,0,0,0,0,0,0,0,0,0,0,0,0,0,0,0,
0,0,0,0,0,0,0,0,0,0,0,0,0,0,0,0,
0,0,0,0,0,0,0,0,0,0,0,0,0,0,0,0,
0,0,0,0,0,0,0,0,0,0,0,0,0,0,0,0,
0,0,0,0,0,0,0,0,0,0,0,0,0,0,0,0,
0,0,0,0,0,0,0,0,0,0,0,0,0,0,0,0
</chunk>
   <chunk x="-64" y="48" width="16" height="16">
0,2076,0,0,0,0,0,0,0,2068,0,0,0,0,0,0,
0,0,0,0,0,0,0,0,0,0,0,0,0,0,0,0,
0,0,0,0,0,0,0,0,0,0,0,0,0,0,0,0,
0,0,0,0,0,0,0,0,0,0,0,0,0,0,0,0,
0,0,0,0,0,0,0,0,0,0,0,0,0,0,0,0,
0,0,0,0,0,0,0,0,0,0,0,0,0,0,0,0,
0,0,0,0,0,0,0,0,0,0,0,0,0,0,0,0,
0,0,0,0,0,0,0,0,0,0,0,0,0,0,0,0,
0,2076,0,0,0,0,0,0,0,2080,0,0,0,0,0,0,
0,0,0,0,0,0,0,0,0,0,0,0,0,0,0,0,
0,0,0,0,0,0,0,0,0,0,0,0,0,0,0,0,
0,0,0,0,0,0,0,0,0,0,0,0,0,0,0,0,
0,0,0,0,0,0,0,0,0,0,0,0,0,0,0,0,
0,0,0,0,0,0,0,0,0,0,0,0,0,0,0,0,
0,0,0,0,0,0,0,0,0,0,0,0,0,0,0,0,
0,0,0,0,0,0,0,0,0,0,0,0,0,0,0,0
</chunk>
   <chunk x="-48" y="48" width="16" height="16">
0,2085,0,0,0,0,0,0,0,2078,0,0,0,0,0,0,
0,0,0,0,0,0,0,0,0,0,0,0,0,0,0,0,
0,0,0,0,0,0,0,0,0,0,0,0,0,0,0,0,
0,0,0,0,0,0,0,0,0,0,0,0,0,0,0,0,
0,0,0,0,0,0,0,0,0,0,0,0,0,0,0,0,
0,0,0,0,0,0,0,0,0,0,0,0,0,0,0,0,
0,0,0,0,0,0,0,0,0,0,0,0,0,0,0,0,
0,0,0,0,0,0,0,0,0,0,0,0,0,0,0,0,
0,2081,0,0,0,0,0,0,0,2082,0,0,0,0,0,0,
0,0,0,0,0,0,0,0,0,0,0,0,0,0,0,0,
0,0,0,0,0,0,0,0,0,0,0,0,0,0,0,0,
0,0,0,0,0,0,0,0,0,0,0,0,0,0,0,0,
0,0,0,0,0,0,0,0,0,0,0,0,0,0,0,0,
0,0,0,0,0,0,0,0,0,0,0,0,0,0,0,0,
0,0,0,0,0,0,0,0,0,0,0,0,0,0,0,0,
0,0,0,0,0,0,0,0,0,0,0,0,0,0,0,0
</chunk>
   <chunk x="-32" y="48" width="16" height="16">
0,2079,0,0,0,0,0,0,0,0,0,0,0,0,0,0,
0,0,0,0,0,0,0,0,0,0,0,0,0,0,0,0,
0,0,0,0,0,0,0,0,0,0,0,0,0,0,0,0,
0,0,0,0,0,0,0,0,0,0,0,0,0,0,0,0,
0,0,0,0,0,0,0,0,0,0,0,0,0,0,0,0,
0,0,0,0,0,0,0,0,0,0,0,0,0,0,0,0,
0,0,0,0,0,0,0,0,0,0,0,0,0,0,0,0,
0,0,0,0,0,0,0,0,0,0,0,0,0,0,0,0,
0,2080,0,0,0,0,0,0,0,2081,0,0,0,0,0,0,
0,0,0,0,0,0,0,0,0,0,0,0,0,0,0,0,
0,0,0,0,0,0,0,0,0,0,0,0,0,0,0,0,
0,0,0,0,0,0,0,0,0,0,0,0,0,0,0,0,
0,0,0,0,0,0,0,0,0,0,0,0,0,0,0,0,
0,0,0,0,0,0,0,0,0,0,0,0,0,0,0,0,
0,0,0,0,0,0,0,0,0,0,0,0,0,0,0,0,
0,0,0,0,0,0,0,0,0,0,0,0,0,0,0,0
</chunk>
   <chunk x="-16" y="48" width="16" height="16">
0,2078,0,0,0,0,0,0,0,2081,0,0,0,0,0,0,
0,0,0,0,0,0,0,0,0,0,0,0,0,0,0,0,
0,0,0,0,0,0,0,0,0,0,0,0,0,0,0,0,
0,0,0,0,0,0,0,0,0,0,0,0,0,0,0,0,
0,0,0,0,0,0,0,0,0,0,0,0,0,0,0,0,
0,0,0,0,0,0,0,0,0,0,0,0,0,0,0,0,
0,0,0,0,0,0,0,0,0,0,0,0,0,0,0,0,
0,0,0,0,0,0,0,0,0,0,0,0,0,0,0,0,
0,2082,0,0,0,0,0,0,0,2065,0,0,0,0,0,0,
0,0,0,0,0,0,0,0,0,0,0,0,0,0,0,0,
0,0,0,0,0,0,0,0,0,0,0,0,0,0,0,0,
0,0,0,0,0,0,0,0,0,0,0,0,0,0,0,0,
0,0,0,0,0,0,0,0,0,0,0,0,0,0,0,0,
0,0,0,0,0,0,0,0,0,0,0,0,0,0,0,0,
0,0,0,0,0,0,0,0,0,0,0,0,0,0,0,0,
0,0,0,0,0,0,0,0,0,0,0,0,0,0,0,0
</chunk>
   <chunk x="0" y="48" width="16" height="16">
0,2082,0,0,0,0,0,0,0,2065,0,0,0,0,0,0,
0,0,0,0,0,0,0,0,0,0,0,0,0,0,0,0,
0,0,0,0,0,0,0,0,0,0,0,0,0,0,0,0,
0,0,0,0,0,0,0,0,0,0,0,0,0,0,0,0,
0,0,0,0,0,0,0,0,0,0,0,0,0,0,0,0,
0,0,0,0,0,0,0,0,0,0,0,0,0,0,0,0,
0,0,0,0,0,0,0,0,0,0,0,0,0,0,0,0,
0,0,0,0,0,0,0,0,0,0,0,0,0,0,0,0,
0,2068,0,0,0,0,0,0,0,2069,0,0,0,0,0,0,
0,0,0,0,0,0,0,0,0,0,0,0,0,0,0,0,
0,0,0,0,0,0,0,0,0,0,0,0,0,0,0,0,
0,0,0,0,0,0,0,0,0,0,0,0,0,0,0,0,
0,0,0,0,0,0,0,0,0,0,0,0,0,0,0,0,
0,0,0,0,0,0,0,0,0,0,0,0,0,0,0,0,
0,0,0,0,0,0,0,0,0,0,0,0,0,0,0,0,
0,0,0,0,0,0,0,0,0,0,0,0,0,0,0,0
</chunk>
   <chunk x="16" y="48" width="16" height="16">
0,2065,0,0,0,0,0,0,0,2068,0,0,0,0,0,0,
0,0,0,0,0,0,0,0,0,0,0,0,0,0,0,0,
0,0,0,0,0,0,0,0,0,0,0,0,0,0,0,0,
0,0,0,0,0,0,0,0,0,0,0,0,0,0,0,0,
0,0,0,0,0,0,0,0,0,0,0,0,0,0,0,0,
0,0,0,0,0,0,0,0,0,0,0,0,0,0,0,0,
0,0,0,0,0,0,0,0,0,0,0,0,0,0,0,0,
0,0,0,0,0,0,0,0,0,0,0,0,0,0,0,0,
0,2069,0,0,0,0,0,0,0,2085,0,0,0,0,0,0,
0,0,0,0,0,0,0,0,0,0,0,0,0,0,0,0,
0,0,0,0,0,0,0,0,0,0,0,0,0,0,0,0,
0,0,0,0,0,0,0,0,0,0,0,0,0,0,0,0,
0,0,0,0,0,0,0,0,0,0,0,0,0,0,0,0,
0,0,0,0,0,0,0,0,0,0,0,0,0,0,0,0,
0,0,0,0,0,0,0,0,0,0,0,0,0,0,0,0,
0,0,0,0,0,0,0,0,0,0,0,0,0,0,0,0
</chunk>
   <chunk x="32" y="48" width="16" height="16">
0,2085,0,0,0,0,0,0,0,2076,0,0,0,0,0,0,
0,0,0,0,0,0,0,0,0,0,0,0,0,0,0,0,
0,0,0,0,0,0,0,0,0,0,0,0,0,0,0,0,
0,0,0,0,0,0,0,0,0,0,0,0,0,0,0,0,
0,0,0,0,0,0,0,0,0,0,0,0,0,0,0,0,
0,0,0,0,0,0,0,0,0,0,0,0,0,0,0,0,
0,0,0,0,0,0,0,0,0,0,0,0,0,0,0,0,
0,0,0,0,0,0,0,0,0,0,0,0,0,0,0,0,
0,0,0,0,0,0,0,0,0,2084,0,0,0,0,0,0,
0,0,0,0,0,0,0,0,0,0,0,0,0,0,0,0,
0,0,0,0,0,0,0,0,0,0,0,0,0,0,0,0,
0,0,0,0,0,0,0,0,0,0,0,0,0,0,0,0,
0,0,0,0,0,0,0,0,0,0,0,0,0,0,0,0,
0,0,0,0,0,0,0,0,0,0,0,0,0,0,0,0,
0,0,0,0,0,0,0,0,0,0,0,0,0,0,0,0,
0,0,0,0,0,0,0,0,0,0,0,0,0,0,0,0
</chunk>
   <chunk x="48" y="48" width="16" height="16">
0,2065,0,0,0,0,0,0,0,2080,0,0,0,0,0,0,
0,0,0,0,0,0,0,0,0,0,0,0,0,0,0,0,
0,0,0,0,0,0,0,0,0,0,0,0,0,0,0,0,
0,0,0,0,0,0,0,0,0,0,0,0,0,0,0,0,
0,0,0,0,0,0,0,0,0,0,0,0,0,0,0,0,
0,0,0,0,0,0,0,0,0,0,0,0,0,0,0,0,
0,0,0,0,0,0,0,0,0,0,0,0,0,0,0,0,
0,0,0,0,0,0,0,0,0,0,0,0,0,0,0,0,
0,2070,0,0,0,0,0,0,0,2065,0,0,0,0,0,0,
0,0,0,0,0,0,0,0,0,0,0,0,0,0,0,0,
0,0,0,0,0,0,0,0,0,0,0,0,0,0,0,0,
0,0,0,0,0,0,0,0,0,0,0,0,0,0,0,0,
0,0,0,0,0,0,0,0,0,0,0,0,0,0,0,0,
0,0,0,0,0,0,0,0,0,0,0,0,0,0,0,0,
0,0,0,0,0,0,0,0,0,0,0,0,0,0,0,0,
0,0,0,0,0,0,0,0,0,0,0,0,0,0,0,0
</chunk>
   <chunk x="64" y="48" width="16" height="16">
0,2079,0,0,0,0,0,0,0,0,0,0,0,0,0,0,
0,0,0,0,0,0,0,0,0,0,0,0,0,0,0,0,
0,0,0,0,0,0,0,0,0,0,0,0,0,0,0,0,
0,0,0,0,0,0,0,0,0,0,0,0,0,0,0,0,
0,0,0,0,0,0,0,0,0,0,0,0,0,0,0,0,
0,0,0,0,0,0,0,0,0,0,0,0,0,0,0,0,
0,0,0,0,0,0,0,0,0,0,0,0,0,0,0,0,
0,0,0,0,0,0,0,0,0,0,0,0,0,0,0,0,
0,2074,0,0,0,0,0,0,0,0,0,0,0,0,0,0,
0,0,0,0,0,0,0,0,0,0,0,0,0,0,0,0,
0,0,0,0,0,0,0,0,0,0,0,0,0,0,0,0,
0,0,0,0,0,0,0,0,0,0,0,0,0,0,0,0,
0,0,0,0,0,0,0,0,0,0,0,0,0,0,0,0,
0,0,0,0,0,0,0,0,0,0,0,0,0,0,0,0,
0,0,0,0,0,0,0,0,0,0,0,0,0,0,0,0,
0,0,0,0,0,0,0,0,0,0,0,0,0,0,0,0
</chunk>
   <chunk x="-96" y="64" width="16" height="16">
0,0,0,0,0,0,0,0,0,2076,0,0,0,0,0,0,
0,0,0,0,0,0,0,0,0,0,0,0,0,0,0,0,
0,0,0,0,0,0,0,0,0,0,0,0,0,0,0,0,
0,0,0,0,0,0,0,0,0,0,0,0,0,0,0,0,
0,0,0,0,0,0,0,0,0,0,0,0,0,0,0,0,
0,0,0,0,0,0,0,0,0,0,0,0,0,0,0,0,
0,0,0,0,0,0,0,0,0,0,0,0,0,0,0,0,
0,0,0,0,0,0,0,0,0,0,0,0,0,0,0,0,
0,0,0,0,0,0,0,0,0,2076,0,0,0,0,0,0,
0,0,0,0,0,0,0,0,0,0,0,0,0,0,0,0,
0,0,0,0,0,0,0,0,0,0,0,0,0,0,0,0,
0,0,0,0,0,0,0,0,0,0,0,0,0,0,0,0,
0,0,0,0,0,0,0,0,0,0,0,0,0,0,0,0,
0,0,0,0,0,0,0,0,0,0,0,0,0,0,0,0,
0,0,0,0,0,0,0,0,0,0,0,0,0,0,0,0,
0,0,0,0,0,0,0,0,0,0,0,0,0,0,0,0
</chunk>
   <chunk x="-80" y="64" width="16" height="16">
0,2074,0,0,0,0,0,0,0,0,0,0,0,0,0,0,
0,0,0,0,0,0,0,0,0,0,0,0,0,0,0,0,
0,0,0,0,0,0,0,0,0,0,0,0,0,0,0,0,
0,0,0,0,0,0,0,0,0,0,0,0,0,0,0,0,
0,0,0,0,0,0,0,0,0,0,0,0,0,0,0,0,
0,0,0,0,0,0,0,0,0,0,0,0,0,0,0,0,
0,0,0,0,0,0,0,0,0,0,0,0,0,0,0,0,
0,0,0,0,0,0,0,0,0,0,0,0,0,0,0,0,
0,2074,0,0,0,0,0,0,0,0,0,0,0,0,0,0,
0,0,0,0,0,0,0,0,0,0,0,0,0,0,0,0,
0,0,0,0,0,0,0,0,0,0,0,0,0,0,0,0,
0,0,0,0,0,0,0,0,0,0,0,0,0,0,0,0,
0,0,0,0,0,0,0,0,0,0,0,0,0,0,0,0,
0,0,0,0,0,0,0,0,0,0,0,0,0,0,0,0,
0,0,0,0,0,0,0,0,0,0,0,0,0,0,0,0,
0,0,0,0,0,0,0,0,0,0,0,0,0,0,0,0
</chunk>
   <chunk x="-64" y="64" width="16" height="16">
0,2084,0,0,0,0,0,0,0,2070,0,0,0,0,0,0,
0,0,0,0,0,0,0,0,0,0,0,0,0,0,0,0,
0,0,0,0,0,0,0,0,0,0,0,0,0,0,0,0,
0,0,0,0,0,0,0,0,0,0,0,0,0,0,0,0,
0,0,0,0,0,0,0,0,0,0,0,0,0,0,0,0,
0,0,0,0,0,0,0,0,0,0,0,0,0,0,0,0,
0,0,0,0,0,0,0,0,0,0,0,0,0,0,0,0,
0,0,0,0,0,0,0,0,0,0,0,0,0,0,0,0,
0,0,0,0,0,0,0,0,0,2076,0,0,0,0,0,0,
0,0,0,0,0,0,0,0,0,0,0,0,0,0,0,0,
0,0,0,0,0,0,0,0,0,0,0,0,0,0,0,0,
0,0,0,0,0,0,0,0,0,0,0,0,0,0,0,0,
0,0,0,0,0,0,0,0,0,0,0,0,0,0,0,0,
0,0,0,0,0,0,0,0,0,0,0,0,0,0,0,0,
0,0,0,0,0,0,0,0,0,0,0,0,0,0,0,0,
0,0,0,0,0,0,0,0,0,0,0,0,0,0,0,0
</chunk>
   <chunk x="-48" y="64" width="16" height="16">
0,2065,0,0,0,0,0,0,0,2068,0,0,0,0,0,0,
0,0,0,0,0,0,0,0,0,0,0,0,0,0,0,0,
0,0,0,0,0,0,0,0,0,0,0,0,0,0,0,0,
0,0,0,0,0,0,0,0,0,0,0,0,0,0,0,0,
0,0,0,0,0,0,0,0,0,0,0,0,0,0,0,0,
0,0,0,0,0,0,0,0,0,0,0,0,0,0,0,0,
0,0,0,0,0,0,0,0,0,0,0,0,0,0,0,0,
0,0,0,0,0,0,0,0,0,0,0,0,0,0,0,0,
0,2068,0,0,0,0,0,0,0,2085,0,0,0,0,0,0,
0,0,0,0,0,0,0,0,0,0,0,0,0,0,0,0,
0,0,0,0,0,0,0,0,0,0,0,0,0,0,0,0,
0,0,0,0,0,0,0,0,0,0,0,0,0,0,0,0,
0,0,0,0,0,0,0,0,0,0,0,0,0,0,0,0,
0,0,0,0,0,0,0,0,0,0,0,0,0,0,0,0,
0,0,0,0,0,0,0,0,0,0,0,0,0,0,0,0,
0,0,0,0,0,0,0,0,0,0,0,0,0,0,0,0
</chunk>
   <chunk x="-32" y="64" width="16" height="16">
0,2069,0,0,0,0,0,0,0,2070,0,0,0,0,0,0,
0,0,0,0,0,0,0,0,0,0,0,0,0,0,0,0,
0,0,0,0,0,0,0,0,0,0,0,0,0,0,0,0,
0,0,0,0,0,0,0,0,0,0,0,0,0,0,0,0,
0,0,0,0,0,0,0,0,0,0,0,0,0,0,0,0,
0,0,0,0,0,0,0,0,0,0,0,0,0,0,0,0,
0,0,0,0,0,0,0,0,0,0,0,0,0,0,0,0,
0,0,0,0,0,0,0,0,0,0,0,0,0,0,0,0,
0,0,0,0,0,0,0,0,0,2071,0,0,0,0,0,0,
0,0,0,0,0,0,0,0,0,0,0,0,0,0,0,0,
0,0,0,0,0,0,0,0,0,0,0,0,0,0,0,0,
0,0,0,0,0,0,0,0,0,0,0,0,0,0,0,0,
0,0,0,0,0,0,0,0,0,0,0,0,0,0,0,0,
0,0,0,0,0,0,0,0,0,0,0,0,0,0,0,0,
0,0,0,0,0,0,0,0,0,0,0,0,0,0,0,0,
0,0,0,0,0,0,0,0,0,0,0,0,0,0,0,0
</chunk>
   <chunk x="-16" y="64" width="16" height="16">
0,2068,0,0,0,0,0,0,0,2069,0,0,0,0,0,0,
0,0,0,0,0,0,0,0,0,0,0,0,0,0,0,0,
0,0,0,0,0,0,0,0,0,0,0,0,0,0,0,0,
0,0,0,0,0,0,0,0,0,0,0,0,0,0,0,0,
0,0,0,0,0,0,0,0,0,0,0,0,0,0,0,0,
0,0,0,0,0,0,0,0,0,0,0,0,0,0,0,0,
0,0,0,0,0,0,0,0,0,0,0,0,0,0,0,0,
0,0,0,0,0,0,0,0,0,0,0,0,0,0,0,0,
0,2072,0,0,0,0,0,0,0,0,0,0,0,0,0,0,
0,0,0,0,0,0,0,0,0,0,0,0,0,0,0,0,
0,0,0,0,0,0,0,0,0,0,0,0,0,0,0,0,
0,0,0,0,0,0,0,0,0,0,0,0,0,0,0,0,
0,0,0,0,0,0,0,0,0,0,0,0,0,0,0,0,
0,0,0,0,0,0,0,0,0,0,0,0,0,0,0,0,
0,0,0,0,0,0,0,0,0,0,0,0,0,0,0,0,
0,0,0,0,0,0,0,0,0,0,0,0,0,0,0,0
</chunk>
   <chunk x="0" y="64" width="16" height="16">
0,2085,0,0,0,0,0,0,0,0,0,0,0,0,0,0,
0,0,0,0,0,0,0,0,0,0,0,0,0,0,0,0,
0,0,0,0,0,0,0,0,0,0,0,0,0,0,0,0,
0,0,0,0,0,0,0,0,0,0,0,0,0,0,0,0,
0,0,0,0,0,0,0,0,0,0,0,0,0,0,0,0,
0,0,0,0,0,0,0,0,0,0,0,0,0,0,0,0,
0,0,0,0,0,0,0,0,0,0,0,0,0,0,0,0,
0,0,0,0,0,0,0,0,0,0,0,0,0,0,0,0,
0,0,0,0,0,0,0,0,0,0,0,0,0,0,0,0,
0,0,0,0,0,0,0,0,0,0,0,0,0,0,0,0,
0,0,0,0,0,0,0,0,0,0,0,0,0,0,0,0,
0,0,0,0,0,0,0,0,0,0,0,0,0,0,0,0,
0,0,0,0,0,0,0,0,0,0,0,0,0,0,0,0,
0,0,0,0,0,0,0,0,0,0,0,0,0,0,0,0,
0,0,0,0,0,0,0,0,0,0,0,0,0,0,0,0,
0,0,0,0,0,0,0,0,0,0,0,0,0,0,0,0
</chunk>
   <chunk x="16" y="64" width="16" height="16">
0,0,0,0,0,0,0,0,0,2078,0,0,0,0,0,0,
0,0,0,0,0,0,0,0,0,0,0,0,0,0,0,0,
0,0,0,0,0,0,0,0,0,0,0,0,0,0,0,0,
0,0,0,0,0,0,0,0,0,0,0,0,0,0,0,0,
0,0,0,0,0,0,0,0,0,0,0,0,0,0,0,0,
0,0,0,0,0,0,0,0,0,0,0,0,0,0,0,0,
0,0,0,0,0,0,0,0,0,0,0,0,0,0,0,0,
0,0,0,0,0,0,0,0,0,0,0,0,0,0,0,0,
0,0,0,0,0,0,0,0,0,2076,0,0,0,0,0,0,
0,0,0,0,0,0,0,0,0,0,0,0,0,0,0,0,
0,0,0,0,0,0,0,0,0,0,0,0,0,0,0,0,
0,0,0,0,0,0,0,0,0,0,0,0,0,0,0,0,
0,0,0,0,0,0,0,0,0,0,0,0,0,0,0,0,
0,0,0,0,0,0,0,0,0,0,0,0,0,0,0,0,
0,0,0,0,0,0,0,0,0,0,0,0,0,0,0,0,
0,0,0,0,0,0,0,0,0,0,0,0,0,0,0,0
</chunk>
   <chunk x="32" y="64" width="16" height="16">
0,2079,0,0,0,0,0,0,0,0,0,0,0,0,0,0,
0,0,0,0,0,0,0,0,0,0,0,0,0,0,0,0,
0,0,0,0,0,0,0,0,0,0,0,0,0,0,0,0,
0,0,0,0,0,0,0,0,0,0,0,0,0,0,0,0,
0,0,0,0,0,0,0,0,0,0,0,0,0,0,0,0,
0,0,0,0,0,0,0,0,0,0,0,0,0,0,0,0,
0,0,0,0,0,0,0,0,0,0,0,0,0,0,0,0,
0,0,0,0,0,0,0,0,0,0,0,0,0,0,0,0,
0,2080,0,0,0,0,0,0,0,2079,0,0,0,0,0,0,
0,0,0,0,0,0,0,0,0,0,0,0,0,0,0,0,
0,0,0,0,0,0,0,0,0,0,0,0,0,0,0,0,
0,0,0,0,0,0,0,0,0,0,0,0,0,0,0,0,
0,0,0,0,0,0,0,0,0,0,0,0,0,0,0,0,
0,0,0,0,0,0,0,0,0,0,0,0,0,0,0,0,
0,0,0,0,0,0,0,0,0,0,0,0,0,0,0,0,
0,0,0,0,0,0,0,0,0,0,0,0,0,0,0,0
</chunk>
   <chunk x="48" y="64" width="16" height="16">
0,2084,0,0,0,0,0,0,0,2070,0,0,0,0,0,0,
0,0,0,0,0,0,0,0,0,0,0,0,0,0,0,0,
0,0,0,0,0,0,0,0,0,0,0,0,0,0,0,0,
0,0,0,0,0,0,0,0,0,0,0,0,0,0,0,0,
0,0,0,0,0,0,0,0,0,0,0,0,0,0,0,0,
0,0,0,0,0,0,0,0,0,0,0,0,0,0,0,0,
0,0,0,0,0,0,0,0,0,0,0,0,0,0,0,0,
0,0,0,0,0,0,0,0,0,0,0,0,0,0,0,0,
0,0,0,0,0,0,0,0,0,2076,0,0,0,0,0,0,
0,0,0,0,0,0,0,0,0,0,0,0,0,0,0,0,
0,0,0,0,0,0,0,0,0,0,0,0,0,0,0,0,
0,0,0,0,0,0,0,0,0,0,0,0,0,0,0,0,
0,0,0,0,0,0,0,0,0,0,0,0,0,0,0,0,
0,0,0,0,0,0,0,0,0,0,0,0,0,0,0,0,
0,0,0,0,0,0,0,0,0,0,0,0,0,0,0,0,
0,0,0,0,0,0,0,0,0,0,0,0,0,0,0,0
</chunk>
   <chunk x="64" y="64" width="16" height="16">
0,2074,0,0,0,0,0,0,0,0,0,0,0,0,0,0,
0,0,0,0,0,0,0,0,0,0,0,0,0,0,0,0,
0,0,0,0,0,0,0,0,0,0,0,0,0,0,0,0,
0,0,0,0,0,0,0,0,0,0,0,0,0,0,0,0,
0,0,0,0,0,0,0,0,0,0,0,0,0,0,0,0,
0,0,0,0,0,0,0,0,0,0,0,0,0,0,0,0,
0,0,0,0,0,0,0,0,0,0,0,0,0,0,0,0,
0,0,0,0,0,0,0,0,0,0,0,0,0,0,0,0,
0,2074,0,0,0,0,0,0,0,0,0,0,0,0,0,0,
0,0,0,0,0,0,0,0,0,0,0,0,0,0,0,0,
0,0,0,0,0,0,0,0,0,0,0,0,0,0,0,0,
0,0,0,0,0,0,0,0,0,0,0,0,0,0,0,0,
0,0,0,0,0,0,0,0,0,0,0,0,0,0,0,0,
0,0,0,0,0,0,0,0,0,0,0,0,0,0,0,0,
0,0,0,0,0,0,0,0,0,0,0,0,0,0,0,0,
0,0,0,0,0,0,0,0,0,0,0,0,0,0,0,0
</chunk>
   <chunk x="-96" y="80" width="16" height="16">
0,0,0,0,0,0,0,0,0,2076,0,0,0,0,0,0,
0,0,0,0,0,0,0,0,0,0,0,0,0,0,0,0,
0,0,0,0,0,0,0,0,0,0,0,0,0,0,0,0,
0,0,0,0,0,0,0,0,0,0,0,0,0,0,0,0,
0,0,0,0,0,0,0,0,0,0,0,0,0,0,0,0,
0,0,0,0,0,0,0,0,0,0,0,0,0,0,0,0,
0,0,0,0,0,0,0,0,0,0,0,0,0,0,0,0,
0,0,0,0,0,0,0,0,0,0,0,0,0,0,0,0,
0,0,0,0,0,0,0,0,0,2076,0,0,0,0,0,0,
0,0,0,0,0,0,0,0,0,0,0,0,0,0,0,0,
0,0,0,0,0,0,0,0,0,0,0,0,0,0,0,0,
0,0,0,0,0,0,0,0,0,0,0,0,0,0,0,0,
0,0,0,0,0,0,0,0,0,0,0,0,0,0,0,0,
0,0,0,0,0,0,0,0,0,0,0,0,0,0,0,0,
0,0,0,0,0,0,0,0,0,0,0,0,0,0,0,0,
0,0,0,0,0,0,0,0,0,0,0,0,0,0,0,0
</chunk>
   <chunk x="-80" y="80" width="16" height="16">
0,2074,0,0,0,0,0,0,0,0,0,0,0,0,0,0,
0,0,0,0,0,0,0,0,0,0,0,0,0,0,0,0,
0,0,0,0,0,0,0,0,0,0,0,0,0,0,0,0,
0,0,0,0,0,0,0,0,0,0,0,0,0,0,0,0,
0,0,0,0,0,0,0,0,0,0,0,0,0,0,0,0,
0,0,0,0,0,0,0,0,0,0,0,0,0,0,0,0,
0,0,0,0,0,0,0,0,0,0,0,0,0,0,0,0,
0,0,0,0,0,0,0,0,0,0,0,0,0,0,0,0,
0,2080,0,0,0,0,0,0,0,2081,0,0,0,0,0,0,
0,0,0,0,0,0,0,0,0,0,0,0,0,0,0,0,
0,0,0,0,0,0,0,0,0,0,0,0,0,0,0,0,
0,0,0,0,0,0,0,0,0,0,0,0,0,0,0,0,
0,0,0,0,0,0,0,0,0,0,0,0,0,0,0,0,
0,0,0,0,0,0,0,0,0,0,0,0,0,0,0,0,
0,0,0,0,0,0,0,0,0,0,0,0,0,0,0,0,
0,0,0,0,0,0,0,0,0,0,0,0,0,0,0,0
</chunk>
   <chunk x="-64" y="80" width="16" height="16">
0,0,0,0,0,0,0,0,0,2071,0,0,0,0,0,0,
0,0,0,0,0,0,0,0,0,0,0,0,0,0,0,0,
0,0,0,0,0,0,0,0,0,0,0,0,0,0,0,0,
0,0,0,0,0,0,0,0,0,0,0,0,0,0,0,0,
0,0,0,0,0,0,0,0,0,0,0,0,0,0,0,0,
0,0,0,0,0,0,0,0,0,0,0,0,0,0,0,0,
0,0,0,0,0,0,0,0,0,0,0,0,0,0,0,0,
0,0,0,0,0,0,0,0,0,0,0,0,0,0,0,0,
0,2081,0,0,0,0,0,0,0,2082,0,0,0,0,0,0,
0,0,0,0,0,0,0,0,0,0,0,0,0,0,0,0,
0,0,0,0,0,0,0,0,0,0,0,0,0,0,0,0,
0,0,0,0,0,0,0,0,0,0,0,0,0,0,0,0,
0,0,0,0,0,0,0,0,0,0,0,0,0,0,0,0,
0,0,0,0,0,0,0,0,0,0,0,0,0,0,0,0,
0,0,0,0,0,0,0,0,0,0,0,0,0,0,0,0,
0,0,0,0,0,0,0,0,0,0,0,0,0,0,0,0
</chunk>
   <chunk x="-48" y="80" width="16" height="16">
0,2072,0,0,0,0,0,0,0,0,0,0,0,0,0,0,
0,0,0,0,0,0,0,0,0,0,0,0,0,0,0,0,
0,0,0,0,0,0,0,0,0,0,0,0,0,0,0,0,
0,0,0,0,0,0,0,0,0,0,0,0,0,0,0,0,
0,0,0,0,0,0,0,0,0,0,0,0,0,0,0,0,
0,0,0,0,0,0,0,0,0,0,0,0,0,0,0,0,
0,0,0,0,0,0,0,0,0,0,0,0,0,0,0,0,
0,0,0,0,0,0,0,0,0,0,0,0,0,0,0,0,
0,2080,0,0,0,0,0,0,0,2081,0,0,0,0,0,0,
0,0,0,0,0,0,0,0,0,0,0,0,0,0,0,0,
0,0,0,0,0,0,0,0,0,0,0,0,0,0,0,0,
0,0,0,0,0,0,0,0,0,0,0,0,0,0,0,0,
0,0,0,0,0,0,0,0,0,0,0,0,0,0,0,0,
0,0,0,0,0,0,0,0,0,0,0,0,0,0,0,0,
0,0,0,0,0,0,0,0,0,0,0,0,0,0,0,0,
0,0,0,0,0,0,0,0,0,0,0,0,0,0,0,0
</chunk>
   <chunk x="-32" y="80" width="16" height="16">
0,2078,0,0,0,0,0,0,0,2082,0,0,0,0,0,0,
0,0,0,0,0,0,0,0,0,0,0,0,0,0,0,0,
0,0,0,0,0,0,0,0,0,0,0,0,0,0,0,0,
0,0,0,0,0,0,0,0,0,0,0,0,0,0,0,0,
0,0,0,0,0,0,0,0,0,0,0,0,0,0,0,0,
0,0,0,0,0,0,0,0,0,0,0,0,0,0,0,0,
0,0,0,0,0,0,0,0,0,0,0,0,0,0,0,0,
0,0,0,0,0,0,0,0,0,0,0,0,0,0,0,0,
0,2082,0,0,0,0,0,0,0,2065,0,0,0,0,0,0,
0,0,0,0,0,0,0,0,0,0,0,0,0,0,0,0,
0,0,0,0,0,0,0,0,0,0,0,0,0,0,0,0,
0,0,0,0,0,0,0,0,0,0,0,0,0,0,0,0,
0,0,0,0,0,0,0,0,0,0,0,0,0,0,0,0,
0,0,0,0,0,0,0,0,0,0,0,0,0,0,0,0,
0,0,0,0,0,0,0,0,0,0,0,0,0,0,0,0,
0,0,0,0,0,0,0,0,0,0,0,0,0,0,0,0
</chunk>
   <chunk x="-16" y="80" width="16" height="16">
0,2074,0,0,0,0,0,0,0,0,0,0,0,0,0,0,
0,0,0,0,0,0,0,0,0,0,0,0,0,0,0,0,
0,0,0,0,0,0,0,0,0,0,0,0,0,0,0,0,
0,0,0,0,0,0,0,0,0,0,0,0,0,0,0,0,
0,0,0,0,0,0,0,0,0,0,0,0,0,0,0,0,
0,0,0,0,0,0,0,0,0,0,0,0,0,0,0,0,
0,0,0,0,0,0,0,0,0,0,0,0,0,0,0,0,
0,0,0,0,0,0,0,0,0,0,0,0,0,0,0,0,
0,2080,0,0,0,0,0,0,0,2081,0,0,0,0,0,0,
0,0,0,0,0,0,0,0,0,0,0,0,0,0,0,0,
0,0,0,0,0,0,0,0,0,0,0,0,0,0,0,0,
0,0,0,0,0,0,0,0,0,0,0,0,0,0,0,0,
0,0,0,0,0,0,0,0,0,0,0,0,0,0,0,0,
0,0,0,0,0,0,0,0,0,0,0,0,0,0,0,0,
0,0,0,0,0,0,0,0,0,0,0,0,0,0,0,0,
0,0,0,0,0,0,0,0,0,0,0,0,0,0,0,0
</chunk>
   <chunk x="0" y="80" width="16" height="16">
0,2078,0,0,0,0,0,0,0,2081,0,0,0,0,0,0,
0,0,0,0,0,0,0,0,0,0,0,0,0,0,0,0,
0,0,0,0,0,0,0,0,0,0,0,0,0,0,0,0,
0,0,0,0,0,0,0,0,0,0,0,0,0,0,0,0,
0,0,0,0,0,0,0,0,0,0,0,0,0,0,0,0,
0,0,0,0,0,0,0,0,0,0,0,0,0,0,0,0,
0,0,0,0,0,0,0,0,0,0,0,0,0,0,0,0,
0,0,0,0,0,0,0,0,0,0,0,0,0,0,0,0,
0,2082,0,0,0,0,0,0,0,2065,0,0,0,0,0,0,
0,0,0,0,0,0,0,0,0,0,0,0,0,0,0,0,
0,0,0,0,0,0,0,0,0,0,0,0,0,0,0,0,
0,0,0,0,0,0,0,0,0,0,0,0,0,0,0,0,
0,0,0,0,0,0,0,0,0,0,0,0,0,0,0,0,
0,0,0,0,0,0,0,0,0,0,0,0,0,0,0,0,
0,0,0,0,0,0,0,0,0,0,0,0,0,0,0,0,
0,0,0,0,0,0,0,0,0,0,0,0,0,0,0,0
</chunk>
   <chunk x="16" y="80" width="16" height="16">
0,2081,0,0,0,0,0,0,0,2082,0,0,0,0,0,0,
0,0,0,0,0,0,0,0,0,0,0,0,0,0,0,0,
0,0,0,0,0,0,0,0,0,0,0,0,0,0,0,0,
0,0,0,0,0,0,0,0,0,0,0,0,0,0,0,0,
0,0,0,0,0,0,0,0,0,0,0,0,0,0,0,0,
0,0,0,0,0,0,0,0,0,0,0,0,0,0,0,0,
0,0,0,0,0,0,0,0,0,0,0,0,0,0,0,0,
0,0,0,0,0,0,0,0,0,0,0,0,0,0,0,0,
0,2065,0,0,0,0,0,0,0,2065,0,0,0,0,0,0,
0,0,0,0,0,0,0,0,0,0,0,0,0,0,0,0,
0,0,0,0,0,0,0,0,0,0,0,0,0,0,0,0,
0,0,0,0,0,0,0,0,0,0,0,0,0,0,0,0,
0,0,0,0,0,0,0,0,0,0,0,0,0,0,0,0,
0,0,0,0,0,0,0,0,0,0,0,0,0,0,0,0,
0,0,0,0,0,0,0,0,0,0,0,0,0,0,0,0,
0,0,0,0,0,0,0,0,0,0,0,0,0,0,0,0
</chunk>
   <chunk x="32" y="80" width="16" height="16">
0,2065,0,0,0,0,0,0,0,2074,0,0,0,0,0,0,
0,0,0,0,0,0,0,0,0,0,0,0,0,0,0,0,
0,0,0,0,0,0,0,0,0,0,0,0,0,0,0,0,
0,0,0,0,0,0,0,0,0,0,0,0,0,0,0,0,
0,0,0,0,0,0,0,0,0,0,0,0,0,0,0,0,
0,0,0,0,0,0,0,0,0,0,0,0,0,0,0,0,
0,0,0,0,0,0,0,0,0,0,0,0,0,0,0,0,
0,0,0,0,0,0,0,0,0,0,0,0,0,0,0,0,
0,2065,0,0,0,0,0,0,0,2080,0,0,0,0,0,0,
0,0,0,0,0,0,0,0,0,0,0,0,0,0,0,0,
0,0,0,0,0,0,0,0,0,0,0,0,0,0,0,0,
0,0,0,0,0,0,0,0,0,0,0,0,0,0,0,0,
0,0,0,0,0,0,0,0,0,0,0,0,0,0,0,0,
0,0,0,0,0,0,0,0,0,0,0,0,0,0,0,0,
0,0,0,0,0,0,0,0,0,0,0,0,0,0,0,0,
0,0,0,0,0,0,0,0,0,0,0,0,0,0,0,0
</chunk>
   <chunk x="48" y="80" width="16" height="16">
0,0,0,0,0,0,0,0,0,2076,0,0,0,0,0,0,
0,0,0,0,0,0,0,0,0,0,0,0,0,0,0,0,
0,0,0,0,0,0,0,0,0,0,0,0,0,0,0,0,
0,0,0,0,0,0,0,0,0,0,0,0,0,0,0,0,
0,0,0,0,0,0,0,0,0,0,0,0,0,0,0,0,
0,0,0,0,0,0,0,0,0,0,0,0,0,0,0,0,
0,0,0,0,0,0,0,0,0,0,0,0,0,0,0,0,
0,0,0,0,0,0,0,0,0,0,0,0,0,0,0,0,
0,2067,0,0,0,0,0,0,0,2082,0,0,0,0,0,0,
0,0,0,0,0,0,0,0,0,0,0,0,0,0,0,0,
0,0,0,0,0,0,0,0,0,0,0,0,0,0,0,0,
0,0,0,0,0,0,0,0,0,0,0,0,0,0,0,0,
0,0,0,0,0,0,0,0,0,0,0,0,0,0,0,0,
0,0,0,0,0,0,0,0,0,0,0,0,0,0,0,0,
0,0,0,0,0,0,0,0,0,0,0,0,0,0,0,0,
0,0,0,0,0,0,0,0,0,0,0,0,0,0,0,0
</chunk>
   <chunk x="64" y="80" width="16" height="16">
0,2074,0,0,0,0,0,0,0,0,0,0,0,0,0,0,
0,0,0,0,0,0,0,0,0,0,0,0,0,0,0,0,
0,0,0,0,0,0,0,0,0,0,0,0,0,0,0,0,
0,0,0,0,0,0,0,0,0,0,0,0,0,0,0,0,
0,0,0,0,0,0,0,0,0,0,0,0,0,0,0,0,
0,0,0,0,0,0,0,0,0,0,0,0,0,0,0,0,
0,0,0,0,0,0,0,0,0,0,0,0,0,0,0,0,
0,0,0,0,0,0,0,0,0,0,0,0,0,0,0,0,
0,2074,0,0,0,0,0,0,0,0,0,0,0,0,0,0,
0,0,0,0,0,0,0,0,0,0,0,0,0,0,0,0,
0,0,0,0,0,0,0,0,0,0,0,0,0,0,0,0,
0,0,0,0,0,0,0,0,0,0,0,0,0,0,0,0,
0,0,0,0,0,0,0,0,0,0,0,0,0,0,0,0,
0,0,0,0,0,0,0,0,0,0,0,0,0,0,0,0,
0,0,0,0,0,0,0,0,0,0,0,0,0,0,0,0,
0,0,0,0,0,0,0,0,0,0,0,0,0,0,0,0
</chunk>
   <chunk x="-96" y="96" width="16" height="16">
0,0,0,0,0,0,0,0,0,2084,0,0,0,0,0,0,
0,0,0,0,0,0,0,0,0,0,0,0,0,0,0,0,
0,0,0,0,0,0,0,0,0,0,0,0,0,0,0,0,
0,0,0,0,0,0,0,0,0,0,0,0,0,0,0,0,
0,0,0,0,0,0,0,0,0,0,0,0,0,0,0,0,
0,0,0,0,0,0,0,0,0,0,0,0,0,0,0,0,
0,0,0,0,0,0,0,0,0,0,0,0,0,0,0,0,
0,0,0,0,0,0,0,0,0,0,0,0,0,0,0,0,
0,0,0,0,0,0,0,0,0,0,0,0,0,0,0,0,
0,0,0,0,0,0,0,0,0,0,0,0,0,0,0,0,
0,0,0,0,0,0,0,0,0,0,0,0,0,0,0,0,
0,0,0,0,0,0,0,0,0,0,0,0,0,0,0,0,
0,0,0,0,0,0,0,0,0,0,0,0,0,0,0,0,
0,0,0,0,0,0,0,0,0,0,0,0,0,0,0,0,
0,0,0,0,0,0,0,0,0,0,0,0,0,0,0,0,
0,0,0,0,0,0,0,0,0,0,0,0,0,0,0,0
</chunk>
   <chunk x="-80" y="96" width="16" height="16">
0,2069,0,0,0,0,0,0,0,2069,0,0,0,0,0,0,
0,0,0,0,0,0,0,0,0,0,0,0,0,0,0,0,
0,0,0,0,0,0,0,0,0,0,0,0,0,0,0,0,
0,0,0,0,0,0,0,0,0,0,0,0,0,0,0,0,
0,0,0,0,0,0,0,0,0,0,0,0,0,0,0,0,
0,0,0,0,0,0,0,0,0,0,0,0,0,0,0,0,
0,0,0,0,0,0,0,0,0,0,0,0,0,0,0,0,
0,0,0,0,0,0,0,0,0,0,0,0,0,0,0,0,
0,0,0,0,0,0,0,0,0,0,0,0,0,0,0,0,
0,0,0,0,0,0,0,0,0,0,0,0,0,0,0,0,
0,0,0,0,0,0,0,0,0,0,0,0,0,0,0,0,
0,0,0,0,0,0,0,0,0,0,0,0,0,0,0,0,
0,0,0,0,0,0,0,0,0,0,0,0,0,0,0,0,
0,0,0,0,0,0,0,0,0,0,0,0,0,0,0,0,
0,0,0,0,0,0,0,0,0,0,0,0,0,0,0,0,
0,0,0,0,0,0,0,0,0,0,0,0,0,0,0,0
</chunk>
   <chunk x="-64" y="96" width="16" height="16">
0,2069,0,0,0,0,0,0,0,2069,0,0,0,0,0,0,
0,0,0,0,0,0,0,0,0,0,0,0,0,0,0,0,
0,0,0,0,0,0,0,0,0,0,0,0,0,0,0,0,
0,0,0,0,0,0,0,0,0,0,0,0,0,0,0,0,
0,0,0,0,0,0,0,0,0,0,0,0,0,0,0,0,
0,0,0,0,0,0,0,0,0,0,0,0,0,0,0,0,
0,0,0,0,0,0,0,0,0,0,0,0,0,0,0,0,
0,0,0,0,0,0,0,0,0,0,0,0,0,0,0,0,
0,0,0,0,0,0,0,0,0,0,0,0,0,0,0,0,
0,0,0,0,0,0,0,0,0,0,0,0,0,0,0,0,
0,0,0,0,0,0,0,0,0,0,0,0,0,0,0,0,
0,0,0,0,0,0,0,0,0,0,0,0,0,0,0,0,
0,0,0,0,0,0,0,0,0,0,0,0,0,0,0,0,
0,0,0,0,0,0,0,0,0,0,0,0,0,0,0,0,
0,0,0,0,0,0,0,0,0,0,0,0,0,0,0,0,
0,0,0,0,0,0,0,0,0,0,0,0,0,0,0,0
</chunk>
   <chunk x="-48" y="96" width="16" height="16">
0,2069,0,0,0,0,0,0,0,2069,0,0,0,0,0,0,
0,0,0,0,0,0,0,0,0,0,0,0,0,0,0,0,
0,0,0,0,0,0,0,0,0,0,0,0,0,0,0,0,
0,0,0,0,0,0,0,0,0,0,0,0,0,0,0,0,
0,0,0,0,0,0,0,0,0,0,0,0,0,0,0,0,
0,0,0,0,0,0,0,0,0,0,0,0,0,0,0,0,
0,0,0,0,0,0,0,0,0,0,0,0,0,0,0,0,
0,0,0,0,0,0,0,0,0,0,0,0,0,0,0,0,
0,0,0,0,0,0,0,0,0,0,0,0,0,0,0,0,
0,0,0,0,0,0,0,0,0,0,0,0,0,0,0,0,
0,0,0,0,0,0,0,0,0,0,0,0,0,0,0,0,
0,0,0,0,0,0,0,0,0,0,0,0,0,0,0,0,
0,0,0,0,0,0,0,0,0,0,0,0,0,0,0,0,
0,0,0,0,0,0,0,0,0,0,0,0,0,0,0,0,
0,0,0,0,0,0,0,0,0,0,0,0,0,0,0,0,
0,0,0,0,0,0,0,0,0,0,0,0,0,0,0,0
</chunk>
   <chunk x="-32" y="96" width="16" height="16">
0,2069,0,0,0,0,0,0,0,2069,0,0,0,0,0,0,
0,0,0,0,0,0,0,0,0,0,0,0,0,0,0,0,
0,0,0,0,0,0,0,0,0,0,0,0,0,0,0,0,
0,0,0,0,0,0,0,0,0,0,0,0,0,0,0,0,
0,0,0,0,0,0,0,0,0,0,0,0,0,0,0,0,
0,0,0,0,0,0,0,0,0,0,0,0,0,0,0,0,
0,0,0,0,0,0,0,0,0,0,0,0,0,0,0,0,
0,0,0,0,0,0,0,0,0,0,0,0,0,0,0,0,
0,0,0,0,0,0,0,0,0,0,0,0,0,0,0,0,
0,0,0,0,0,0,0,0,0,0,0,0,0,0,0,0,
0,0,0,0,0,0,0,0,0,0,0,0,0,0,0,0,
0,0,0,0,0,0,0,0,0,0,0,0,0,0,0,0,
0,0,0,0,0,0,0,0,0,0,0,0,0,0,0,0,
0,0,0,0,0,0,0,0,0,0,0,0,0,0,0,0,
0,0,0,0,0,0,0,0,0,0,0,0,0,0,0,0,
0,0,0,0,0,0,0,0,0,0,0,0,0,0,0,0
</chunk>
   <chunk x="-16" y="96" width="16" height="16">
0,2069,0,0,0,0,0,0,0,2069,0,0,0,0,0,0,
0,0,0,0,0,0,0,0,0,0,0,0,0,0,0,0,
0,0,0,0,0,0,0,0,0,0,0,0,0,0,0,0,
0,0,0,0,0,0,0,0,0,0,0,0,0,0,0,0,
0,0,0,0,0,0,0,0,0,0,0,0,0,0,0,0,
0,0,0,0,0,0,0,0,0,0,0,0,0,0,0,0,
0,0,0,0,0,0,0,0,0,0,0,0,0,0,0,0,
0,0,0,0,0,0,0,0,0,0,0,0,0,0,0,0,
0,0,0,0,0,0,0,0,0,0,0,0,0,0,0,0,
0,0,0,0,0,0,0,0,0,0,0,0,0,0,0,0,
0,0,0,0,0,0,0,0,0,0,0,0,0,0,0,0,
0,0,0,0,0,0,0,0,0,0,0,0,0,0,0,0,
0,0,0,0,0,0,0,0,0,0,0,0,0,0,0,0,
0,0,0,0,0,0,0,0,0,0,0,0,0,0,0,0,
0,0,0,0,0,0,0,0,0,0,0,0,0,0,0,0,
0,0,0,0,0,0,0,0,0,0,0,0,0,0,0,0
</chunk>
   <chunk x="0" y="96" width="16" height="16">
0,2069,0,0,0,0,0,0,0,2069,0,0,0,0,0,0,
0,0,0,0,0,0,0,0,0,0,0,0,0,0,0,0,
0,0,0,0,0,0,0,0,0,0,0,0,0,0,0,0,
0,0,0,0,0,0,0,0,0,0,0,0,0,0,0,0,
0,0,0,0,0,0,0,0,0,0,0,0,0,0,0,0,
0,0,0,0,0,0,0,0,0,0,0,0,0,0,0,0,
0,0,0,0,0,0,0,0,0,0,0,0,0,0,0,0,
0,0,0,0,0,0,0,0,0,0,0,0,0,0,0,0,
0,0,0,0,0,0,0,0,0,0,0,0,0,0,0,0,
0,0,0,0,0,0,0,0,0,0,0,0,0,0,0,0,
0,0,0,0,0,0,0,0,0,0,0,0,0,0,0,0,
0,0,0,0,0,0,0,0,0,0,0,0,0,0,0,0,
0,0,0,0,0,0,0,0,0,0,0,0,0,0,0,0,
0,0,0,0,0,0,0,0,0,0,0,0,0,0,0,0,
0,0,0,0,0,0,0,0,0,0,0,0,0,0,0,0,
0,0,0,0,0,0,0,0,0,0,0,0,0,0,0,0
</chunk>
   <chunk x="16" y="96" width="16" height="16">
0,2069,0,0,0,0,0,0,0,2069,0,0,0,0,0,0,
0,0,0,0,0,0,0,0,0,0,0,0,0,0,0,0,
0,0,0,0,0,0,0,0,0,0,0,0,0,0,0,0,
0,0,0,0,0,0,0,0,0,0,0,0,0,0,0,0,
0,0,0,0,0,0,0,0,0,0,0,0,0,0,0,0,
0,0,0,0,0,0,0,0,0,0,0,0,0,0,0,0,
0,0,0,0,0,0,0,0,0,0,0,0,0,0,0,0,
0,0,0,0,0,0,0,0,0,0,0,0,0,0,0,0,
0,0,0,0,0,0,0,0,0,0,0,0,0,0,0,0,
0,0,0,0,0,0,0,0,0,0,0,0,0,0,0,0,
0,0,0,0,0,0,0,0,0,0,0,0,0,0,0,0,
0,0,0,0,0,0,0,0,0,0,0,0,0,0,0,0,
0,0,0,0,0,0,0,0,0,0,0,0,0,0,0,0,
0,0,0,0,0,0,0,0,0,0,0,0,0,0,0,0,
0,0,0,0,0,0,0,0,0,0,0,0,0,0,0,0,
0,0,0,0,0,0,0,0,0,0,0,0,0,0,0,0
</chunk>
   <chunk x="32" y="96" width="16" height="16">
0,2069,0,0,0,0,0,0,0,2069,0,0,0,0,0,0,
0,0,0,0,0,0,0,0,0,0,0,0,0,0,0,0,
0,0,0,0,0,0,0,0,0,0,0,0,0,0,0,0,
0,0,0,0,0,0,0,0,0,0,0,0,0,0,0,0,
0,0,0,0,0,0,0,0,0,0,0,0,0,0,0,0,
0,0,0,0,0,0,0,0,0,0,0,0,0,0,0,0,
0,0,0,0,0,0,0,0,0,0,0,0,0,0,0,0,
0,0,0,0,0,0,0,0,0,0,0,0,0,0,0,0,
0,0,0,0,0,0,0,0,0,0,0,0,0,0,0,0,
0,0,0,0,0,0,0,0,0,0,0,0,0,0,0,0,
0,0,0,0,0,0,0,0,0,0,0,0,0,0,0,0,
0,0,0,0,0,0,0,0,0,0,0,0,0,0,0,0,
0,0,0,0,0,0,0,0,0,0,0,0,0,0,0,0,
0,0,0,0,0,0,0,0,0,0,0,0,0,0,0,0,
0,0,0,0,0,0,0,0,0,0,0,0,0,0,0,0,
0,0,0,0,0,0,0,0,0,0,0,0,0,0,0,0
</chunk>
   <chunk x="48" y="96" width="16" height="16">
0,2073,0,0,0,0,0,0,0,2069,0,0,0,0,0,0,
0,0,0,0,0,0,0,0,0,0,0,0,0,0,0,0,
0,0,0,0,0,0,0,0,0,0,0,0,0,0,0,0,
0,0,0,0,0,0,0,0,0,0,0,0,0,0,0,0,
0,0,0,0,0,0,0,0,0,0,0,0,0,0,0,0,
0,0,0,0,0,0,0,0,0,0,0,0,0,0,0,0,
0,0,0,0,0,0,0,0,0,0,0,0,0,0,0,0,
0,0,0,0,0,0,0,0,0,0,0,0,0,0,0,0,
0,0,0,0,0,0,0,0,0,0,0,0,0,0,0,0,
0,0,0,0,0,0,0,0,0,0,0,0,0,0,0,0,
0,0,0,0,0,0,0,0,0,0,0,0,0,0,0,0,
0,0,0,0,0,0,0,0,0,0,0,0,0,0,0,0,
0,0,0,0,0,0,0,0,0,0,0,0,0,0,0,0,
0,0,0,0,0,0,0,0,0,0,0,0,0,0,0,0,
0,0,0,0,0,0,0,0,0,0,0,0,0,0,0,0,
0,0,0,0,0,0,0,0,0,0,0,0,0,0,0,0
</chunk>
   <chunk x="64" y="96" width="16" height="16">
0,2085,0,0,0,0,0,0,0,0,0,0,0,0,0,0,
0,0,0,0,0,0,0,0,0,0,0,0,0,0,0,0,
0,0,0,0,0,0,0,0,0,0,0,0,0,0,0,0,
0,0,0,0,0,0,0,0,0,0,0,0,0,0,0,0,
0,0,0,0,0,0,0,0,0,0,0,0,0,0,0,0,
0,0,0,0,0,0,0,0,0,0,0,0,0,0,0,0,
0,0,0,0,0,0,0,0,0,0,0,0,0,0,0,0,
0,0,0,0,0,0,0,0,0,0,0,0,0,0,0,0,
0,0,0,0,0,0,0,0,0,0,0,0,0,0,0,0,
0,0,0,0,0,0,0,0,0,0,0,0,0,0,0,0,
0,0,0,0,0,0,0,0,0,0,0,0,0,0,0,0,
0,0,0,0,0,0,0,0,0,0,0,0,0,0,0,0,
0,0,0,0,0,0,0,0,0,0,0,0,0,0,0,0,
0,0,0,0,0,0,0,0,0,0,0,0,0,0,0,0,
0,0,0,0,0,0,0,0,0,0,0,0,0,0,0,0,
0,0,0,0,0,0,0,0,0,0,0,0,0,0,0,0
</chunk>
  </data>
 </layer>
 <layer id="12" name="Above2" width="30" height="20">
  <data encoding="csv">
   <chunk x="-32" y="-48" width="16" height="16">
0,0,0,0,0,0,0,0,0,0,0,0,0,0,0,0,
0,0,0,0,0,0,0,0,0,0,0,0,0,0,0,0,
0,0,0,0,0,0,0,0,0,0,0,0,0,0,0,0,
0,0,0,0,0,0,0,0,0,0,0,0,0,0,0,0,
0,0,0,0,0,0,0,0,0,0,0,0,0,0,0,0,
0,0,0,0,0,0,0,0,0,2331,2331,2331,0,0,0,0,
0,0,0,0,0,0,0,0,0,2363,2363,2363,0,0,0,0,
0,0,0,0,0,0,0,0,0,0,0,0,0,0,0,2331,
0,0,0,0,0,0,0,0,0,0,0,0,0,0,0,2363,
0,0,0,0,0,0,0,0,0,0,0,0,0,0,0,0,
0,0,0,0,0,0,0,0,0,0,0,0,0,0,0,0,
0,0,0,0,0,0,0,0,0,0,0,0,0,0,0,0,
0,0,0,0,0,0,0,0,0,0,0,0,0,0,0,0,
0,0,0,0,0,0,0,0,0,0,0,0,0,0,0,0,
0,0,0,0,0,0,0,0,0,0,0,0,0,0,0,0,
0,0,0,0,0,0,0,0,0,0,0,0,0,0,0,0
</chunk>
   <chunk x="-16" y="-48" width="16" height="16">
0,0,0,0,0,0,0,0,0,0,0,0,0,0,0,0,
0,0,0,0,0,0,0,0,0,0,0,0,0,0,0,0,
0,0,0,0,0,0,0,0,0,0,0,0,0,0,0,0,
0,0,0,0,0,0,0,0,0,0,0,0,0,0,0,0,
0,0,0,0,0,0,0,0,0,0,0,0,0,0,0,0,
0,0,0,0,0,0,0,0,0,0,0,0,0,0,0,0,
0,0,0,0,0,0,0,0,0,0,0,0,0,0,0,0,
2331,0,0,0,0,0,0,0,0,0,0,0,0,0,0,0,
2363,0,0,0,0,0,0,0,0,0,0,0,0,0,0,0,
0,0,0,0,0,0,0,0,0,0,0,0,0,0,0,0,
0,0,0,0,0,0,0,0,0,0,0,0,0,0,0,0,
0,0,0,0,0,0,0,0,0,0,0,0,0,0,0,0,
0,0,0,0,0,0,0,0,0,0,0,0,0,0,0,0,
0,0,0,0,0,0,0,0,0,0,0,0,0,0,0,0,
0,0,0,0,0,0,0,0,0,0,0,0,0,0,0,0,
0,0,0,0,0,0,0,0,0,0,0,0,0,0,0,0
</chunk>
   <chunk x="-32" y="-32" width="16" height="16">
0,0,0,0,0,0,0,0,0,0,0,0,0,0,0,0,
0,0,0,0,0,0,0,0,0,0,0,0,0,0,0,0,
0,0,0,0,0,0,0,0,0,0,0,0,0,0,0,0,
0,0,0,0,0,0,0,0,0,0,0,0,0,0,0,0,
0,0,0,0,0,0,0,0,0,0,0,0,0,0,0,0,
0,0,0,0,0,0,0,0,0,0,0,0,0,0,0,0,
0,0,0,0,0,0,0,0,0,0,0,0,0,0,0,0,
0,0,0,0,0,0,0,0,0,0,0,0,0,0,0,0,
0,0,0,0,0,0,0,0,0,0,0,0,0,0,0,0,
0,0,0,0,0,0,0,0,0,0,0,0,0,0,0,0,
0,0,0,0,0,0,0,0,0,0,0,0,0,0,0,0,
0,0,0,0,0,0,0,0,0,0,0,0,0,0,0,0,
0,0,0,0,0,0,0,2375,0,0,0,0,0,0,0,0,
0,0,0,0,0,0,0,2407,0,0,0,0,0,0,0,0,
0,0,0,0,0,0,0,0,2126,0,0,0,0,0,0,0,
0,0,0,0,0,0,0,0,2158,0,0,0,0,0,0,0
</chunk>
   <chunk x="-48" y="-16" width="16" height="16">
0,0,0,0,0,0,0,0,0,0,0,0,0,0,0,0,
0,0,0,0,0,0,0,0,0,0,0,0,0,0,0,0,
0,0,0,0,0,0,0,0,0,0,0,0,0,0,0,0,
0,0,0,0,0,0,0,0,0,0,0,0,0,0,0,0,
0,0,0,0,0,0,0,0,0,0,0,0,0,0,0,2339,
0,0,0,0,0,0,0,0,0,0,0,0,0,0,0,2339,
0,0,0,0,0,0,0,0,0,0,0,0,0,0,0,2371,
0,0,0,0,0,0,0,0,0,0,0,0,0,0,0,0,
0,0,0,0,0,0,0,0,0,0,0,0,0,0,0,0,
0,0,0,0,0,0,0,0,0,0,0,0,0,0,0,0,
0,0,0,0,0,0,0,0,0,0,0,0,0,0,0,0,
0,0,0,0,0,0,0,0,0,0,0,0,0,0,0,0,
0,0,0,0,0,0,0,0,0,0,0,0,0,0,0,0,
0,0,0,0,0,0,0,0,0,0,0,0,0,0,0,0,
0,0,0,0,0,0,0,0,0,0,0,0,0,0,0,0,
0,0,0,0,0,0,0,0,0,0,0,0,0,0,0,0
</chunk>
   <chunk x="-32" y="-16" width="16" height="16">
0,0,0,0,0,0,0,0,2158,0,0,0,0,0,2126,2127,
2374,0,0,0,0,0,0,0,2190,0,0,0,0,0,2255,2225,
0,0,0,0,0,0,0,0,0,0,0,0,0,0,2159,2222,
0,0,0,0,0,0,0,0,0,0,0,0,0,0,2191,2192,
0,0,0,0,0,0,0,0,0,0,0,0,0,0,0,0,
2340,2341,0,0,0,0,0,0,0,0,0,0,0,0,0,0,
2372,2373,0,0,0,0,0,0,0,0,0,0,0,0,0,0,
0,0,0,0,0,0,0,0,0,0,0,0,0,0,0,0,
0,0,0,0,0,0,2374,0,0,0,0,0,0,0,0,0,
0,0,0,0,0,0,0,0,0,0,0,0,0,0,0,0,
0,0,0,0,0,0,0,0,0,0,0,0,0,0,0,0,
0,0,0,0,0,0,0,0,0,0,0,0,0,0,0,0,
0,0,0,0,0,0,0,0,0,0,0,0,0,0,0,0,
0,0,0,0,0,0,0,0,0,0,0,0,0,0,0,0,
0,0,0,0,0,0,0,0,0,0,0,0,0,0,0,0,
0,0,0,0,0,0,0,0,0,0,0,0,0,0,0,0
</chunk>
   <chunk x="-16" y="-16" width="16" height="16">
2128,0,0,0,0,0,0,0,0,0,0,0,0,0,0,0,
2160,0,0,0,0,0,0,0,0,0,0,0,0,0,0,0,
2192,0,0,0,0,0,0,0,0,0,0,0,0,0,0,0,
0,0,0,0,0,0,0,0,0,0,0,0,0,0,0,0,
0,0,0,0,0,0,0,0,0,0,0,0,0,0,0,0,
0,0,0,0,0,0,0,0,0,0,0,0,0,0,0,0,
0,0,0,0,0,0,0,0,0,0,0,0,0,0,0,0,
0,0,0,0,0,0,0,0,0,0,0,0,0,0,0,0,
0,0,0,0,0,0,0,0,0,0,0,0,0,0,0,0,
0,0,0,0,0,0,0,0,0,0,0,0,0,0,0,0,
0,0,0,0,0,0,0,0,0,0,0,0,0,0,0,0,
0,0,0,0,0,0,0,0,0,0,0,0,0,0,0,0,
0,0,0,0,0,0,0,0,0,0,0,0,0,0,0,0,
0,0,0,0,0,0,0,0,0,0,0,0,0,0,0,0,
0,0,0,0,0,0,0,0,0,0,0,0,0,0,0,0,
0,0,0,0,0,0,0,0,0,0,0,0,0,0,0,0
</chunk>
   <chunk x="-64" y="0" width="16" height="16">
0,0,0,0,0,0,0,0,0,0,0,0,0,0,2374,0,
0,0,0,0,0,0,0,0,0,0,0,0,0,0,0,0,
0,0,0,0,0,0,0,0,0,0,0,0,0,0,0,0,
0,0,0,0,0,0,0,0,0,0,0,0,0,0,0,2339,
0,0,0,0,0,0,0,0,0,0,0,0,0,0,0,2371,
0,0,0,0,0,0,0,0,0,0,0,0,0,0,0,0,
0,0,0,0,0,0,0,0,0,0,0,0,0,0,0,0,
0,0,0,0,0,0,0,0,0,0,0,0,0,0,0,0,
0,0,0,0,0,0,0,0,0,0,0,0,0,0,0,0,
0,0,0,0,0,0,0,0,0,0,0,0,0,0,0,0,
0,0,0,0,0,0,0,0,0,0,0,0,0,0,0,0,
0,0,0,0,0,0,0,0,0,0,0,0,0,0,0,0,
0,0,0,0,0,0,0,0,0,0,0,0,0,0,0,0,
0,0,0,0,0,0,0,0,0,0,0,0,0,0,0,0,
0,0,0,0,0,0,0,0,0,0,0,0,0,0,0,0,
0,0,0,0,0,0,0,0,0,0,0,0,0,0,0,0
</chunk>
   <chunk x="-48" y="0" width="16" height="16">
0,0,0,0,0,0,0,0,0,0,0,0,0,0,0,0,
0,0,0,0,0,0,0,0,0,0,0,0,0,0,0,0,
0,0,0,0,0,0,0,0,0,0,0,0,0,0,0,0,
0,0,0,0,0,0,0,0,0,0,0,0,0,0,0,0,
2340,0,0,0,0,0,0,0,0,0,0,0,0,0,0,0,
2372,2341,0,0,0,0,0,0,0,0,0,0,0,0,0,0,
0,2373,0,0,0,0,0,0,0,0,0,0,0,0,0,0,
0,0,0,0,0,0,0,0,0,0,0,0,0,0,0,0,
0,0,0,0,0,0,0,2374,0,0,0,0,0,0,0,0,
0,0,0,0,0,0,0,0,0,0,0,0,0,0,0,0,
0,0,0,0,0,0,0,0,0,0,0,0,0,0,0,0,
0,0,0,0,0,0,0,0,0,0,0,0,0,0,0,0,
0,0,0,0,0,0,0,0,0,0,0,0,0,0,0,0,
0,0,0,0,0,0,0,0,0,0,0,0,0,0,0,0,
0,0,0,0,0,0,0,0,0,0,0,0,0,0,0,0,
0,0,0,0,0,0,0,0,0,0,0,0,0,0,0,0
</chunk>
   <chunk x="32" y="32" width="16" height="16">
0,0,0,0,0,0,0,0,0,0,0,0,0,0,0,0,
0,0,0,0,0,0,0,0,0,0,0,0,0,0,0,0,
0,0,0,0,0,0,0,0,0,0,0,0,0,0,0,0,
0,0,0,0,0,0,0,0,0,0,0,0,0,0,0,0,
0,0,0,0,0,0,0,0,0,0,0,0,0,0,0,0,
0,0,0,0,0,0,0,0,0,0,0,0,0,0,0,0,
0,0,0,0,0,0,0,0,0,0,0,0,0,0,0,0,
0,0,0,0,0,0,0,0,0,0,0,0,0,0,0,0,
0,0,0,0,0,0,0,0,0,0,0,0,0,0,0,0,
0,0,0,0,0,0,0,0,0,0,0,0,0,0,0,0,
0,0,0,0,0,0,0,0,0,0,0,0,0,0,0,0,
0,0,0,0,0,0,0,0,0,0,0,0,0,0,0,0,
0,0,0,0,0,0,0,0,0,0,0,0,0,0,0,0,
0,0,0,0,0,0,0,0,0,2306,0,0,0,0,0,0,
0,0,0,0,0,0,0,0,0,0,0,0,0,0,0,0,
0,2338,0,0,0,0,0,0,0,0,0,0,0,0,0,0
</chunk>
   <chunk x="16" y="48" width="16" height="16">
0,0,0,0,0,0,0,0,0,0,0,0,0,0,0,0,
0,0,0,0,0,0,0,0,0,0,0,0,0,0,0,0,
0,0,0,0,0,0,0,0,0,0,0,0,0,0,0,0,
0,0,0,0,0,0,0,0,0,0,0,0,0,0,0,0,
0,0,0,0,0,0,0,0,0,0,0,0,0,0,0,0,
0,0,0,0,0,0,0,0,0,0,0,0,0,0,0,0,
0,0,0,0,0,0,0,0,0,0,0,0,0,0,0,0,
0,0,0,0,0,0,0,0,0,0,0,0,0,0,0,0,
0,0,0,0,0,0,0,0,0,0,0,0,0,0,0,0,
0,0,0,0,0,0,0,0,0,0,0,0,2310,0,0,0,
0,0,0,0,0,0,0,0,0,0,0,0,0,0,0,0,
0,0,0,0,0,0,0,0,0,0,0,0,0,0,0,0,
0,0,0,0,0,0,0,0,0,0,0,0,0,0,0,0,
0,0,0,0,0,0,0,0,0,0,0,0,0,0,0,0,
0,0,0,0,0,0,0,0,0,0,0,0,0,0,0,0,
0,0,0,0,0,0,0,0,0,0,0,0,0,0,0,0
</chunk>
   <chunk x="32" y="48" width="16" height="16">
0,0,0,0,0,0,0,0,0,0,0,0,0,0,0,0,
0,0,0,0,0,0,0,0,2369,0,0,0,0,0,0,0,
0,0,0,0,0,0,0,0,0,0,0,0,0,0,0,0,
0,0,0,0,0,0,0,0,0,0,0,0,0,0,0,0,
2370,0,0,0,0,0,0,0,0,0,0,0,0,0,0,0,
0,0,0,0,0,0,0,0,0,0,0,0,0,0,0,0,
0,0,0,0,0,0,0,0,0,2342,0,0,0,0,0,0,
0,0,0,0,0,0,0,0,0,0,0,0,0,0,0,0,
0,0,0,0,0,0,0,0,0,0,0,0,0,0,0,0,
0,0,0,0,0,0,0,0,2345,0,0,0,0,0,0,0,
0,0,0,0,0,0,0,0,0,0,0,0,0,0,0,0,
0,0,0,0,0,0,0,0,0,0,0,0,0,0,0,0,
0,0,0,0,0,0,0,0,0,0,0,0,0,0,0,0,
0,0,0,0,0,0,0,0,0,0,0,0,0,0,0,0,
0,0,0,0,0,0,0,0,0,0,0,0,0,0,0,0,
0,0,0,0,0,0,0,0,0,2313,0,0,0,0,0,0
</chunk>
   <chunk x="48" y="64" width="16" height="16">
0,0,0,0,0,2311,0,0,0,0,0,0,0,0,0,0,
0,0,0,0,0,2312,0,0,0,0,0,0,0,0,0,0,
0,0,0,0,0,0,0,0,0,0,0,0,0,0,0,0,
0,0,0,0,0,0,0,0,0,0,0,0,0,0,0,0,
0,0,0,0,0,0,0,0,0,0,0,0,0,0,0,0,
0,0,0,0,0,0,0,0,0,0,0,0,0,0,0,0,
0,0,0,0,0,0,0,0,0,0,0,0,0,0,0,0,
0,0,0,0,0,0,0,0,0,0,0,0,0,0,0,0,
0,0,0,0,0,0,0,0,0,0,0,0,0,0,0,0,
0,0,0,0,0,0,0,0,0,0,0,0,0,0,0,0,
0,0,0,0,0,0,0,0,2345,0,0,0,0,0,0,0,
0,0,0,0,0,0,0,0,0,0,0,0,0,0,0,0,
2342,0,0,0,0,0,0,0,0,0,0,0,0,0,0,0,
0,0,0,0,0,0,0,0,0,0,0,0,0,0,0,0,
0,0,0,0,0,0,0,0,0,0,0,0,0,0,0,0,
0,0,2310,0,0,0,0,0,0,0,0,0,0,0,0,0
</chunk>
  </data>
 </layer>
 <layer id="2" name="Above3" width="30" height="20">
  <data encoding="csv"/>
 </layer>
 <layer id="3" name="GroundCollision" width="30" height="20" visible="0">
  <data encoding="csv">
   <chunk x="-96" y="-32" width="16" height="16">
0,0,0,0,0,0,0,0,0,0,0,0,0,0,0,0,
0,0,0,0,0,0,0,0,0,0,0,0,0,0,0,0,
0,0,0,0,0,0,0,0,0,0,0,0,0,0,0,0,
0,0,0,0,0,0,0,0,0,0,0,0,0,0,0,0,
0,0,0,0,0,0,0,0,0,0,0,0,0,0,0,0,
0,0,0,0,0,0,0,0,0,0,0,0,0,0,0,0,
0,0,0,0,0,0,0,0,0,0,0,0,0,0,0,0,
0,0,0,0,0,0,0,0,0,0,0,0,0,0,0,0,
0,0,0,0,0,0,0,0,0,0,0,0,0,0,0,0,
0,0,0,0,0,0,0,0,0,0,0,0,0,0,0,0,
0,0,0,0,0,0,0,0,0,0,0,0,0,0,0,0,
0,0,0,0,0,0,0,0,0,0,0,0,0,0,0,0,
0,0,0,0,0,0,0,0,0,0,7587,7587,7587,7587,7587,7587,
0,0,0,0,0,0,0,0,0,0,7587,7587,7587,7587,7587,7587,
0,0,0,0,0,0,0,0,0,0,7587,7587,7587,7587,7587,7587,
0,0,0,0,0,0,0,0,0,0,7587,7587,7587,7587,7587,7587
</chunk>
   <chunk x="-80" y="-32" width="16" height="16">
0,0,0,0,0,0,0,0,0,0,0,0,0,0,0,0,
0,0,0,0,0,0,0,0,0,0,0,0,0,0,0,0,
0,0,0,0,0,0,0,0,0,0,0,0,0,0,0,0,
0,0,0,0,0,0,0,0,0,0,0,0,0,0,0,0,
0,0,0,0,0,0,0,0,0,0,0,0,0,0,0,0,
0,0,0,0,0,0,0,0,0,0,0,0,0,0,0,0,
0,0,0,0,0,0,0,0,0,0,0,0,0,0,0,0,
0,0,0,0,0,0,0,0,0,0,0,0,0,0,0,0,
0,0,0,0,0,0,0,0,0,0,0,0,0,0,0,0,
0,0,0,0,0,0,0,0,0,0,0,0,0,0,0,0,
0,0,0,0,0,0,0,0,0,0,0,0,0,0,0,0,
0,0,0,0,0,0,0,0,0,0,0,0,0,0,0,0,
7587,7587,7587,7587,7587,7587,7587,7587,7587,7587,7587,7587,7587,7587,7587,7587,
7587,7587,7587,7587,7587,7587,7587,7587,7587,7587,7587,7587,7587,7587,7587,7587,
7587,7587,7587,7587,7587,7587,7587,7587,7587,7587,7587,7587,7587,7587,7587,7587,
7587,7587,7587,7587,7587,7587,7587,7587,7587,7587,7587,7587,7587,7587,7587,7587
</chunk>
   <chunk x="-64" y="-32" width="16" height="16">
0,0,0,0,0,0,0,0,0,0,0,0,0,0,0,0,
0,0,0,0,0,0,0,0,0,0,0,0,0,0,0,0,
0,0,0,0,0,0,0,0,0,0,0,0,0,0,0,0,
0,0,0,0,0,0,0,0,0,0,0,0,0,0,0,0,
0,0,0,0,0,0,0,0,0,0,0,0,0,0,0,0,
0,0,0,0,0,0,0,0,0,0,0,0,0,0,0,0,
0,0,0,0,0,0,0,0,0,0,0,0,0,0,0,0,
0,0,0,0,0,0,0,0,0,0,0,0,0,0,0,0,
0,0,0,0,0,0,0,0,0,0,0,0,0,0,0,0,
0,0,0,0,0,0,0,0,0,0,0,0,0,0,0,0,
0,0,0,0,0,0,0,0,0,0,0,0,0,0,0,0,
0,0,0,0,0,0,0,0,0,0,0,0,0,0,0,0,
7587,7587,7587,7587,7587,7587,7587,7587,7587,7587,7587,7587,7587,7587,7587,7587,
7587,7587,7587,7587,7587,7587,7587,7587,7587,7587,7587,7587,7587,7587,7587,7587,
7587,7587,7587,7587,7587,7587,7587,7587,7587,7587,7587,7587,7587,7587,7587,7587,
7587,7587,7587,7587,7587,7587,7587,7587,7587,7587,7587,7587,7587,7587,7587,7587
</chunk>
   <chunk x="-48" y="-32" width="16" height="16">
0,0,0,0,0,0,0,0,0,0,0,0,0,0,0,0,
0,0,0,0,0,0,0,0,0,0,0,0,0,0,0,0,
0,0,0,0,0,0,0,0,0,0,0,0,0,0,0,0,
0,0,0,0,0,0,0,0,0,0,0,0,0,0,0,0,
0,0,0,0,0,0,0,0,0,0,0,0,0,0,0,0,
0,0,0,0,0,0,0,0,0,0,0,0,0,0,0,0,
0,0,0,0,0,0,0,0,0,0,0,0,0,0,0,0,
0,0,0,0,0,0,0,0,0,0,0,0,0,0,0,0,
0,0,0,0,0,0,0,0,0,0,0,0,0,0,0,0,
0,0,0,0,0,0,0,0,0,0,0,0,0,0,0,0,
0,0,0,0,0,0,0,0,0,0,0,0,0,0,0,0,
0,0,0,0,0,0,0,0,0,0,0,0,0,0,0,0,
7587,7587,7587,7587,7587,0,0,0,0,0,0,0,0,0,0,0,
7587,7587,7587,7587,7587,0,0,0,0,0,0,0,0,0,0,0,
7587,7587,7587,7587,7587,0,0,0,0,0,0,0,0,0,0,0,
7587,7587,7587,7587,7587,0,0,0,0,0,0,0,0,0,0,0
</chunk>
   <chunk x="-96" y="-16" width="16" height="16">
0,0,0,0,0,0,0,0,0,0,7587,7587,7587,7587,7587,7587,
0,0,0,0,0,0,0,0,0,0,7587,7587,7587,7587,7587,7587,
0,0,0,0,0,0,0,0,0,0,7587,7587,7587,7587,7587,7587,
0,0,0,0,0,0,0,0,0,0,7587,7587,7587,7587,7587,7587,
0,0,0,0,0,0,0,0,0,0,7587,7587,7587,7587,7587,7587,
0,0,0,0,0,0,0,0,0,0,7587,7587,7587,7587,7587,7587,
0,0,0,0,0,0,0,0,0,0,7587,7587,7587,7587,7587,7587,
0,0,0,0,0,0,0,0,0,0,7587,7587,7587,7587,7587,7587,
0,0,0,0,0,0,0,0,0,0,7587,7587,7587,7587,7587,7587,
0,0,0,0,0,0,0,0,0,0,7587,7587,7587,7587,7587,7587,
0,0,0,0,0,0,0,0,0,0,7587,7587,7587,7587,7587,7587,
0,0,0,0,0,0,0,0,0,0,7587,7587,7587,7587,7587,7587,
0,0,0,0,0,0,0,0,0,0,7587,7587,7587,7587,7587,7587,
0,0,0,0,0,0,0,0,0,0,7587,7587,7587,7587,7587,7587,
0,0,0,0,0,0,0,0,0,0,7587,7587,7587,7587,7587,7587,
0,0,0,0,0,0,0,0,0,0,7587,7587,7587,7587,7587,7587
</chunk>
   <chunk x="-80" y="-16" width="16" height="16">
7587,7587,7587,7587,7587,7587,7587,7587,7587,7587,7587,7587,7587,7587,7587,7587,
7587,7587,7587,7587,7587,7587,7587,7587,7587,7587,7587,7587,7587,7587,7587,7587,
7587,7587,7587,7587,7587,7587,7587,7587,7587,7587,7587,7587,7587,7587,7587,7587,
7587,7587,7587,7587,7587,7587,7587,7587,7587,7587,7587,7587,7587,7587,7587,7587,
7587,7587,7587,7587,7587,7587,7587,7587,7587,7587,7587,7587,7587,7587,7587,7587,
7587,7587,7587,7587,7587,7587,7587,7587,7587,7587,7587,7587,7587,7587,7587,7587,
7587,7587,7587,7587,7587,7587,7587,7587,7587,7587,7587,7587,7587,7587,7587,7587,
7587,7587,7587,7587,7587,7587,7587,7587,7587,7587,7587,7587,7587,7587,7587,7587,
7587,7587,7587,7587,7587,7587,7587,7587,7587,7587,7587,7587,7587,7587,7587,7587,
7587,7587,7587,7587,7587,7587,7587,7587,7587,7587,7587,7587,7587,7587,7587,7587,
7587,7587,7587,7587,7587,7587,7587,7587,7587,7587,7587,7587,7587,7587,7587,7587,
7587,7587,7587,7587,7587,7587,7587,7587,7587,7587,7587,7587,7587,7587,7587,7587,
7587,7587,7587,7587,7587,7587,7587,7587,7587,7587,7587,7587,7587,7587,7587,7587,
7587,7587,7587,7587,7587,7587,7587,7587,7587,7587,7587,7587,7587,7587,7587,7587,
7587,7587,7587,7587,7587,7587,7587,7587,7587,7587,7587,7587,7587,7587,7587,7587,
7587,7587,7587,7587,7587,7587,7587,7587,7587,7587,7587,7587,7587,7587,7587,7587
</chunk>
   <chunk x="-64" y="-16" width="16" height="16">
7587,7587,7587,7587,7587,7587,7587,7587,7587,7587,7587,7587,7587,7587,7587,7587,
7587,7587,7587,7587,7587,7587,7587,7587,7587,7587,7587,7587,7587,7587,7587,7587,
7587,7587,7587,7587,7587,7587,7587,7587,7587,7587,7587,7587,7587,7587,7587,7587,
7587,7587,7587,7587,7587,7587,7587,7587,7587,7587,7587,7587,7587,7587,7587,7587,
7587,7587,7587,7587,7587,7587,7587,7587,7587,7587,7587,7587,7587,7587,7587,7587,
7587,7587,7587,7587,7587,7587,7587,7587,7587,7587,7587,7587,7587,7587,7587,7587,
7587,7587,7587,7587,7587,7587,7587,7587,7587,7587,7587,7587,7587,7587,7587,7587,
7587,7587,7587,7587,7587,7587,7587,7587,7587,7587,7587,7587,7587,7587,7587,7587,
7587,7587,7587,7587,7587,7587,7587,7587,7587,7587,7587,7587,7587,7587,7587,7587,
7587,7587,7587,7587,7587,7587,7587,7587,7587,7587,7587,7587,7587,7587,7587,7587,
7587,7587,7587,7587,7587,7587,7587,7587,7587,7587,7587,7587,7587,7587,7587,7587,
7587,7587,7587,7587,7587,7587,7587,7587,7587,7587,7587,7587,7587,7587,7587,7587,
7587,7587,7587,7587,7587,7587,7587,7587,7587,7587,7587,7587,7587,7587,7587,7587,
7587,7587,7587,7587,7587,7587,7587,7587,7587,7587,7587,7587,7587,7587,7587,7587,
7587,7587,7587,7587,7587,7587,7587,7587,7587,7587,0,0,0,0,0,0,
7587,7587,7587,7587,7587,7587,7587,7587,7587,7587,0,0,0,0,0,0
</chunk>
   <chunk x="-48" y="-16" width="16" height="16">
7587,7587,7587,7587,7587,0,0,0,0,0,0,0,0,0,0,0,
7587,7587,7587,7587,7587,0,0,0,0,0,0,0,0,0,0,0,
7587,7587,7587,7587,7587,0,0,0,0,0,0,0,0,0,0,0,
7587,7587,7587,7587,7587,0,0,0,0,0,0,0,0,0,0,0,
7587,7587,7587,7587,7587,0,0,0,0,0,0,0,0,0,0,0,
7587,7587,7587,7587,7587,0,0,0,0,0,0,0,0,0,0,0,
7587,7587,7587,7587,7587,0,0,0,0,0,0,0,0,0,0,0,
7587,7587,7587,7587,7587,0,0,0,0,0,0,0,0,0,0,0,
7587,7587,7587,7587,7587,0,0,0,0,0,0,0,0,0,0,0,
7587,7587,7587,7587,7587,7587,7587,7587,7587,7587,7587,7587,7587,7587,7587,0,
7587,7587,7587,7587,7587,7587,7587,7587,7587,7587,7587,7587,7587,7587,7587,0,
7587,7587,7587,7587,7587,7587,7587,7587,7587,7587,7587,7587,7587,7587,7587,0,
7587,7587,7587,7587,7587,7587,7587,7587,7587,7587,7587,7587,7587,7587,7587,0,
7587,7587,7587,7587,7587,7587,7587,7587,7587,7587,7587,7587,7587,7587,7587,0,
0,0,0,0,0,0,0,0,0,0,0,0,0,0,0,0,
0,0,0,0,0,0,0,0,0,0,0,0,0,0,0,0
</chunk>
   <chunk x="-96" y="0" width="16" height="16">
0,0,0,0,0,0,0,0,0,0,7587,7587,7587,7587,7587,7587,
0,0,0,0,0,0,0,0,0,0,7587,7587,7587,7587,7587,7587,
0,0,0,0,0,0,0,0,0,0,7587,7587,7587,7587,7587,7587,
0,0,0,0,0,0,0,0,0,0,7587,7587,7587,7587,7587,7587,
0,0,0,0,0,0,0,0,0,0,7587,7587,7587,7587,7587,7587,
0,0,0,0,0,0,0,0,0,0,7587,7587,7587,7587,7587,7587,
0,0,0,0,0,0,0,0,0,0,7587,7587,7587,7587,7587,7587,
0,0,0,0,0,0,0,0,0,0,7587,7587,7587,7587,7587,7587,
0,0,0,0,0,0,0,0,0,0,7587,7587,7587,7587,7587,7587,
0,0,0,0,0,0,0,0,0,0,7587,7587,7587,7587,7587,7587,
0,0,0,0,0,0,0,0,0,0,7587,7587,7587,7587,7587,7587,
0,0,0,0,0,0,0,0,0,0,7587,7587,7587,7587,7587,7587,
0,0,0,0,0,0,0,0,0,0,7587,7587,7587,7587,7587,7587,
0,0,0,0,0,0,0,0,0,0,7587,7587,7587,7587,7587,7587,
0,0,0,0,0,0,0,0,0,0,0,7587,7587,7587,7587,7587,
0,0,0,0,0,0,0,0,0,0,0,7587,7587,7587,7587,7587
</chunk>
   <chunk x="-80" y="0" width="16" height="16">
7587,7587,7587,7587,7587,7587,0,0,0,0,0,0,0,0,0,0,
7587,7587,7587,7587,7587,7587,0,0,0,0,0,0,0,0,0,0,
7587,7587,7587,7587,7587,7587,0,0,0,0,0,0,0,0,0,0,
7587,7587,7587,7587,7587,7587,0,0,0,0,0,0,0,0,0,0,
7587,7587,7587,7587,7587,7587,0,0,0,0,0,0,0,0,0,0,
7587,7587,7587,7587,7587,7587,0,0,0,0,0,0,0,0,0,0,
7587,7587,7587,7587,7587,7587,0,0,0,0,0,0,0,0,0,0,
7587,7587,7587,7587,7587,7587,0,0,0,0,0,0,0,0,0,0,
7587,7587,7587,7587,7587,7587,0,0,0,0,0,0,0,0,0,0,
7587,7587,7587,7587,7587,7587,0,0,0,0,0,0,0,0,0,0,
7587,7587,7587,7587,7587,7587,0,0,0,0,0,0,0,0,0,0,
7587,7587,7587,7587,7587,7587,0,0,0,0,0,0,0,0,0,0,
7587,7587,7587,7587,7587,7587,0,0,0,0,0,0,0,0,0,0,
7587,7587,7587,7587,7587,7587,0,0,0,0,0,0,0,0,0,0,
7587,7587,7587,7587,7587,7587,0,0,0,0,0,0,0,0,0,0,
7587,7587,7587,7587,7587,7587,0,0,0,0,0,0,0,0,0,0
</chunk>
   <chunk x="-96" y="16" width="16" height="16">
0,0,0,0,0,0,0,0,0,0,0,7587,7587,7587,7587,7587,
0,0,0,0,0,0,0,0,0,0,0,7587,7587,7587,7587,7587,
0,0,0,0,0,0,0,0,0,0,0,7587,7587,7587,7587,7587,
0,0,0,0,0,0,0,0,0,0,0,7587,7587,7587,7587,7587,
0,0,0,0,0,0,0,0,0,0,0,7587,7587,7587,7587,7587,
0,0,0,0,0,0,0,0,0,0,0,7587,7587,7587,7587,7587,
0,0,0,0,0,0,0,0,0,0,0,7587,7587,7587,7587,7587,
0,0,0,0,0,0,0,0,0,0,0,7587,7587,7587,7587,7587,
0,0,0,0,0,0,0,0,0,0,0,7587,7587,7587,7587,7587,
0,0,0,0,0,0,0,0,0,0,0,7587,7587,7587,7587,7587,
0,0,0,0,0,0,0,0,0,0,0,7587,7587,7587,7587,7587,
0,0,0,0,0,0,0,0,0,0,0,7587,7587,7587,7587,7587,
0,0,0,0,0,0,0,0,0,0,0,7587,7587,7587,7587,7587,
0,0,0,0,0,0,0,0,0,0,0,7587,7587,7587,7587,7587,
0,0,0,0,0,0,0,0,0,0,0,7587,7587,7587,7587,7587,
0,0,0,0,0,0,0,0,0,0,0,7587,7587,7587,7587,7587
</chunk>
   <chunk x="-80" y="16" width="16" height="16">
7587,7587,7587,7587,7587,7587,0,0,0,0,0,0,0,0,0,0,
7587,7587,7587,7587,7587,7587,0,0,0,0,0,0,0,0,0,0,
7587,7587,7587,7587,7587,7587,0,0,0,0,0,0,0,0,0,0,
7587,7587,7587,7587,7587,7587,0,0,0,0,0,0,0,0,0,0,
7587,7587,7587,7587,7587,7587,0,0,0,0,0,0,0,0,0,0,
7587,7587,7587,7587,7587,7587,0,0,0,0,0,0,0,0,0,0,
7587,7587,7587,7587,7587,7587,0,0,0,0,0,0,0,0,0,0,
7587,7587,7587,7587,7587,7587,0,0,0,0,0,0,0,0,0,0,
7587,7587,7587,7587,7587,7587,0,0,0,0,0,0,0,0,0,0,
7587,7587,7587,7587,7587,7587,0,0,0,0,0,0,0,0,0,0,
7587,7587,7587,7587,7587,7587,0,0,0,0,0,0,0,0,0,0,
7587,7587,7587,7587,7587,7587,0,0,0,0,0,0,0,0,0,0,
7587,7587,7587,7587,7587,7587,0,0,0,0,0,0,0,0,0,0,
7587,7587,7587,7587,7587,7587,0,0,0,0,0,0,0,0,0,0,
7587,7587,7587,7587,7587,7587,0,0,0,0,0,0,0,0,0,0,
7587,7587,7587,7587,7587,7587,0,0,0,0,0,0,0,0,0,0
</chunk>
   <chunk x="0" y="16" width="16" height="16">
0,0,0,0,0,0,0,0,0,0,0,0,0,0,0,0,
0,0,0,0,0,0,0,0,0,0,0,0,0,0,0,0,
0,0,0,0,0,0,0,0,0,0,0,0,0,0,0,0,
0,0,0,0,0,0,0,0,0,0,0,0,0,0,0,0,
0,0,0,0,0,0,0,0,0,0,0,0,0,0,0,0,
0,0,0,0,0,0,0,0,0,0,0,0,0,0,0,0,
0,0,0,0,0,0,0,0,0,0,0,0,0,0,0,0,
0,0,0,0,0,0,0,0,0,0,0,0,0,0,0,0,
0,0,0,0,0,0,0,0,0,0,0,0,0,0,0,0,
0,0,0,0,0,0,0,0,0,0,0,0,0,0,0,0,
0,0,0,0,0,0,0,0,0,0,0,0,0,0,0,0,
0,0,0,0,0,0,0,0,0,0,0,0,0,0,0,0,
0,0,0,0,0,0,0,0,0,0,0,0,0,0,0,0,
0,0,0,0,0,0,0,0,0,0,0,0,0,0,0,0,
0,0,0,7587,7587,7587,7587,7587,7587,7587,7587,7587,7587,7587,7587,7587,
0,0,0,7587,7587,7587,7587,7587,7587,7587,7587,7587,7587,7587,7587,7587
</chunk>
   <chunk x="16" y="16" width="16" height="16">
0,0,0,0,0,0,0,0,0,0,0,0,0,0,0,0,
0,0,0,0,0,0,0,0,0,0,0,0,0,0,0,0,
0,0,0,0,0,0,0,0,0,0,0,0,0,0,0,0,
0,0,0,0,0,0,0,0,0,0,0,0,0,0,0,0,
0,0,0,0,0,0,0,0,0,0,0,0,0,0,0,0,
0,0,0,0,0,0,0,0,0,0,0,0,0,7587,7587,7587,
0,0,0,0,0,0,0,0,0,0,0,0,0,7587,7587,7587,
0,0,0,0,0,0,0,0,0,0,0,0,0,7587,7587,7587,
0,0,0,0,0,0,0,0,0,0,0,0,0,7587,7587,7587,
0,0,0,0,0,0,0,0,0,0,0,0,0,7587,7587,7587,
0,0,0,0,0,0,0,0,0,0,0,0,0,7587,7587,7587,
0,0,0,0,0,0,0,0,0,0,0,0,0,7587,7587,7587,
0,0,0,0,0,0,0,0,0,0,0,0,0,7587,7587,7587,
0,0,0,0,0,0,0,0,0,0,0,0,0,7587,7587,7587,
7587,7587,7587,7587,7587,7587,7587,7587,7587,7587,7587,7587,7587,7587,7587,7587,
7587,7587,7587,7587,7587,7587,7587,7587,7587,7587,7587,7587,7587,7587,7587,7587
</chunk>
   <chunk x="32" y="16" width="16" height="16">
0,0,0,0,0,0,0,0,0,0,0,0,0,0,0,0,
0,0,0,0,0,0,0,0,0,0,0,0,0,0,0,0,
0,0,0,0,0,0,0,0,0,0,0,0,0,0,0,0,
0,0,0,0,0,0,0,0,0,0,0,0,0,0,0,0,
0,0,0,0,0,0,0,0,0,0,0,0,0,0,0,0,
7587,7587,7587,7587,7587,7587,7587,7587,7587,7587,7587,7587,7587,7587,7587,7587,
7587,7587,7587,7587,7587,7587,7587,7587,7587,7587,7587,7587,7587,7587,7587,7587,
7587,7587,7587,7587,7587,7587,7587,7587,7587,7587,7587,7587,7587,7587,7587,7587,
7587,7587,7587,7587,7587,7587,7587,7587,7587,7587,7587,7587,7587,7587,7587,7587,
7587,7587,7587,7587,7587,7587,7587,7587,7587,7587,7587,7587,7587,7587,7587,7587,
7587,7587,7587,7587,7587,7587,7587,7587,7587,7587,7587,7587,7587,7587,7587,7587,
7587,7587,7587,7587,7587,7587,7587,7587,7587,7587,7587,7587,7587,7587,7587,7587,
7587,7587,7587,7587,7587,7587,7587,7587,7587,7587,7587,7587,7587,7587,7587,7587,
7587,7587,7587,7587,7587,7587,7587,7587,7587,7587,7587,7587,7587,7587,7587,7587,
7587,7587,7587,7587,7587,7587,7587,7587,7587,7587,7587,7587,7587,7587,7587,7587,
7587,7587,7587,7587,7587,7587,7587,7587,7587,7587,7587,7587,7587,7587,7587,7587
</chunk>
   <chunk x="48" y="16" width="16" height="16">
0,0,0,0,0,0,0,0,0,0,0,0,0,0,0,0,
0,0,0,0,0,0,0,0,0,0,0,0,0,0,0,0,
0,0,0,0,0,0,0,0,0,0,0,0,0,0,0,0,
0,0,0,0,0,0,0,0,0,0,0,0,0,0,0,0,
0,0,0,0,0,0,0,0,0,0,0,0,0,0,0,0,
7587,7587,7587,7587,7587,7587,7587,7587,7587,7587,7587,7587,7587,7587,7587,0,
7587,7587,7587,7587,7587,7587,7587,7587,7587,7587,7587,7587,7587,7587,7587,0,
7587,7587,7587,7587,7587,7587,7587,7587,7587,7587,7587,7587,7587,7587,7587,0,
7587,7587,7587,7587,7587,7587,7587,7587,7587,7587,7587,7587,7587,7587,7587,0,
7587,7587,7587,7587,7587,7587,7587,7587,7587,7587,7587,7587,7587,7587,7587,0,
7587,7587,7587,7587,7587,7587,7587,7587,7587,7587,7587,7587,7587,7587,7587,0,
7587,7587,7587,7587,7587,7587,7587,7587,7587,7587,7587,7587,7587,7587,7587,0,
7587,7587,7587,7587,7587,7587,7587,7587,7587,7587,7587,7587,7587,7587,7587,0,
7587,7587,7587,7587,7587,7587,7587,7587,7587,7587,7587,7587,7587,7587,7587,0,
7587,7587,7587,7587,7587,7587,7587,7587,7587,7587,7587,7587,7587,7587,7587,0,
7587,7587,7587,7587,7587,7587,7587,7587,7587,7587,7587,7587,7587,7587,7587,0
</chunk>
   <chunk x="-96" y="32" width="16" height="16">
0,0,0,0,0,0,0,0,0,0,0,7587,7587,7587,7587,7587,
0,0,0,0,0,0,0,0,0,0,0,7587,7587,7587,7587,7587,
0,0,0,0,0,0,0,0,0,0,0,7587,7587,7587,7587,7587,
0,0,0,0,0,0,0,0,0,0,0,7587,7587,7587,7587,7587,
0,0,0,0,0,0,0,0,0,0,0,7587,7587,7587,7587,7587,
0,0,0,0,0,0,0,0,0,0,0,7587,7587,7587,7587,7587,
0,0,0,0,0,0,0,0,0,0,0,7587,7587,7587,7587,7587,
0,0,0,0,0,0,0,0,0,0,0,7587,7587,7587,7587,7587,
0,0,0,0,0,0,0,0,0,0,0,7587,7587,7587,7587,7587,
0,0,0,0,0,0,0,0,0,0,0,7587,7587,7587,7587,7587,
0,0,0,0,0,0,0,0,0,0,0,7587,7587,7587,7587,7587,
0,0,0,0,0,0,0,0,0,0,0,7587,7587,7587,7587,7587,
0,0,0,0,0,0,0,0,0,0,0,7587,7587,7587,7587,7587,
0,0,0,0,0,0,0,0,0,0,0,7587,7587,7587,7587,7587,
0,0,0,0,0,0,0,0,0,0,0,7587,7587,7587,7587,7587,
0,0,0,0,0,0,0,0,0,0,0,7587,7587,7587,7587,7587
</chunk>
   <chunk x="-80" y="32" width="16" height="16">
7587,7587,7587,7587,7587,7587,0,0,0,0,0,0,0,0,0,0,
7587,7587,7587,7587,7587,7587,0,0,0,0,0,0,0,0,0,0,
7587,7587,7587,7587,7587,7587,0,0,0,0,0,0,0,0,0,0,
7587,7587,7587,7587,7587,7587,0,0,0,0,0,0,0,0,0,0,
7587,7587,7587,7587,7587,7587,0,0,0,0,0,0,0,0,0,0,
7587,7587,7587,7587,7587,7587,0,0,0,0,0,0,0,0,0,0,
7587,7587,7587,7587,7587,7587,0,0,0,0,0,0,0,0,0,0,
7587,7587,7587,7587,7587,7587,0,0,0,0,0,0,0,0,0,0,
7587,7587,7587,7587,7587,7587,0,0,0,0,0,0,0,0,0,0,
7587,7587,7587,7587,7587,7587,0,0,0,0,0,0,0,0,0,0,
7587,7587,7587,7587,7587,7587,0,0,0,0,0,0,0,0,0,0,
7587,7587,7587,7587,7587,7587,0,0,0,0,0,0,0,0,0,0,
7587,7587,7587,7587,7587,7587,0,0,0,0,0,0,0,0,0,0,
7587,7587,7587,7587,7587,7587,0,0,0,0,0,0,0,0,0,0,
7587,7587,7587,7587,7587,7587,0,0,0,0,0,0,0,0,0,0,
7587,7587,7587,7587,7587,7587,0,0,0,0,0,0,0,0,0,0
</chunk>
   <chunk x="-48" y="32" width="16" height="16">
0,0,0,0,0,0,0,0,0,0,0,0,0,0,0,0,
0,0,0,0,0,0,0,0,0,0,0,0,0,0,0,0,
0,0,0,0,0,0,0,0,0,0,0,0,0,0,0,0,
0,0,0,0,0,0,0,0,0,0,0,0,0,0,0,0,
0,0,0,0,0,0,0,0,0,0,0,0,0,0,0,0,
0,0,0,0,0,0,0,0,0,0,0,0,0,0,0,0,
0,0,0,0,0,0,0,0,0,0,0,0,0,0,0,0,
0,0,0,0,0,0,0,0,0,0,0,0,0,0,0,0,
0,0,0,0,0,0,0,0,0,0,0,0,0,0,0,0,
0,0,0,0,0,0,0,0,0,0,0,0,0,0,0,0,
0,0,0,0,0,0,0,0,0,0,0,0,0,0,0,0,
0,0,0,0,0,0,0,0,0,0,0,0,0,0,0,0,
0,0,0,0,0,0,0,0,0,0,0,0,0,0,0,0,
0,0,0,0,0,0,0,0,0,0,0,0,0,0,0,0,
0,0,0,0,0,0,0,0,0,0,0,7587,7587,7587,7587,7587,
0,0,0,0,0,0,0,0,0,0,0,7587,7587,7587,7587,7587
</chunk>
   <chunk x="-32" y="32" width="16" height="16">
0,0,0,0,0,0,0,0,0,0,0,0,0,0,0,0,
0,0,0,0,0,0,0,0,0,0,0,0,0,0,0,0,
0,0,0,0,0,0,0,0,0,0,0,0,0,0,0,0,
0,0,0,0,0,0,0,0,0,0,0,0,0,0,0,0,
0,0,0,0,0,0,0,0,0,0,0,0,0,0,0,0,
0,0,0,0,0,0,0,0,0,0,0,0,0,0,0,0,
0,0,0,0,0,0,0,0,0,0,0,0,0,0,0,0,
0,0,0,0,0,0,0,0,0,0,0,0,0,0,0,0,
0,0,0,0,0,0,0,0,0,0,0,0,0,0,0,0,
0,0,0,0,0,0,0,0,0,0,0,0,0,0,0,0,
0,0,0,0,0,0,0,0,0,0,0,0,0,0,0,0,
0,0,0,0,0,0,0,0,0,0,0,0,0,0,0,0,
0,0,0,0,0,0,0,0,0,0,0,0,0,0,0,0,
0,0,0,0,0,0,0,0,0,0,0,0,0,0,0,0,
7587,7587,7587,7587,7587,0,0,0,0,0,0,0,0,0,0,0,
7587,7587,7587,7587,7587,0,0,0,0,0,0,0,0,0,0,0
</chunk>
   <chunk x="-16" y="32" width="16" height="16">
0,0,0,0,0,0,0,0,0,0,0,0,0,0,0,0,
0,0,0,0,0,0,0,0,0,0,0,0,0,0,0,0,
0,0,0,0,0,0,0,0,0,0,0,0,0,0,0,0,
0,0,0,0,0,0,0,0,0,0,0,0,0,0,0,0,
0,0,0,0,0,0,0,0,0,0,0,0,0,0,0,0,
0,0,0,0,0,0,0,0,0,0,0,0,0,0,0,0,
0,0,0,0,0,0,0,0,0,0,0,0,0,0,0,0,
0,0,0,0,0,0,0,0,0,0,0,0,0,0,0,0,
0,0,0,0,0,0,0,0,0,0,0,0,0,0,0,0,
0,0,0,0,0,0,0,0,0,0,0,0,0,0,0,0,
0,0,0,0,0,0,0,0,0,0,0,0,0,0,0,0,
0,0,0,0,0,0,0,0,0,0,0,0,0,0,0,0,
0,0,0,0,0,0,0,0,0,0,0,0,0,0,0,0,
0,0,0,0,0,0,0,0,0,0,0,0,0,0,0,0,
0,0,0,7587,7587,7587,7587,7587,7587,7587,7587,7587,7587,7587,7587,7587,
0,0,0,7587,7587,7587,7587,7587,7587,7587,7587,7587,7587,7587,7587,7587
</chunk>
   <chunk x="0" y="32" width="16" height="16">
0,0,0,7587,7587,7587,7587,7587,7587,7587,7587,7587,7587,7587,7587,7587,
0,0,0,7587,7587,7587,7587,7587,7587,7587,7587,7587,7587,7587,7587,7587,
0,0,0,7587,7587,7587,7587,7587,7587,7587,7587,7587,7587,7587,7587,7587,
0,0,0,7587,7587,7587,7587,7587,7587,7587,7587,7587,7587,7587,7587,7587,
0,0,0,7587,7587,7587,7587,7587,7587,7587,7587,7587,7587,7587,7587,7587,
0,0,0,7587,7587,7587,7587,7587,7587,7587,7587,7587,7587,7587,7587,7587,
0,0,0,7587,7587,7587,7587,7587,7587,7587,7587,7587,7587,7587,7587,7587,
0,0,0,7587,7587,7587,7587,7587,7587,7587,7587,7587,7587,7587,7587,7587,
0,0,0,7587,7587,7587,7587,7587,7587,7587,7587,7587,7587,7587,7587,7587,
0,0,0,7587,7587,7587,7587,7587,7587,7587,7587,7587,7587,7587,7587,7587,
0,0,0,7587,7587,7587,7587,7587,7587,7587,7587,7587,7587,7587,7587,7587,
0,0,0,7587,7587,7587,7587,7587,7587,7587,7587,7587,7587,7587,7587,7587,
0,0,0,7587,7587,7587,7587,7587,7587,7587,7587,7587,7587,7587,7587,7587,
0,0,0,7587,7587,7587,7587,7587,7587,7587,7587,7587,7587,7587,7587,7587,
7587,7587,7587,7587,7587,7587,7587,7587,7587,7587,7587,7587,7587,7587,7587,7587,
7587,7587,7587,7587,7587,7587,7587,7587,7587,7587,7587,7587,7587,7587,7587,7587
</chunk>
   <chunk x="16" y="32" width="16" height="16">
7587,7587,7587,7587,7587,7587,7587,7587,7587,7587,7587,7587,7587,7587,7587,7587,
7587,7587,7587,7587,7587,7587,7587,7587,7587,7587,7587,7587,7587,7587,7587,7587,
7587,7587,7587,7587,7587,7587,7587,7587,7587,7587,7587,7587,7587,7587,7587,7587,
7587,7587,7587,7587,7587,7587,7587,7587,7587,7587,7587,7587,7587,7587,7587,7587,
7587,7587,7587,7587,7587,7587,7587,7587,7587,7587,7587,7587,7587,7587,7587,7587,
7587,7587,7587,7587,7587,7587,7587,7587,7587,7587,7587,7587,7587,7587,7587,7587,
7587,7587,7587,7587,7587,7587,7587,7587,7587,7587,7587,7587,7587,7587,7587,7587,
7587,7587,7587,7587,7587,7587,7587,7587,7587,7587,7587,7587,7587,7587,7587,7587,
7587,7587,7587,7587,7587,7587,7587,7587,7587,7587,7587,7587,7587,7587,7587,7587,
7587,7587,7587,7587,7587,7587,7587,7587,7587,7587,7587,7587,7587,7587,7587,7587,
7587,7587,7587,7587,7587,7587,7587,7587,7587,7587,7587,7587,7587,7587,7587,7587,
7587,7587,7587,7587,7587,7587,7587,7587,7587,7587,7587,7587,7587,7587,7587,7587,
7587,7587,7587,7587,7587,7587,7587,7587,7587,7587,7587,7587,7587,7587,0,0,
7587,7587,7587,7587,7587,7587,7587,7587,7587,7587,7587,7587,7587,7587,0,0,
7587,7587,7587,7587,7587,7587,7587,7587,7587,7587,7587,7587,7587,7587,0,0,
7587,7587,7587,7587,7587,7587,7587,7587,7587,7587,7587,7587,7587,7587,0,0
</chunk>
   <chunk x="32" y="32" width="16" height="16">
7587,7587,7587,7587,7587,7587,7587,7587,7587,7587,7587,7587,7587,7587,7587,7587,
7587,7587,7587,7587,7587,7587,7587,7587,7587,7587,7587,7587,7587,7587,7587,7587,
7587,7587,7587,7587,7587,7587,7587,7587,7587,7587,7587,7587,7587,7587,7587,7587,
7587,7587,7587,7587,7587,7587,7587,7587,7587,7587,7587,7587,7587,7587,7587,7587,
7587,7587,7587,7587,7587,7587,7587,7587,7587,7587,7587,7587,7587,7587,7587,7587,
7587,7587,7587,7587,7587,7587,7587,7587,7587,7587,7587,7587,7587,7587,7587,7587,
7587,7587,7587,7587,7587,7587,7587,7587,7587,7587,7587,7587,7587,7587,7587,7587,
7587,7587,7587,7587,7587,7587,7587,7587,7587,7587,7587,7587,7587,7587,7587,7587,
7587,7587,7587,7587,7587,7587,7587,7587,7587,7587,7587,7587,7587,7587,7587,7587,
7587,7587,7587,7587,7587,7587,7587,7587,7587,7587,7587,7587,7587,7587,7587,7587,
7587,7587,7587,7587,7587,7587,7587,7587,7587,7587,7587,7587,7587,7587,7587,7587,
7587,7587,7587,7587,7587,7587,7587,7587,7587,7587,7587,7587,7587,7587,7587,7587,
0,0,0,0,0,0,0,0,0,0,0,0,7587,7587,7587,7587,
0,0,0,0,0,0,0,0,0,0,0,0,7587,7587,7587,7587,
0,0,0,0,0,0,0,0,0,0,0,0,7587,7587,7587,7587,
0,0,0,0,0,0,0,0,0,0,0,0,7587,7587,7587,7587
</chunk>
   <chunk x="48" y="32" width="16" height="16">
7587,7587,7587,7587,7587,7587,7587,7587,7587,7587,7587,7587,7587,7587,7587,0,
7587,7587,7587,7587,7587,7587,7587,7587,7587,7587,7587,7587,7587,7587,7587,0,
7587,7587,7587,7587,7587,7587,7587,7587,7587,7587,7587,7587,7587,7587,7587,0,
7587,7587,7587,7587,7587,7587,7587,7587,7587,7587,7587,7587,7587,7587,7587,0,
7587,7587,7587,7587,7587,7587,7587,7587,7587,7587,7587,7587,7587,7587,7587,0,
7587,7587,7587,7587,7587,7587,7587,7587,7587,7587,7587,7587,7587,7587,7587,0,
7587,7587,7587,7587,7587,7587,7587,7587,7587,7587,7587,7587,7587,7587,7587,0,
7587,7587,7587,7587,7587,7587,7587,7587,7587,7587,7587,7587,7587,7587,7587,0,
7587,7587,7587,7587,7587,7587,7587,7587,7587,7587,7587,7587,7587,7587,7587,0,
7587,7587,7587,7587,7587,7587,7587,7587,7587,7587,7587,7587,7587,7587,7587,7587,
7587,7587,7587,7587,7587,7587,7587,7587,7587,7587,7587,7587,7587,7587,7587,7587,
7587,7587,7587,7587,7587,7587,7587,7587,7587,7587,7587,7587,7587,7587,7587,7587,
7587,7587,7587,7587,7587,7587,7587,7587,7587,7587,7587,7587,7587,7587,7587,7587,
7587,7587,7587,7587,7587,7587,7587,7587,7587,7587,7587,7587,7587,7587,7587,7587,
7587,7587,7587,7587,7587,7587,7587,7587,7587,7587,7587,7587,7587,7587,7587,7587,
7587,7587,7587,7587,7587,7587,7587,7587,7587,7587,7587,7587,7587,7587,7587,7587
</chunk>
   <chunk x="64" y="32" width="16" height="16">
0,0,0,0,0,0,0,0,0,0,0,0,0,0,0,0,
0,0,0,0,0,0,0,0,0,0,0,0,0,0,0,0,
0,0,0,0,0,0,0,0,0,0,0,0,0,0,0,0,
0,0,0,0,0,0,0,0,0,0,0,0,0,0,0,0,
0,0,0,0,0,0,0,0,0,0,0,0,0,0,0,0,
0,0,0,0,0,0,0,0,0,0,0,0,0,0,0,0,
0,0,0,0,0,0,0,0,0,0,0,0,0,0,0,0,
0,0,0,0,0,0,0,0,0,0,0,0,0,0,0,0,
0,0,0,0,0,0,0,0,0,0,0,0,0,0,0,0,
7587,7587,7587,7587,0,0,0,0,0,0,0,0,0,0,0,0,
7587,7587,7587,7587,0,0,0,0,0,0,0,0,0,0,0,0,
7587,7587,7587,7587,0,0,0,0,0,0,0,0,0,0,0,0,
7587,7587,7587,7587,0,0,0,0,0,0,0,0,0,0,0,0,
7587,7587,7587,7587,0,0,0,0,0,0,0,0,0,0,0,0,
7587,7587,7587,7587,0,0,0,0,0,0,0,0,0,0,0,0,
7587,7587,7587,7587,0,0,0,0,0,0,0,0,0,0,0,0
</chunk>
   <chunk x="-96" y="48" width="16" height="16">
0,0,0,0,0,0,0,0,0,0,0,7587,7587,7587,7587,7587,
0,0,0,0,0,0,0,0,0,0,0,7587,7587,7587,7587,7587,
0,0,0,0,0,0,0,0,0,0,0,7587,7587,7587,7587,7587,
0,0,0,0,0,0,0,0,0,0,0,7587,7587,7587,7587,7587,
0,0,0,0,0,0,0,0,0,0,0,7587,7587,7587,7587,7587,
0,0,0,0,0,0,0,0,0,0,0,7587,7587,7587,7587,7587,
0,0,0,0,0,0,0,0,0,0,0,7587,7587,7587,7587,7587,
0,0,0,0,0,0,0,0,0,0,0,7587,7587,7587,7587,7587,
0,0,0,0,0,0,0,0,0,0,0,7587,7587,7587,7587,7587,
0,0,0,0,0,0,0,0,0,0,0,7587,7587,7587,7587,7587,
0,0,0,0,0,0,0,0,0,0,0,7587,7587,7587,7587,7587,
0,0,0,0,0,0,0,0,0,0,0,7587,7587,7587,7587,7587,
0,0,0,0,0,0,0,0,0,0,0,7587,7587,7587,7587,7587,
0,0,0,0,0,0,0,0,0,0,0,7587,7587,7587,7587,7587,
0,0,0,0,0,0,0,0,0,0,0,7587,7587,7587,7587,7587,
0,0,0,0,0,0,0,0,0,0,0,7587,7587,7587,7587,7587
</chunk>
   <chunk x="-80" y="48" width="16" height="16">
7587,7587,7587,7587,7587,7587,0,0,0,0,0,0,0,0,0,0,
7587,7587,7587,7587,7587,7587,0,0,0,0,0,0,0,0,0,0,
7587,7587,7587,7587,7587,7587,0,0,0,0,0,0,0,0,0,0,
7587,7587,7587,7587,7587,7587,0,0,0,0,0,0,0,0,0,0,
7587,7587,7587,7587,7587,7587,0,0,0,0,0,0,0,0,0,0,
7587,7587,7587,7587,7587,7587,0,0,0,0,0,0,0,0,0,0,
7587,7587,7587,7587,7587,7587,0,0,0,0,0,0,0,0,0,0,
7587,7587,7587,7587,7587,7587,0,0,0,0,0,0,0,0,0,0,
7587,7587,7587,7587,7587,7587,0,0,0,0,0,0,0,0,0,0,
7587,7587,7587,7587,7587,7587,0,0,0,0,0,0,0,0,0,0,
7587,7587,7587,7587,7587,7587,0,0,0,0,0,0,0,0,0,0,
7587,7587,7587,7587,7587,7587,0,0,0,0,0,0,0,0,0,0,
7587,7587,7587,7587,7587,7587,0,0,0,0,0,0,0,0,0,0,
7587,7587,7587,7587,7587,7587,0,0,0,0,0,0,0,0,0,0,
7587,7587,7587,7587,7587,7587,0,0,0,0,0,0,0,0,0,0,
7587,7587,7587,7587,7587,7587,0,0,0,0,0,0,0,0,0,0
</chunk>
   <chunk x="-64" y="48" width="16" height="16">
0,0,0,0,0,0,0,0,0,0,0,0,0,0,0,0,
0,0,0,0,0,0,0,0,0,0,0,0,0,0,0,0,
0,0,0,0,0,0,0,0,0,0,0,0,0,0,0,0,
0,0,0,0,0,0,0,0,0,0,0,0,0,0,0,0,
0,0,0,0,0,0,7587,7587,7587,7587,7587,7587,7587,7587,7587,7587,
0,0,0,0,0,0,7587,7587,7587,7587,7587,7587,7587,7587,7587,7587,
0,0,0,0,0,0,7587,7587,7587,7587,7587,7587,7587,7587,7587,7587,
0,0,0,0,0,0,7587,7587,7587,7587,7587,7587,7587,7587,7587,7587,
0,0,0,0,0,0,7587,7587,7587,7587,7587,7587,7587,7587,7587,7587,
0,0,0,0,0,0,7587,7587,7587,7587,7587,7587,7587,7587,7587,7587,
0,0,0,0,0,0,7587,7587,7587,7587,7587,7587,7587,7587,7587,7587,
0,0,0,0,0,0,7587,7587,7587,7587,7587,7587,7587,7587,7587,7587,
0,0,0,0,0,0,7587,7587,7587,7587,7587,7587,7587,7587,7587,7587,
0,0,0,0,0,0,0,0,0,0,0,7587,7587,7587,7587,7587,
0,0,0,0,0,0,0,0,0,0,0,7587,7587,7587,7587,7587,
0,0,0,0,0,0,0,0,0,0,0,7587,7587,7587,7587,7587
</chunk>
   <chunk x="-48" y="48" width="16" height="16">
0,0,0,0,0,0,0,0,0,0,0,7587,7587,7587,7587,7587,
0,0,0,0,0,0,0,0,0,0,0,7587,7587,7587,7587,7587,
0,0,0,0,0,0,0,0,0,0,0,7587,7587,7587,7587,7587,
0,0,0,0,0,0,0,0,0,0,0,7587,7587,7587,7587,7587,
7587,7587,7587,7587,7587,7587,7587,7587,7587,7587,7587,7587,7587,7587,7587,7587,
7587,7587,7587,7587,7587,7587,7587,7587,7587,7587,7587,7587,7587,7587,7587,7587,
7587,7587,7587,7587,7587,7587,7587,7587,7587,7587,7587,7587,7587,7587,7587,7587,
7587,7587,7587,7587,7587,7587,7587,7587,7587,7587,7587,7587,7587,7587,7587,7587,
7587,7587,7587,7587,7587,7587,7587,7587,7587,7587,7587,7587,7587,7587,7587,7587,
7587,7587,7587,7587,7587,7587,7587,7587,7587,7587,7587,7587,7587,7587,7587,7587,
7587,7587,7587,7587,7587,7587,7587,7587,7587,7587,7587,7587,7587,7587,7587,7587,
7587,7587,7587,7587,7587,7587,7587,7587,7587,7587,7587,7587,7587,7587,7587,7587,
7587,7587,7587,7587,7587,7587,7587,7587,7587,7587,7587,7587,7587,7587,7587,0,
7587,7587,7587,7587,7587,7587,7587,7587,7587,7587,7587,7587,7587,7587,7587,0,
7587,7587,7587,7587,7587,7587,7587,7587,7587,7587,7587,7587,7587,7587,7587,0,
7587,7587,7587,7587,7587,7587,7587,7587,7587,7587,7587,7587,7587,7587,7587,0
</chunk>
   <chunk x="-32" y="48" width="16" height="16">
7587,7587,7587,7587,7587,0,0,0,0,0,0,0,0,0,0,0,
7587,7587,7587,7587,7587,0,0,0,0,0,0,0,0,0,0,0,
7587,7587,7587,7587,7587,0,0,0,0,0,0,0,0,0,0,0,
7587,7587,7587,7587,7587,7587,7587,7587,7587,7587,7587,7587,7587,7587,7587,7587,
7587,7587,7587,7587,7587,7587,7587,7587,7587,7587,7587,7587,7587,7587,7587,7587,
7587,7587,7587,7587,7587,7587,7587,7587,7587,7587,7587,7587,7587,7587,7587,7587,
7587,7587,7587,7587,7587,7587,7587,7587,7587,7587,7587,7587,7587,7587,7587,7587,
7587,7587,7587,7587,7587,7587,7587,7587,7587,7587,7587,7587,7587,7587,7587,7587,
7587,7587,7587,7587,7587,7587,7587,7587,7587,7587,7587,7587,7587,7587,7587,7587,
7587,7587,7587,7587,7587,7587,7587,7587,7587,7587,7587,7587,7587,7587,7587,7587,
7587,7587,7587,7587,7587,7587,7587,7587,7587,7587,7587,7587,7587,7587,7587,7587,
7587,7587,7587,7587,7587,7587,7587,7587,7587,7587,7587,7587,7587,7587,7587,7587,
0,0,0,0,0,0,0,0,0,7587,7587,7587,7587,7587,7587,7587,
0,0,0,0,0,0,0,0,0,7587,7587,7587,7587,7587,7587,7587,
0,0,0,0,0,0,0,0,0,7587,7587,7587,7587,7587,7587,7587,
0,0,0,0,0,0,0,0,0,7587,7587,7587,7587,7587,7587,7587
</chunk>
   <chunk x="-16" y="48" width="16" height="16">
0,0,0,7587,7587,7587,7587,7587,7587,7587,7587,7587,7587,7587,7587,7587,
0,0,0,7587,7587,7587,7587,7587,7587,7587,7587,7587,7587,7587,7587,7587,
0,0,0,7587,7587,7587,7587,7587,7587,7587,7587,7587,7587,7587,7587,7587,
7587,7587,7587,7587,7587,7587,7587,7587,7587,7587,7587,7587,7587,7587,7587,7587,
7587,7587,7587,7587,7587,7587,7587,7587,7587,7587,7587,7587,7587,7587,7587,7587,
7587,7587,7587,7587,7587,7587,7587,7587,7587,7587,7587,7587,7587,7587,7587,7587,
7587,7587,7587,7587,7587,7587,7587,7587,7587,7587,7587,7587,7587,7587,7587,7587,
7587,7587,7587,7587,7587,7587,7587,7587,7587,7587,7587,7587,7587,7587,7587,7587,
7587,7587,7587,7587,7587,7587,7587,7587,7587,7587,7587,7587,7587,7587,7587,7587,
7587,7587,7587,7587,7587,7587,7587,7587,7587,7587,7587,7587,7587,7587,7587,7587,
7587,7587,7587,7587,7587,7587,7587,7587,7587,7587,7587,7587,7587,7587,7587,7587,
7587,7587,7587,7587,7587,7587,7587,7587,7587,7587,7587,7587,7587,7587,7587,7587,
7587,7587,7587,7587,7587,7587,7587,7587,7587,7587,7587,7587,7587,7587,7587,7587,
7587,7587,7587,7587,7587,7587,7587,0,0,0,0,0,0,0,0,0,
7587,7587,7587,7587,7587,7587,7587,0,0,0,0,0,0,0,0,0,
7587,7587,7587,7587,7587,7587,7587,0,0,0,0,0,0,0,0,0
</chunk>
   <chunk x="0" y="48" width="16" height="16">
7587,7587,7587,7587,7587,7587,7587,7587,7587,7587,7587,7587,7587,7587,7587,7587,
7587,7587,7587,7587,7587,7587,7587,7587,7587,7587,7587,7587,7587,7587,7587,7587,
7587,7587,7587,7587,7587,7587,7587,7587,7587,7587,7587,7587,7587,7587,7587,7587,
7587,7587,7587,7587,7587,7587,7587,7587,7587,7587,7587,7587,7587,7587,7587,7587,
7587,7587,7587,7587,7587,7587,7587,7587,7587,7587,7587,7587,7587,7587,7587,7587,
7587,7587,7587,7587,7587,0,0,0,0,0,0,0,0,0,0,0,
7587,7587,7587,7587,7587,0,0,0,0,0,0,0,0,0,0,0,
7587,7587,7587,7587,7587,0,0,0,0,0,0,0,0,0,0,0,
7587,7587,7587,7587,7587,0,0,0,0,0,0,0,0,0,0,0,
7587,7587,7587,7587,7587,0,0,0,0,0,0,0,0,0,0,0,
7587,7587,7587,7587,7587,0,0,0,0,0,0,0,0,0,0,0,
7587,7587,7587,7587,7587,0,0,0,0,0,0,0,0,0,0,0,
7587,7587,7587,7587,7587,0,0,0,0,0,0,0,0,0,0,0,
0,0,0,0,0,0,0,0,0,0,0,0,0,0,0,0,
0,0,0,0,0,0,0,0,0,0,0,0,0,0,0,0,
0,0,0,0,0,0,0,0,0,0,0,0,0,0,0,0
</chunk>
   <chunk x="16" y="48" width="16" height="16">
7587,7587,7587,7587,7587,7587,7587,7587,7587,7587,7587,7587,7587,7587,0,0,
7587,7587,7587,7587,7587,7587,7587,7587,7587,7587,7587,7587,7587,7587,0,0,
7587,7587,7587,7587,7587,7587,7587,7587,7587,7587,7587,7587,7587,7587,0,0,
7587,7587,7587,7587,7587,7587,7587,7587,7587,7587,7587,7587,7587,7587,0,0,
7587,7587,7587,7587,7587,7587,7587,7587,7587,7587,7587,7587,7587,7587,0,0,
0,0,0,0,0,0,0,0,0,0,0,0,0,0,0,0,
0,0,0,0,0,0,0,0,0,0,0,0,0,0,0,0,
0,0,0,0,0,0,0,0,0,0,0,0,0,0,0,0,
0,0,0,0,0,0,0,0,0,0,0,0,0,0,0,0,
0,0,0,0,0,0,0,0,0,0,0,0,0,0,0,0,
0,0,0,0,0,0,0,0,0,0,0,0,0,0,0,0,
0,0,0,0,0,0,0,0,0,0,0,0,0,0,0,0,
0,0,0,0,0,0,0,0,0,0,0,0,0,0,0,0,
0,0,0,0,0,0,0,0,0,0,0,0,0,0,0,0,
0,0,0,0,0,0,0,0,0,0,0,0,0,7587,7587,7587,
0,0,0,0,0,0,0,0,0,0,0,0,7587,7587,7587,7587
</chunk>
   <chunk x="32" y="48" width="16" height="16">
0,0,0,0,0,0,0,0,0,0,0,0,7587,7587,7587,7587,
0,0,0,0,0,0,0,0,0,0,0,0,7587,7587,7587,7587,
0,0,0,0,0,0,0,0,0,0,0,0,7587,7587,7587,7587,
0,0,0,0,0,0,0,0,0,0,0,0,7587,7587,7587,7587,
0,0,0,0,0,0,0,0,0,0,0,0,0,0,0,0,
0,0,0,0,0,0,0,0,0,0,0,0,0,0,0,0,
0,0,0,0,0,0,0,0,0,0,0,0,0,0,0,0,
0,0,0,0,0,0,0,0,0,0,0,0,0,0,0,0,
0,0,0,0,0,0,0,0,0,0,0,0,0,0,0,0,
0,0,0,0,0,0,0,0,0,0,0,0,0,0,0,0,
0,0,0,0,0,0,0,0,0,0,0,0,0,0,0,0,
0,0,0,0,0,0,0,0,0,0,0,0,0,0,0,0,
0,0,0,0,0,0,0,0,0,0,0,0,0,0,0,0,
0,0,0,0,0,0,0,0,0,0,0,0,0,0,0,0,
7587,7587,7587,7587,0,0,0,0,0,0,0,0,0,0,0,0,
7587,7587,7587,7587,0,0,0,0,0,0,0,0,0,0,0,0
</chunk>
   <chunk x="48" y="48" width="16" height="16">
7587,7587,7587,7587,7587,7587,7587,7587,7587,7587,7587,7587,7587,7587,7587,7587,
7587,7587,7587,7587,7587,7587,7587,7587,7587,7587,7587,7587,7587,7587,7587,7587,
7587,7587,7587,7587,7587,7587,7587,7587,7587,7587,7587,7587,7587,7587,7587,7587,
7587,7587,7587,7587,7587,7587,7587,7587,7587,7587,7587,7587,7587,7587,7587,7587,
0,0,0,0,0,0,0,0,0,0,0,7587,7587,7587,7587,7587,
0,0,0,0,0,0,0,0,0,0,0,7587,7587,7587,7587,7587,
0,0,0,0,0,0,0,0,0,0,0,7587,7587,7587,7587,7587,
0,0,0,0,0,0,0,0,0,0,0,7587,7587,7587,7587,7587,
0,0,0,0,0,0,0,0,0,0,0,7587,7587,7587,7587,7587,
0,0,0,0,0,0,0,0,0,0,0,7587,7587,7587,7587,7587,
0,0,0,0,0,0,0,0,0,0,0,7587,7587,7587,7587,7587,
0,0,0,0,0,0,0,0,0,0,0,7587,7587,7587,7587,7587,
0,0,0,0,0,0,0,0,0,0,0,7587,7587,7587,7587,7587,
0,0,0,0,0,0,0,0,0,0,0,7587,7587,7587,7587,7587,
0,0,0,0,0,0,0,0,0,0,0,7587,7587,7587,7587,7587,
0,0,0,0,0,0,0,0,0,0,0,7587,7587,7587,7587,7587
</chunk>
   <chunk x="64" y="48" width="16" height="16">
7587,7587,7587,7587,0,0,0,0,0,0,0,0,0,0,0,0,
7587,7587,7587,7587,0,0,0,0,0,0,0,0,0,0,0,0,
7587,7587,7587,7587,0,0,0,0,0,0,0,0,0,0,0,0,
7587,7587,7587,7587,0,0,0,0,0,0,0,0,0,0,0,0,
7587,7587,7587,7587,0,0,0,0,0,0,0,0,0,0,0,0,
7587,7587,7587,7587,0,0,0,0,0,0,0,0,0,0,0,0,
7587,7587,7587,7587,0,0,0,0,0,0,0,0,0,0,0,0,
7587,7587,7587,7587,0,0,0,0,0,0,0,0,0,0,0,0,
7587,7587,7587,7587,0,0,0,0,0,0,0,0,0,0,0,0,
7587,7587,7587,7587,0,0,0,0,0,0,0,0,0,0,0,0,
7587,7587,7587,7587,0,0,0,0,0,0,0,0,0,0,0,0,
7587,7587,7587,7587,0,0,0,0,0,0,0,0,0,0,0,0,
7587,7587,7587,7587,0,0,0,0,0,0,0,0,0,0,0,0,
7587,7587,7587,7587,0,0,0,0,0,0,0,0,0,0,0,0,
7587,7587,7587,7587,0,0,0,0,0,0,0,0,0,0,0,0,
7587,7587,7587,7587,0,0,0,0,0,0,0,0,0,0,0,0
</chunk>
   <chunk x="-96" y="64" width="16" height="16">
0,0,0,0,0,0,0,0,0,0,0,7587,7587,7587,7587,7587,
0,0,0,0,0,0,0,0,0,0,0,7587,7587,7587,7587,7587,
0,0,0,0,0,0,0,0,0,0,0,7587,7587,7587,7587,7587,
0,0,0,0,0,0,0,0,0,0,0,7587,7587,7587,7587,7587,
0,0,0,0,0,0,0,0,0,0,0,7587,7587,7587,7587,7587,
0,0,0,0,0,0,0,0,0,0,0,7587,7587,7587,7587,7587,
0,0,0,0,0,0,0,0,0,0,0,7587,7587,7587,7587,7587,
0,0,0,0,0,0,0,0,0,0,0,7587,7587,7587,7587,7587,
0,0,0,0,0,0,0,0,0,0,0,7587,7587,7587,7587,7587,
0,0,0,0,0,0,0,0,0,0,0,7587,7587,7587,7587,7587,
0,0,0,0,0,0,0,0,0,0,0,7587,7587,7587,7587,7587,
0,0,0,0,0,0,0,0,0,0,0,7587,7587,7587,7587,7587,
0,0,0,0,0,0,0,0,0,0,0,7587,7587,7587,7587,7587,
0,0,0,0,0,0,0,0,0,0,0,7587,7587,7587,7587,7587,
0,0,0,0,0,0,0,0,0,0,0,7587,7587,7587,7587,7587,
0,0,0,0,0,0,0,0,0,0,0,7587,7587,7587,7587,7587
</chunk>
   <chunk x="-80" y="64" width="16" height="16">
7587,7587,7587,7587,7587,7587,0,0,0,0,0,0,0,0,0,0,
7587,7587,7587,7587,7587,7587,0,0,0,0,0,0,0,0,0,0,
7587,7587,7587,7587,7587,7587,0,0,0,0,0,0,0,0,0,0,
7587,7587,7587,7587,7587,7587,0,0,0,0,0,0,0,0,0,0,
7587,7587,7587,7587,7587,7587,0,0,0,0,0,0,0,0,0,0,
7587,7587,7587,7587,7587,7587,0,0,0,0,0,0,0,0,0,0,
7587,7587,7587,7587,7587,7587,0,0,0,0,0,0,0,0,0,0,
7587,7587,7587,7587,7587,7587,0,0,0,0,0,0,0,0,0,0,
7587,7587,7587,7587,7587,7587,0,0,0,0,0,0,0,0,0,0,
7587,7587,7587,7587,7587,7587,0,0,0,0,0,0,0,0,0,0,
7587,7587,7587,7587,7587,7587,0,0,0,0,0,0,0,0,0,0,
7587,7587,7587,7587,7587,7587,0,0,0,0,0,0,0,0,0,0,
7587,7587,7587,7587,7587,7587,0,0,0,0,0,0,0,0,0,0,
7587,7587,7587,7587,7587,7587,0,0,0,0,0,0,0,0,0,0,
7587,7587,7587,7587,7587,7587,0,0,0,0,0,0,0,0,0,0,
7587,7587,7587,7587,7587,7587,0,0,0,0,0,0,0,0,0,0
</chunk>
   <chunk x="-64" y="64" width="16" height="16">
0,0,0,0,0,0,0,0,0,0,0,7587,7587,7587,7587,7587,
0,0,0,0,0,0,0,0,0,0,0,7587,7587,7587,7587,7587,
0,0,0,0,0,0,0,0,0,0,0,7587,7587,7587,7587,7587,
0,0,0,0,0,0,0,0,0,0,0,7587,7587,7587,7587,7587,
0,0,0,0,0,0,0,0,0,0,0,7587,7587,7587,7587,7587,
0,0,0,0,0,0,0,0,0,0,0,7587,7587,7587,7587,7587,
0,0,0,0,0,0,0,0,0,0,0,7587,7587,7587,7587,7587,
0,0,0,0,0,0,0,0,0,0,0,7587,7587,7587,7587,7587,
0,0,0,0,0,0,0,0,0,0,0,7587,7587,7587,7587,7587,
0,0,0,0,0,0,0,0,0,0,0,7587,7587,7587,7587,7587,
0,0,0,0,0,0,0,0,0,0,0,7587,7587,7587,7587,7587,
0,0,0,0,0,0,0,0,0,0,0,7587,7587,7587,7587,7587,
0,0,0,0,0,0,0,0,0,0,0,7587,7587,7587,7587,7587,
0,0,0,0,0,0,0,0,0,0,0,0,0,0,0,0,
0,0,0,0,0,0,0,0,0,0,0,0,0,0,0,0,
0,0,0,0,0,0,0,0,0,0,0,0,0,0,0,0
</chunk>
   <chunk x="-48" y="64" width="16" height="16">
7587,7587,7587,7587,7587,7587,7587,7587,7587,7587,7587,7587,7587,7587,7587,0,
7587,7587,7587,7587,7587,7587,7587,7587,7587,7587,7587,7587,7587,7587,7587,0,
7587,7587,7587,7587,7587,7587,7587,7587,7587,7587,7587,7587,7587,7587,7587,0,
7587,7587,7587,7587,7587,7587,7587,7587,7587,7587,7587,7587,0,0,0,0,
7587,7587,7587,7587,7587,7587,7587,7587,7587,7587,7587,7587,0,0,0,0,
7587,7587,7587,7587,7587,7587,7587,7587,7587,7587,7587,7587,0,0,0,0,
7587,7587,7587,7587,7587,7587,7587,7587,7587,7587,7587,7587,0,0,0,0,
7587,7587,7587,7587,7587,7587,7587,7587,7587,7587,0,0,0,0,0,0,
7587,7587,7587,7587,7587,7587,7587,7587,0,0,0,0,0,0,0,0,
7587,7587,7587,7587,7587,7587,7587,7587,0,0,0,0,0,0,0,0,
7587,7587,7587,7587,7587,7587,0,0,0,0,0,0,0,0,0,0,
7587,7587,7587,7587,7587,7587,0,0,0,0,0,0,0,0,0,0,
7587,7587,7587,7587,7587,7587,0,0,0,0,0,0,0,0,0,0,
0,0,0,0,0,0,0,0,0,0,0,0,0,0,0,0,
0,0,0,0,0,0,0,0,0,0,0,0,0,0,0,0,
0,0,0,0,0,0,0,0,0,0,0,0,0,0,0,0
</chunk>
   <chunk x="-32" y="64" width="16" height="16">
0,0,0,0,0,0,0,0,0,7587,7587,7587,7587,7587,7587,7587,
0,0,0,0,0,0,0,0,0,7587,7587,7587,7587,7587,7587,7587,
0,0,0,0,0,0,0,0,0,7587,7587,7587,7587,7587,7587,7587,
0,0,0,0,0,0,0,0,0,7587,7587,7587,7587,7587,7587,7587,
0,0,0,0,0,0,0,0,0,0,0,0,0,0,0,0,
0,0,0,0,0,0,0,0,0,0,0,0,0,0,0,0,
0,0,0,0,0,0,0,0,0,0,0,0,0,0,0,0,
0,0,0,0,0,0,0,0,0,0,0,0,0,0,0,0,
0,0,0,0,0,0,0,0,0,0,0,0,0,0,0,0,
0,0,0,0,0,0,0,0,0,0,0,0,0,0,0,0,
0,0,0,0,0,0,0,0,0,0,0,0,0,0,0,0,
0,0,0,0,0,0,0,0,0,0,0,7587,7587,7587,7587,7587,
0,0,0,0,0,0,0,7587,7587,7587,7587,7587,7587,7587,7587,7587,
0,0,0,0,0,0,0,7587,7587,7587,7587,7587,7587,7587,7587,7587,
0,0,0,0,7587,7587,7587,7587,7587,7587,7587,7587,7587,7587,7587,7587,
0,0,0,7587,7587,7587,7587,7587,7587,7587,7587,7587,7587,7587,7587,7587
</chunk>
   <chunk x="-16" y="64" width="16" height="16">
7587,7587,7587,7587,7587,7587,7587,0,0,0,0,0,0,0,0,0,
7587,7587,7587,7587,7587,7587,7587,0,0,0,0,0,0,0,0,0,
7587,7587,7587,7587,7587,7587,7587,0,0,0,0,0,0,0,0,0,
7587,7587,7587,7587,7587,7587,7587,0,0,0,0,0,0,0,0,0,
0,0,0,0,0,0,0,0,0,0,0,0,0,0,0,0,
0,0,0,0,0,0,0,0,0,0,0,0,0,0,0,0,
0,0,0,0,0,0,0,0,0,0,0,0,0,0,0,0,
0,0,0,0,0,0,0,0,0,0,0,0,0,0,0,0,
0,0,0,0,0,0,0,0,0,0,0,0,0,0,0,0,
0,0,0,0,0,0,0,0,0,0,0,0,0,0,0,0,
0,0,0,0,0,0,0,0,0,0,0,0,0,0,0,0,
7587,7587,7587,7587,7587,7587,0,0,0,0,0,0,0,0,0,0,
7587,7587,7587,7587,7587,7587,0,0,0,0,0,0,0,0,0,0,
7587,7587,7587,7587,7587,7587,0,0,0,0,0,0,0,0,0,0,
7587,7587,7587,7587,7587,7587,0,0,0,0,0,0,0,0,0,0,
7587,7587,7587,7587,7587,7587,0,0,0,0,0,0,0,0,0,0
</chunk>
   <chunk x="0" y="64" width="16" height="16">
0,0,0,0,0,0,0,0,0,0,0,0,0,0,0,0,
0,0,0,0,0,0,0,0,0,0,0,0,0,0,0,0,
0,0,0,0,0,0,0,0,0,0,0,0,0,0,0,0,
0,0,0,0,0,0,0,0,0,0,0,0,0,0,0,0,
0,0,0,0,0,0,0,0,0,0,0,0,0,0,0,0,
0,0,0,0,0,0,0,0,0,0,0,0,0,0,0,0,
0,0,0,0,0,0,0,0,0,0,0,0,0,0,0,0,
0,0,0,0,0,0,0,0,0,0,0,0,0,0,0,0,
0,0,0,0,0,0,0,0,0,0,0,0,0,0,0,0,
0,0,0,0,0,0,0,0,0,0,0,0,0,0,0,0,
0,0,0,0,0,0,0,0,0,0,0,0,0,0,0,0,
0,0,0,0,0,0,0,0,0,0,0,0,0,0,0,0,
0,0,0,0,0,0,0,0,0,0,0,0,0,0,0,0,
0,0,0,0,0,0,0,0,0,0,0,0,0,0,0,7587,
0,0,0,7587,7587,7587,7587,7587,7587,7587,7587,7587,7587,7587,7587,7587,
0,0,0,7587,7587,7587,7587,7587,7587,7587,7587,7587,7587,7587,7587,7587
</chunk>
   <chunk x="16" y="64" width="16" height="16">
0,0,0,0,0,0,0,0,0,0,0,7587,7587,7587,7587,7587,
0,0,0,0,0,0,0,0,0,0,0,7587,7587,7587,7587,7587,
0,0,0,0,0,0,0,0,0,0,0,7587,7587,7587,7587,7587,
0,0,0,0,0,0,0,0,0,0,7587,7587,7587,7587,7587,7587,
0,0,0,0,0,0,0,0,0,0,7587,7587,7587,7587,7587,7587,
0,0,0,0,0,0,0,0,0,0,0,0,7587,7587,7587,7587,
0,0,0,0,0,0,0,0,0,0,0,0,0,7587,7587,7587,
0,0,0,0,0,0,0,0,0,0,0,0,0,7587,7587,7587,
0,0,0,0,0,0,0,0,0,0,0,0,0,7587,7587,7587,
0,0,0,0,0,0,0,0,0,0,0,0,7587,7587,7587,7587,
0,0,0,0,0,0,0,0,0,0,0,7587,7587,7587,7587,7587,
0,0,0,0,0,0,0,0,0,0,0,7587,7587,7587,7587,7587,
0,0,0,0,0,0,0,0,0,7587,7587,7587,7587,7587,7587,7587,
7587,7587,7587,7587,7587,7587,7587,7587,7587,7587,7587,7587,7587,7587,7587,7587,
7587,7587,7587,7587,7587,7587,7587,7587,7587,7587,7587,7587,7587,7587,7587,7587,
7587,7587,7587,7587,7587,7587,7587,7587,7587,7587,7587,7587,7587,7587,7587,7587
</chunk>
   <chunk x="32" y="64" width="16" height="16">
7587,7587,7587,7587,0,0,0,0,0,0,0,0,0,0,0,0,
7587,7587,7587,7587,7587,0,0,0,0,0,0,0,0,0,0,0,
7587,7587,7587,7587,7587,7587,0,0,0,0,0,0,0,0,0,0,
7587,7587,7587,7587,7587,7587,7587,0,0,0,0,0,0,0,0,0,
7587,7587,7587,7587,7587,7587,7587,7587,0,0,0,0,0,0,0,0,
7587,7587,7587,7587,7587,7587,7587,7587,7587,0,0,0,0,0,0,0,
7587,7587,7587,7587,7587,7587,7587,7587,7587,7587,7587,7587,0,0,0,0,
7587,7587,7587,7587,7587,7587,7587,7587,7587,7587,7587,7587,0,0,0,0,
7587,7587,7587,7587,7587,7587,7587,7587,7587,7587,7587,7587,0,0,0,0,
7587,7587,7587,7587,7587,7587,7587,7587,7587,7587,7587,7587,7587,7587,0,0,
7587,7587,7587,7587,7587,7587,7587,7587,7587,7587,7587,7587,7587,7587,0,0,
7587,7587,7587,7587,7587,7587,7587,7587,7587,7587,7587,7587,7587,7587,0,0,
7587,7587,7587,7587,7587,7587,7587,7587,7587,7587,7587,7587,7587,7587,0,0,
7587,7587,7587,7587,7587,7587,7587,7587,7587,7587,7587,7587,7587,7587,0,0,
7587,7587,7587,7587,7587,7587,7587,7587,7587,7587,7587,7587,7587,7587,0,0,
7587,7587,7587,7587,7587,7587,7587,7587,7587,7587,7587,7587,7587,7587,0,0
</chunk>
   <chunk x="48" y="64" width="16" height="16">
0,0,0,0,0,0,0,0,0,0,0,7587,7587,7587,7587,7587,
0,0,0,0,0,0,0,0,0,0,0,7587,7587,7587,7587,7587,
0,0,0,0,0,0,0,0,0,0,0,7587,7587,7587,7587,7587,
0,0,0,0,0,0,0,0,0,0,0,7587,7587,7587,7587,7587,
0,0,0,0,0,0,0,0,0,0,0,7587,7587,7587,7587,7587,
0,0,0,0,0,0,0,0,0,0,0,7587,7587,7587,7587,7587,
0,0,0,0,0,0,0,0,0,0,0,7587,7587,7587,7587,7587,
0,0,0,0,0,0,0,0,0,0,0,7587,7587,7587,7587,7587,
0,0,0,0,0,0,0,0,0,0,0,7587,7587,7587,7587,7587,
0,0,0,0,0,0,0,0,0,0,0,7587,7587,7587,7587,7587,
0,0,0,0,0,0,0,0,0,0,0,7587,7587,7587,7587,7587,
0,0,0,0,0,0,0,0,0,0,0,7587,7587,7587,7587,7587,
0,0,0,0,0,0,0,0,0,0,0,7587,7587,7587,7587,7587,
0,0,0,0,0,0,0,0,0,0,0,7587,7587,7587,7587,7587,
0,0,0,0,0,0,0,0,0,0,0,7587,7587,7587,7587,7587,
0,0,0,0,0,0,0,0,0,0,0,7587,7587,7587,7587,7587
</chunk>
   <chunk x="64" y="64" width="16" height="16">
7587,7587,7587,7587,0,0,0,0,0,0,0,0,0,0,0,0,
7587,7587,7587,7587,0,0,0,0,0,0,0,0,0,0,0,0,
7587,7587,7587,7587,0,0,0,0,0,0,0,0,0,0,0,0,
7587,7587,7587,7587,0,0,0,0,0,0,0,0,0,0,0,0,
7587,7587,7587,7587,0,0,0,0,0,0,0,0,0,0,0,0,
7587,7587,7587,7587,0,0,0,0,0,0,0,0,0,0,0,0,
7587,7587,7587,7587,0,0,0,0,0,0,0,0,0,0,0,0,
7587,7587,7587,7587,0,0,0,0,0,0,0,0,0,0,0,0,
7587,7587,7587,7587,0,0,0,0,0,0,0,0,0,0,0,0,
7587,7587,7587,7587,0,0,0,0,0,0,0,0,0,0,0,0,
7587,7587,7587,7587,0,0,0,0,0,0,0,0,0,0,0,0,
7587,7587,7587,7587,0,0,0,0,0,0,0,0,0,0,0,0,
7587,7587,7587,7587,0,0,0,0,0,0,0,0,0,0,0,0,
7587,7587,7587,7587,0,0,0,0,0,0,0,0,0,0,0,0,
7587,7587,7587,7587,0,0,0,0,0,0,0,0,0,0,0,0,
7587,7587,7587,7587,0,0,0,0,0,0,0,0,0,0,0,0
</chunk>
   <chunk x="-96" y="80" width="16" height="16">
0,0,0,0,0,0,0,0,0,0,0,7587,7587,7587,7587,7587,
0,0,0,0,0,0,0,0,0,0,0,7587,7587,7587,7587,7587,
0,0,0,0,0,0,0,0,0,0,0,7587,7587,7587,7587,7587,
0,0,0,0,0,0,0,0,0,0,0,7587,7587,7587,7587,7587,
0,0,0,0,0,0,0,7587,7587,7587,7587,7587,7587,7587,7587,7587,
0,0,0,0,0,0,0,7587,7587,7587,7587,7587,7587,7587,7587,7587,
0,0,0,0,0,0,0,7587,7587,7587,7587,7587,7587,7587,7587,7587,
0,0,0,0,0,0,0,7587,7587,7587,7587,7587,7587,7587,7587,7587,
0,0,0,0,0,0,0,7587,7587,7587,7587,7587,7587,7587,7587,7587,
0,0,0,0,0,0,0,7587,7587,7587,7587,7587,7587,7587,7587,7587,
0,0,0,0,0,0,0,7587,7587,7587,7587,7587,7587,7587,7587,7587,
0,0,0,0,0,0,0,7587,7587,7587,7587,7587,7587,7587,7587,7587,
0,0,0,0,0,0,0,7587,7587,7587,7587,7587,7587,7587,7587,7587,
0,0,0,0,0,0,0,7587,7587,7587,7587,7587,7587,7587,7587,7587,
0,0,0,0,0,0,0,0,0,0,0,0,0,0,0,0,
0,0,0,0,0,0,0,0,0,0,0,0,0,0,0,0
</chunk>
   <chunk x="-80" y="80" width="16" height="16">
7587,7587,7587,7587,7587,7587,0,0,0,0,0,0,0,0,0,0,
7587,7587,7587,7587,7587,7587,0,0,0,0,0,0,0,0,0,0,
7587,7587,7587,7587,7587,7587,0,0,0,0,0,0,0,0,0,0,
7587,7587,7587,7587,7587,7587,0,0,0,0,0,0,0,0,0,0,
7587,7587,7587,7587,7587,7587,7587,7587,7587,7587,7587,7587,7587,7587,7587,7587,
7587,7587,7587,7587,7587,7587,7587,7587,7587,7587,7587,7587,7587,7587,7587,7587,
7587,7587,7587,7587,7587,7587,7587,7587,7587,7587,7587,7587,7587,7587,7587,7587,
7587,7587,7587,7587,7587,7587,7587,7587,7587,7587,7587,7587,7587,7587,7587,7587,
7587,7587,7587,7587,7587,7587,7587,7587,7587,7587,7587,7587,7587,7587,7587,7587,
7587,7587,7587,7587,7587,7587,7587,7587,7587,7587,7587,7587,7587,7587,7587,7587,
7587,7587,7587,7587,7587,7587,7587,7587,7587,7587,7587,7587,7587,7587,7587,7587,
7587,7587,7587,7587,7587,7587,7587,7587,7587,7587,7587,7587,7587,7587,7587,7587,
7587,7587,7587,7587,7587,7587,7587,7587,7587,7587,7587,7587,7587,7587,7587,7587,
7587,7587,7587,7587,7587,7587,7587,7587,7587,7587,7587,7587,7587,7587,7587,7587,
0,0,0,0,0,0,0,0,0,0,0,0,0,0,0,0,
0,0,0,0,0,0,0,0,0,0,0,0,0,0,0,0
</chunk>
   <chunk x="-64" y="80" width="16" height="16">
0,0,0,0,0,0,0,0,0,0,0,0,0,0,0,0,
0,0,0,0,0,0,0,0,0,0,7587,7587,7587,7587,7587,7587,
0,0,0,0,0,0,0,0,0,0,7587,7587,7587,7587,7587,7587,
0,0,0,0,0,0,0,0,0,0,7587,7587,7587,7587,7587,7587,
7587,7587,7587,7587,7587,7587,7587,7587,7587,7587,7587,7587,7587,7587,7587,7587,
7587,7587,7587,7587,7587,7587,7587,7587,7587,7587,7587,7587,7587,7587,7587,7587,
7587,7587,7587,7587,7587,7587,7587,7587,7587,7587,7587,7587,7587,7587,7587,7587,
7587,7587,7587,7587,7587,7587,7587,7587,7587,7587,7587,7587,7587,7587,7587,7587,
7587,7587,7587,7587,7587,7587,7587,7587,7587,7587,7587,7587,7587,7587,7587,7587,
7587,7587,7587,7587,7587,7587,7587,7587,7587,7587,7587,7587,7587,7587,7587,7587,
7587,7587,7587,7587,7587,7587,7587,7587,7587,7587,7587,7587,7587,7587,7587,7587,
7587,7587,7587,7587,7587,7587,7587,7587,7587,7587,7587,7587,7587,7587,7587,7587,
7587,7587,7587,7587,7587,7587,7587,7587,7587,7587,7587,7587,7587,7587,7587,7587,
7587,7587,7587,7587,7587,7587,7587,7587,7587,7587,7587,7587,7587,7587,7587,7587,
0,0,0,0,0,0,0,0,0,0,0,0,0,0,0,0,
0,0,0,0,0,0,0,0,0,0,0,0,0,0,0,0
</chunk>
   <chunk x="-48" y="80" width="16" height="16">
0,0,0,0,0,0,0,0,0,0,0,0,0,0,0,0,
7587,7587,7587,7587,7587,7587,7587,0,0,0,0,0,0,0,0,0,
7587,7587,7587,7587,7587,7587,7587,0,0,0,0,0,0,0,0,0,
7587,7587,7587,7587,7587,7587,7587,0,0,0,0,0,0,0,0,0,
7587,7587,7587,7587,7587,7587,7587,7587,7587,7587,7587,7587,7587,7587,7587,7587,
7587,7587,7587,7587,7587,7587,7587,7587,7587,7587,7587,7587,7587,7587,7587,7587,
7587,7587,7587,7587,7587,7587,7587,7587,7587,7587,7587,7587,7587,7587,7587,7587,
7587,7587,7587,7587,7587,7587,7587,7587,7587,7587,7587,7587,7587,7587,7587,7587,
7587,7587,7587,7587,7587,7587,7587,7587,7587,7587,7587,7587,7587,7587,7587,7587,
7587,7587,7587,7587,7587,7587,7587,7587,7587,7587,7587,7587,7587,7587,7587,7587,
7587,7587,7587,7587,7587,7587,7587,7587,7587,7587,7587,7587,7587,7587,7587,7587,
7587,7587,7587,7587,7587,7587,7587,7587,7587,7587,7587,7587,7587,7587,7587,7587,
7587,7587,7587,7587,7587,7587,7587,7587,7587,7587,7587,7587,7587,7587,7587,7587,
7587,7587,7587,7587,7587,7587,7587,7587,7587,7587,7587,7587,7587,7587,7587,7587,
0,0,0,0,0,0,0,0,0,0,0,0,0,0,0,0,
0,0,0,0,0,0,0,0,0,0,0,0,0,0,0,0
</chunk>
   <chunk x="-32" y="80" width="16" height="16">
0,0,0,7587,7587,7587,7587,7587,7587,7587,7587,7587,7587,7587,7587,7587,
0,0,0,7587,7587,7587,7587,7587,7587,7587,7587,7587,7587,7587,7587,7587,
0,0,0,7587,7587,7587,7587,7587,7587,7587,7587,7587,7587,7587,7587,7587,
0,0,0,7587,7587,7587,7587,7587,7587,7587,7587,7587,7587,7587,7587,7587,
7587,7587,7587,7587,7587,7587,7587,7587,7587,7587,7587,7587,7587,7587,7587,7587,
7587,7587,7587,7587,7587,7587,7587,7587,7587,7587,7587,7587,7587,7587,7587,7587,
7587,7587,7587,7587,7587,7587,7587,7587,7587,7587,7587,7587,7587,7587,7587,7587,
7587,7587,7587,7587,7587,7587,7587,7587,7587,7587,7587,7587,7587,7587,7587,7587,
7587,7587,7587,7587,7587,7587,7587,7587,7587,7587,7587,7587,7587,7587,7587,7587,
7587,7587,7587,7587,7587,7587,7587,7587,7587,7587,7587,7587,7587,7587,7587,7587,
7587,7587,7587,7587,7587,7587,7587,7587,7587,7587,7587,7587,7587,7587,7587,7587,
7587,7587,7587,7587,7587,7587,7587,7587,7587,7587,7587,7587,7587,7587,7587,7587,
7587,7587,7587,7587,7587,7587,7587,7587,7587,7587,7587,7587,7587,7587,7587,7587,
7587,7587,7587,7587,7587,7587,7587,7587,7587,7587,7587,7587,7587,7587,7587,7587,
0,0,0,0,0,0,0,0,0,0,0,0,0,0,0,0,
0,0,0,0,0,0,0,0,0,0,0,0,0,0,0,0
</chunk>
   <chunk x="-16" y="80" width="16" height="16">
7587,7587,7587,7587,7587,7587,0,0,0,0,0,0,0,0,0,0,
7587,7587,7587,7587,7587,7587,7587,7587,7587,7587,7587,7587,7587,7587,7587,0,
7587,7587,7587,7587,7587,7587,0,0,0,0,0,0,0,0,0,0,
7587,7587,7587,7587,7587,7587,0,0,0,0,0,0,0,0,0,0,
7587,7587,7587,7587,7587,7587,7587,0,0,0,0,0,0,7587,7587,7587,
7587,7587,7587,7587,7587,7587,7587,7587,7587,7587,7587,7587,7587,7587,7587,7587,
7587,7587,7587,7587,7587,7587,7587,7587,7587,7587,7587,7587,7587,7587,7587,7587,
7587,7587,7587,7587,7587,7587,7587,7587,7587,7587,7587,7587,7587,7587,7587,7587,
7587,7587,7587,7587,7587,7587,7587,7587,7587,7587,7587,7587,7587,7587,7587,7587,
7587,7587,7587,7587,7587,7587,7587,7587,7587,7587,7587,7587,7587,7587,7587,7587,
7587,7587,7587,7587,7587,7587,7587,7587,7587,7587,7587,7587,7587,7587,7587,7587,
7587,7587,7587,7587,7587,7587,7587,7587,7587,7587,7587,7587,7587,7587,7587,7587,
7587,7587,7587,7587,7587,7587,7587,7587,7587,7587,7587,7587,7587,7587,7587,7587,
7587,7587,7587,7587,7587,7587,7587,7587,7587,7587,7587,7587,7587,7587,7587,7587,
0,0,0,0,0,0,0,0,0,0,0,0,0,0,0,0,
0,0,0,0,0,0,0,0,0,0,0,0,0,0,0,0
</chunk>
   <chunk x="0" y="80" width="16" height="16">
0,0,0,7587,7587,7587,7587,7587,7587,7587,7587,7587,7587,7587,7587,7587,
0,0,0,7587,7587,7587,7587,7587,7587,7587,7587,7587,7587,7587,7587,7587,
0,0,0,7587,7587,7587,7587,7587,7587,7587,7587,7587,7587,7587,7587,7587,
0,0,7587,7587,7587,7587,7587,7587,7587,7587,7587,7587,7587,7587,7587,7587,
7587,7587,7587,7587,7587,7587,7587,7587,7587,7587,7587,7587,7587,7587,7587,7587,
7587,7587,7587,7587,7587,7587,7587,7587,7587,7587,7587,7587,7587,7587,7587,7587,
7587,7587,7587,7587,7587,7587,7587,7587,7587,7587,7587,7587,7587,7587,7587,7587,
7587,7587,7587,7587,7587,7587,7587,7587,7587,7587,7587,7587,7587,7587,7587,7587,
7587,7587,7587,7587,7587,7587,7587,7587,7587,7587,7587,7587,7587,7587,7587,7587,
7587,7587,7587,7587,7587,7587,7587,7587,7587,7587,7587,7587,7587,7587,7587,7587,
7587,7587,7587,7587,7587,7587,7587,7587,7587,7587,7587,7587,7587,7587,7587,7587,
7587,7587,7587,7587,7587,7587,7587,7587,7587,7587,7587,7587,7587,7587,7587,7587,
7587,7587,7587,7587,7587,7587,7587,7587,7587,7587,7587,7587,7587,7587,7587,7587,
7587,7587,7587,7587,7587,7587,7587,7587,7587,7587,7587,7587,7587,7587,7587,7587,
0,0,0,0,0,0,0,0,0,0,0,0,0,0,0,0,
0,0,0,0,0,0,0,0,0,0,0,0,0,0,0,0
</chunk>
   <chunk x="16" y="80" width="16" height="16">
7587,7587,7587,7587,7587,7587,7587,7587,7587,7587,7587,7587,7587,7587,7587,7587,
7587,7587,7587,7587,7587,7587,7587,7587,7587,7587,7587,7587,7587,7587,7587,7587,
7587,7587,7587,7587,7587,7587,7587,7587,7587,7587,7587,7587,7587,7587,7587,7587,
7587,7587,7587,7587,7587,7587,7587,7587,7587,7587,7587,7587,7587,7587,7587,7587,
7587,7587,7587,7587,7587,7587,7587,7587,7587,7587,7587,7587,7587,7587,7587,7587,
7587,7587,7587,7587,7587,7587,7587,7587,7587,7587,7587,7587,7587,7587,7587,7587,
7587,7587,7587,7587,7587,7587,7587,7587,7587,7587,7587,7587,7587,7587,7587,7587,
7587,7587,7587,7587,7587,7587,7587,7587,7587,7587,7587,7587,7587,7587,7587,7587,
7587,7587,7587,7587,7587,7587,7587,7587,7587,7587,7587,7587,7587,7587,7587,7587,
7587,7587,7587,7587,7587,7587,7587,7587,7587,7587,7587,7587,7587,7587,7587,7587,
7587,7587,7587,7587,7587,7587,7587,7587,7587,7587,7587,7587,7587,7587,7587,7587,
7587,7587,7587,7587,7587,7587,7587,7587,7587,7587,7587,7587,7587,7587,7587,7587,
7587,7587,7587,7587,7587,7587,7587,7587,7587,7587,7587,7587,7587,7587,7587,7587,
7587,7587,7587,7587,7587,7587,7587,7587,7587,7587,7587,7587,7587,7587,7587,7587,
0,0,0,0,0,0,0,0,0,0,0,0,0,0,0,0,
0,0,0,0,0,0,0,0,0,0,0,0,0,0,0,0
</chunk>
   <chunk x="32" y="80" width="16" height="16">
7587,7587,7587,7587,7587,7587,7587,7587,7587,7587,7587,7587,7587,7587,7587,0,
7587,7587,7587,7587,7587,7587,7587,7587,7587,7587,7587,7587,7587,7587,7587,0,
7587,7587,7587,7587,7587,7587,7587,7587,7587,7587,7587,7587,7587,7587,7587,0,
7587,7587,7587,7587,7587,7587,7587,7587,7587,7587,7587,7587,7587,7587,7587,7587,
7587,7587,7587,7587,7587,7587,7587,7587,7587,7587,7587,7587,7587,7587,7587,7587,
7587,7587,7587,7587,7587,7587,7587,7587,7587,7587,7587,7587,7587,7587,7587,7587,
7587,7587,7587,7587,7587,7587,7587,7587,7587,7587,7587,7587,7587,7587,7587,7587,
7587,7587,7587,7587,7587,7587,7587,7587,7587,7587,7587,7587,7587,7587,7587,7587,
7587,7587,7587,7587,7587,7587,7587,7587,7587,7587,7587,7587,7587,7587,7587,7587,
7587,7587,7587,7587,7587,7587,7587,7587,7587,7587,7587,7587,7587,7587,7587,7587,
7587,7587,7587,7587,7587,7587,7587,7587,7587,7587,7587,7587,7587,7587,7587,7587,
7587,7587,7587,7587,7587,7587,7587,7587,7587,7587,7587,7587,7587,7587,7587,7587,
7587,7587,7587,7587,7587,7587,7587,7587,7587,7587,7587,7587,7587,7587,7587,7587,
7587,7587,7587,7587,7587,7587,7587,7587,7587,7587,7587,7587,7587,7587,7587,7587,
0,0,0,0,0,0,0,0,0,0,0,0,0,0,0,0,
0,0,0,0,0,0,0,0,0,0,0,0,0,0,0,0
</chunk>
   <chunk x="48" y="80" width="16" height="16">
0,0,0,0,0,0,0,0,0,0,0,7587,7587,7587,7587,7587,
0,0,0,0,0,0,0,0,0,0,0,7587,7587,7587,7587,7587,
0,0,0,0,0,0,0,0,0,0,0,7587,7587,7587,7587,7587,
7587,7587,7587,0,0,0,0,0,0,0,0,7587,7587,7587,7587,7587,
7587,7587,7587,0,0,0,0,0,0,0,0,7587,7587,7587,7587,7587,
7587,7587,7587,0,0,0,0,0,0,0,0,7587,7587,7587,7587,7587,
7587,7587,7587,0,0,0,0,0,0,0,0,7587,7587,7587,7587,7587,
7587,7587,7587,0,0,0,0,0,0,0,0,7587,7587,7587,7587,7587,
7587,7587,7587,0,0,0,0,0,0,0,0,7587,7587,7587,7587,7587,
7587,7587,7587,0,0,0,0,0,0,0,0,7587,7587,7587,7587,7587,
7587,7587,7587,0,0,0,0,0,0,0,0,7587,7587,7587,7587,7587,
7587,7587,7587,0,0,0,0,0,0,0,0,7587,7587,7587,7587,7587,
7587,7587,7587,0,0,0,0,0,0,0,0,7587,7587,7587,7587,7587,
7587,7587,7587,0,0,0,0,0,0,0,0,7587,7587,7587,7587,7587,
7587,7587,0,0,0,0,0,0,0,7587,7587,7587,7587,7587,7587,7587,
7587,7587,0,0,0,0,0,0,0,7587,7587,0,0,0,0,0
</chunk>
   <chunk x="64" y="80" width="16" height="16">
7587,7587,7587,7587,0,0,0,0,0,0,0,0,0,0,0,0,
7587,7587,7587,7587,0,0,0,0,0,0,0,0,0,0,0,0,
7587,7587,7587,7587,0,0,0,0,0,0,0,0,0,0,0,0,
7587,7587,7587,7587,0,0,0,0,0,0,0,0,0,0,0,0,
7587,7587,7587,7587,0,0,0,0,0,0,0,0,0,0,0,0,
7587,7587,7587,7587,0,0,0,0,0,0,0,0,0,0,0,0,
7587,7587,7587,7587,0,0,0,0,0,0,0,0,0,0,0,0,
7587,7587,7587,7587,0,0,0,0,0,0,0,0,0,0,0,0,
7587,7587,7587,7587,0,0,0,0,0,0,0,0,0,0,0,0,
7587,7587,7587,7587,0,0,0,0,0,0,0,0,0,0,0,0,
7587,7587,7587,7587,0,0,0,0,0,0,0,0,0,0,0,0,
7587,7587,7587,7587,0,0,0,0,0,0,0,0,0,0,0,0,
7587,7587,7587,7587,0,0,0,0,0,0,0,0,0,0,0,0,
7587,7587,7587,7587,0,0,0,0,0,0,0,0,0,0,0,0,
7587,7587,7587,7587,0,0,0,0,0,0,0,0,0,0,0,0,
0,0,0,0,0,0,0,0,0,0,0,0,0,0,0,0
</chunk>
   <chunk x="48" y="96" width="16" height="16">
7587,7587,0,0,0,0,0,0,0,7587,7587,0,0,0,0,0,
7587,7587,7587,7587,7587,7587,7587,7587,7587,7587,7587,0,0,0,0,0,
7587,7587,7587,7587,7587,7587,7587,7587,7587,7587,7587,0,0,0,0,0,
0,0,0,0,0,0,0,0,0,0,0,0,0,0,0,0,
0,0,0,0,0,0,0,0,0,0,0,0,0,0,0,0,
0,0,0,0,0,0,0,0,0,0,0,0,0,0,0,0,
0,0,0,0,0,0,0,0,0,0,0,0,0,0,0,0,
0,0,0,0,0,0,0,0,0,0,0,0,0,0,0,0,
0,0,0,0,0,0,0,0,0,0,0,0,0,0,0,0,
0,0,0,0,0,0,0,0,0,0,0,0,0,0,0,0,
0,0,0,0,0,0,0,0,0,0,0,0,0,0,0,0,
0,0,0,0,0,0,0,0,0,0,0,0,0,0,0,0,
0,0,0,0,0,0,0,0,0,0,0,0,0,0,0,0,
0,0,0,0,0,0,0,0,0,0,0,0,0,0,0,0,
0,0,0,0,0,0,0,0,0,0,0,0,0,0,0,0,
0,0,0,0,0,0,0,0,0,0,0,0,0,0,0,0
</chunk>
  </data>
 </layer>
 <layer id="10" name="AboveCollision" width="30" height="20">
  <data encoding="csv"/>
 </layer>
 <objectgroup id="18" name="Buildings"/>
 <objectgroup id="17" name="NPC"/>
 <objectgroup id="16" name="Enemies"/>
 <objectgroup id="15" name="Events">
  <object id="12" x="-17.3333" y="1259" width="17.3333" height="37.3333">
   <properties>
    <property name="Event" value="EnterBuilding"/>
   </properties>
  </object>
 </objectgroup>
 <objectgroup id="14" name="Comments">
  <object id="1" x="816.5" y="1572.5" width="87.6667" height="19">
   <text wrap="1">ToPhosphor</text>
  </object>
  <object id="2" x="926.5" y="238.5" width="131" height="19">
   <text wrap="1">To Emerald Plains</text>
  </object>
  <object id="6" x="-954.5" y="-910.5" width="121" height="19">
   <text wrap="1" color="#ffaa00">To Niddles Gap</text>
  </object>
  <object id="7" x="508.5" y="-673.5" width="83" height="19">
   <text wrap="1">Dungeon</text>
  </object>
  <object id="13" x="-396.25" y="-170.25" width="90.6667" height="37.6667">
   <text wrap="1" color="#ff5500">To Phosphor Caves</text>
  </object>
  <object id="14" x="-268" y="-306" width="92.3333" height="38.3333">
   <text wrap="1" color="#ffaa00">To Phosphor Caves</text>
  </object>
  <object id="15" x="-1059.5" y="-378.167" width="95" height="39">
   <text wrap="1" color="#ffaa00">To Phosphor Caves</text>
  </object>
 </objectgroup>
</map>
